%
(Header)
(Generated by gcodetools from Inkscape.)
(Using default header. To add your own header create file "header" in the output dir.)
M3
(Header end.)
G21 (All units in mm)
(Tool diameter should be at least 0.5 mm)
(Depth, as a function of radius w, must be 10)
(Rapid feeds use safe Z=5.0 mm)
(Material surface at Z=0.0 mm)
(Change tool to Cylindrical cutter)

G00 Z5.000000
G00 X277.506460 Y135.846435

G01 Z-0.249992 F100.0(Penetrate)
G01 X277.413863 Y135.945580 Z-0.249992 F400.000000
G01 X276.384824 Y137.047122 Z-0.249992
G01 X276.137569 Y137.573523 Z-0.249992
G01 X274.937786 Y140.128001 Z-0.249992
G01 X274.080451 Y141.953301 Z-0.249992
G01 X273.870563 Y142.595582 Z-0.249992
G01 X273.432215 Y143.936900 Z-0.249992
G01 X272.779209 Y145.935146 Z-0.249992
G01 X272.674928 Y146.254255 Z-0.249992
G01 X271.798233 Y148.936834 Z-0.249992
G01 X271.259414 Y150.585604 Z-0.249992
G01 X271.114888 Y151.238074 Z-0.249992
G01 X269.894193 Y156.748942 Z-0.249992
G01 X269.444980 Y158.776850 Z-0.249992
G01 X269.380746 Y159.408068 Z-0.249992
G01 X269.237913 Y160.811926 Z-0.249992
G01 X269.029351 Y162.861537 Z-0.249992
G01 X268.958965 Y163.553123 Z-0.249992
G01 X268.747467 Y165.631717 Z-0.249992
G01 X268.753140 Y165.799245 Z-0.249992
G01 X268.801033 Y167.209537 Z-0.249992
G01 X268.854740 Y168.791223 Z-0.249992
G01 X268.929360 Y169.327107 Z-0.249992
G01 X269.513193 Y173.519998 Z-0.249992
G01 X269.782630 Y175.454998 Z-0.249992
G01 X269.868369 Y175.819460 Z-0.249992
G01 X270.191514 Y177.193064 Z-0.249992
G01 X270.600341 Y178.931045 Z-0.249992
G01 X270.719552 Y179.285318 Z-0.249992
G01 X271.169555 Y180.622741 Z-0.249992
G01 X271.742522 Y182.325529 Z-0.249992
G01 X272.003917 Y183.102430 Z-0.249992
G01 X272.149289 Y183.544277 Z-0.249992
G01 X272.735521 Y185.326059 Z-0.249992
G01 X272.833227 Y185.625723 Z-0.249992
G01 X273.368207 Y187.266647 Z-0.249992
G01 X273.473137 Y187.588522 Z-0.249992
G01 X274.347942 Y190.271721 Z-0.249992
G01 X274.886958 Y191.925007 Z-0.249992
G01 X274.917918 Y191.998018 Z-0.249992
G01 X275.498928 Y193.368913 Z-0.249992
G01 X275.514535 Y193.397586 Z-0.249992
G01 X276.863360 Y195.876655 Z-0.249992
G01 X277.559179 Y197.155545 Z-0.249992
G01 X277.675793 Y197.369892 Z-0.249992
G01 X278.350220 Y198.609412 Z-0.249992
G01 X279.136717 Y200.054983 Z-0.249992
G01 X279.308167 Y200.320272 Z-0.249992
G01 X280.074033 Y201.505464 Z-0.249992
G01 X281.011829 Y202.956707 Z-0.249992
G01 X281.064351 Y203.026924 Z-0.249992
G01 X284.444357 Y207.547475 Z-0.249992
G01 X285.342303 Y208.748415 Z-0.249992
G01 X285.650913 Y209.111381 Z-0.249992
G01 X286.564947 Y210.186450 Z-0.249992
G01 X287.787928 Y211.624937 Z-0.249992
G01 X288.169662 Y212.024479 Z-0.249992
G01 X289.144486 Y213.044741 Z-0.249992
G01 X290.506039 Y214.469822 Z-0.249992
G01 X290.628636 Y214.598148 Z-0.249992
G01 X291.731448 Y215.752409 Z-0.249992
G01 X291.781006 Y215.811224 Z-0.249992
G01 X292.793478 Y217.013039 Z-0.249992
G01 X292.793478 Y217.275506 Z-0.249992
G01 X292.793478 Y217.973554 Z-0.249992
G01 X291.625643 Y217.731210 Z-0.249992
G01 X291.530816 Y217.702762 Z-0.249992
G01 X288.827635 Y216.891712 Z-0.249992
G01 X287.391632 Y216.460843 Z-0.249992
G01 X287.015147 Y216.347898 Z-0.249992
G01 X284.311967 Y215.536847 Z-0.249992
G01 X282.572490 Y215.014934 Z-0.249992
G01 X282.013662 Y214.787322 Z-0.249992
G01 X278.093059 Y213.190452 Z-0.249992
G01 X276.230138 Y212.431697 Z-0.249992
G01 X275.755497 Y212.197538 Z-0.249992
G01 X271.958987 Y210.324683 Z-0.249992
G01 X270.226848 Y209.470199 Z-0.249992
G01 X270.035022 Y209.375569 Z-0.249992
G01 X266.238512 Y207.502715 Z-0.249992
G01 X264.774484 Y206.780480 Z-0.249992
G01 X263.900018 Y206.281962 Z-0.249992
G01 X263.706668 Y206.158970 Z-0.249992
G01 X258.944112 Y203.129455 Z-0.249992
G01 X257.565230 Y202.252337 Z-0.249992
G01 X257.105857 Y201.960124 Z-0.249992
G01 X254.724579 Y200.445381 Z-0.249992
G01 X253.083344 Y199.401356 Z-0.249992
G01 X252.516867 Y199.103866 Z-0.249992
G01 X252.074286 Y199.273707 Z-0.249992
G01 X251.748094 Y199.398873 Z-0.249992
G01 X251.827314 Y199.952621 Z-0.249992
G01 X252.008105 Y200.435842 Z-0.249992
G01 X252.692889 Y202.266081 Z-0.249992
G01 X252.784216 Y202.510175 Z-0.249992
G01 X253.360147 Y204.049500 Z-0.249992
G01 X253.570967 Y204.369653 Z-0.249992
G01 X258.227578 Y211.440759 Z-0.249992
G01 X259.223568 Y212.953159 Z-0.249992
G01 X259.333268 Y213.090009 Z-0.249992
G01 X261.098596 Y215.291963 Z-0.249992
G01 X262.098284 Y216.538877 Z-0.249992
G01 X262.184700 Y216.646658 Z-0.249992
G01 X263.950028 Y218.848612 Z-0.249992
G01 X264.912096 Y220.048621 Z-0.249992
G01 X264.964109 Y220.102780 Z-0.249992
G01 X266.919091 Y222.138223 Z-0.249992
G01 X267.948299 Y223.209792 Z-0.249992
G01 X268.434539 Y223.629908 Z-0.249992
G01 X273.773337 Y228.242746 Z-0.249992
G01 X275.328974 Y229.586858 Z-0.249992
G01 X275.791875 Y229.929221 Z-0.249992
G01 X278.060942 Y231.607399 Z-0.249992
G01 X279.660916 Y232.790729 Z-0.249992
G01 X280.007626 Y233.020938 Z-0.249992
G01 X283.534247 Y235.362705 Z-0.249992
G01 X285.061775 Y236.377011 Z-0.249992
G01 X285.212143 Y236.476862 Z-0.249992
G01 X288.738763 Y238.818629 Z-0.249992
G01 X290.061369 Y239.696876 Z-0.249992
G01 X290.555653 Y240.002974 Z-0.249992
G01 X291.755324 Y240.745924 Z-0.249992
G01 X293.442476 Y241.790796 Z-0.249992
G01 X293.499542 Y241.818990 Z-0.249992
G01 X298.560040 Y244.319196 Z-0.249992
G01 X299.879796 Y244.971243 Z-0.249992
G01 X300.069619 Y245.038694 Z-0.249992
G01 X301.399224 Y245.511275 Z-0.249992
G01 X302.926441 Y246.054101 Z-0.249992
G01 X303.065408 Y246.095559 Z-0.249992
G01 X305.769746 Y246.902659 Z-0.249992
G01 X307.267019 Y247.349529 Z-0.249992
G01 X307.589966 Y247.445908 Z-0.249992
G01 X308.942149 Y247.849458 Z-0.249992
G01 X310.618436 Y248.349753 Z-0.249992
G01 X311.022917 Y248.474777 Z-0.249992
G01 X312.371121 Y248.891450 Z-0.249992
G01 X314.126769 Y249.434079 Z-0.249992
G01 X315.062166 Y249.758889 Z-0.249992
G01 X315.563619 Y249.933020 Z-0.249992
G01 X317.387282 Y250.566298 Z-0.249992
G01 X317.565223 Y250.610297 Z-0.249992
G01 X318.935045 Y250.949133 Z-0.249992
G01 X320.484953 Y251.332475 Z-0.249992
G01 X320.591069 Y251.350509 Z-0.249992
G01 X321.982255 Y251.586842 Z-0.249992
G01 X323.488701 Y251.842761 Z-0.249992
G01 X323.643951 Y251.869149 Z-0.249992
G01 X325.172608 Y252.128821 Z-0.249992
G01 X325.844749 Y252.145134 Z-0.249992
G01 X327.937596 Y252.195877 Z-0.249992
G01 X328.273017 Y252.182585 Z-0.249992
G01 X331.093009 Y252.070881 Z-0.249992
G01 X332.835986 Y252.001850 Z-0.249992
G01 X333.188284 Y251.958331 Z-0.249992
G01 X334.866067 Y251.751180 Z-0.249992
G01 X335.176455 Y251.440792 Z-0.249992
G01 X335.545234 Y251.072012 Z-0.249992
G01 X335.552883 Y250.429787 Z-0.249992
G01 X335.540126 Y250.070603 Z-0.249992
G01 X335.289964 Y243.019507 Z-0.249992
G01 X335.226972 Y241.244188 Z-0.249992
G01 X335.220481 Y241.060771 Z-0.249992
G01 X335.020358 Y235.419883 Z-0.249992
G01 X334.963659 Y233.822195 Z-0.249992
G01 X334.961938 Y233.230375 Z-0.249992
G01 X334.955870 Y231.140858 Z-0.249992
G01 X335.254630 Y230.780940 Z-0.249992
G01 X335.462261 Y230.530722 Z-0.249992
G01 X336.118456 Y230.174303 Z-0.249992
G01 X336.689025 Y229.986004 Z-0.249992
G01 X337.324448 Y229.776285 Z-0.249992
G01 X337.830557 Y229.658711 Z-0.249992
G01 X338.419978 Y230.498718 Z-0.249992
G01 X338.560017 Y231.289024 Z-0.249992
G01 X338.561992 Y231.301555 Z-0.249992
G01 X338.783452 Y232.705639 Z-0.249992
G01 X338.796688 Y232.789572 Z-0.249992
G01 X339.236362 Y235.577335 Z-0.249992
G01 X339.468660 Y237.050055 Z-0.249992
G01 X339.585584 Y237.633775 Z-0.249992
G01 X341.248720 Y245.935483 Z-0.249992
G01 X341.642504 Y247.901076 Z-0.249992
G01 X341.696381 Y248.109102 Z-0.249992
G01 X342.050118 Y249.475142 Z-0.249992
G01 X342.459481 Y251.055954 Z-0.249992
G01 X342.535456 Y251.349324 Z-0.249992
G01 X342.962147 Y252.996909 Z-0.249992
G01 X343.054688 Y253.249469 Z-0.249992
G01 X343.632594 Y254.826584 Z-0.249992
G01 X343.801928 Y255.174931 Z-0.249992
G01 X344.418894 Y256.444027 Z-0.249992
G01 X345.204149 Y258.059355 Z-0.249992
G01 X345.266322 Y258.155875 Z-0.249992
G01 X346.089536 Y259.434059 Z-0.249992
G01 X346.080392 Y259.423956 Z-0.249992
G01 X347.032667 Y260.474669 Z-0.249992
G01 X347.252461 Y260.717211 Z-0.249992
G01 X348.480100 Y262.071793 Z-0.249992
G01 X348.495763 Y262.400638 Z-0.249992
G01 X348.629847 Y265.219671 Z-0.249992
G01 X348.708248 Y266.868470 Z-0.249992
G01 X348.730487 Y267.335971 Z-0.249992
G01 X348.864571 Y270.155004 Z-0.249992
G01 X348.953584 Y272.026815 Z-0.249992
G01 X349.004779 Y272.598879 Z-0.249992
G01 X349.041242 Y272.868825 Z-0.249992
G01 X349.418856 Y275.665647 Z-0.249992
G01 X349.644887 Y277.339592 Z-0.249992
G01 X349.683552 Y277.626104 Z-0.249992
G01 X349.910289 Y279.305269 Z-0.249992
G01 X349.912632 Y279.318026 Z-0.249992
G01 X350.167817 Y280.712034 Z-0.249992
G01 X350.278928 Y281.094050 Z-0.249992
G01 X350.781255 Y282.821053 Z-0.249992
G01 X351.120289 Y283.492770 Z-0.249992
G01 X351.571082 Y284.028512 Z-0.249992
G01 X351.972684 Y284.505778 Z-0.249992
G01 X352.342367 Y285.070703 Z-0.249992
G01 X352.342367 Y285.278305 Z-0.249992
G01 X352.342367 Y285.487686 Z-0.249992
G01 X351.600066 Y286.590582 Z-0.249992
G01 X351.594902 Y286.597440 Z-0.249992
G01 X350.745356 Y287.726696 Z-0.249992
G01 X350.744143 Y287.728333 Z-0.249992
G01 X349.902895 Y288.846525 Z-0.249992
G01 X349.750015 Y289.104787 Z-0.249992
G01 X348.880376 Y290.573895 Z-0.249992
G01 X348.468444 Y291.571042 Z-0.249992
G01 X348.044264 Y292.597823 Z-0.249992
G01 X347.388323 Y293.783298 Z-0.249992
G01 X347.011218 Y294.193367 Z-0.249992
G01 X346.373029 Y294.887436 Z-0.249992
G01 X345.814370 Y295.190768 Z-0.249992
G01 X344.574257 Y295.864066 Z-0.249992
G01 X342.805034 Y296.824666 Z-0.249992
G01 X342.645127 Y296.898664 Z-0.249992
G01 X340.083960 Y298.084110 Z-0.249992
G01 X338.650723 Y298.747474 Z-0.249992
G01 X338.620300 Y298.761528 Z-0.249992
G01 X337.322642 Y299.362154 Z-0.249992
G01 X337.247768 Y299.408156 Z-0.249992
G01 X335.968511 Y300.194173 Z-0.249992
G01 X335.806064 Y300.317391 Z-0.249992
G01 X334.681691 Y301.170069 Z-0.249992
G01 X333.394673 Y302.146107 Z-0.249992
G01 X333.314324 Y302.220134 Z-0.249992
G01 X332.197458 Y303.249172 Z-0.249992
G01 X332.160346 Y303.291731 Z-0.249992
G01 X331.187074 Y304.408344 Z-0.249992
G01 X330.818774 Y304.830858 Z-0.249992
G01 X329.532490 Y306.306570 Z-0.249992
G01 X329.413307 Y306.478810 Z-0.249992
G01 X328.499867 Y307.799187 Z-0.249992
G01 X328.502605 Y307.792188 Z-0.249992
G01 X327.471252 Y310.419197 Z-0.249992
G01 X326.955519 Y311.732800 Z-0.249992
G01 X326.849488 Y312.247122 Z-0.249992
G01 X326.455562 Y314.157682 Z-0.249992
G01 X326.384414 Y314.634214 Z-0.249992
G01 X326.176077 Y316.029860 Z-0.249992
G01 X325.895577 Y317.908839 Z-0.249992
G01 X325.889537 Y317.949366 Z-0.249992
G01 X325.681201 Y319.345011 Z-0.249992
G01 X325.468970 Y320.766734 Z-0.249992
G01 X325.455536 Y321.197038 Z-0.249992
G01 X325.397765 Y323.048162 Z-0.249992
G01 X325.397878 Y323.092612 Z-0.249992
G01 X325.421556 Y331.559250 Z-0.249992
G01 X325.425620 Y333.019045 Z-0.249992
G01 X325.425903 Y333.116722 Z-0.249992
G01 X325.437728 Y337.350055 Z-0.249992
G01 X325.441961 Y338.858759 Z-0.249992
G01 X325.442130 Y338.918646 Z-0.249992
G01 X325.446618 Y340.329758 Z-0.249992
G01 X325.451274 Y341.794660 Z-0.249992
G01 X325.461434 Y341.989140 Z-0.249992
G01 X325.535094 Y343.398332 Z-0.249992
G01 X325.616120 Y344.948635 Z-0.249992
G01 X325.743374 Y345.170800 Z-0.249992
G01 X326.056754 Y345.677869 Z-0.249992
G01 X326.484546 Y346.370019 Z-0.249992
G01 X326.956337 Y346.858969 Z-0.249992
G01 X327.408090 Y347.128745 Z-0.249992
G01 X329.088554 Y348.132242 Z-0.249992
G01 X329.265084 Y348.213635 Z-0.249992
G01 X330.732329 Y348.890291 Z-0.249992
G01 X330.800119 Y348.919586 Z-0.249992
G01 X332.095519 Y349.479233 Z-0.249992
G01 X333.461475 Y350.069359 Z-0.249992
G01 X333.898411 Y350.258138 Z-0.249992
G01 X336.489183 Y351.377431 Z-0.249992
G01 X338.372367 Y352.191021 Z-0.249992
G01 X338.372367 Y353.047820 Z-0.249992
G01 X338.372367 Y354.458931 Z-0.249992
G01 X338.372367 Y356.562531 Z-0.249992
G01 X338.372367 Y357.202329 Z-0.249992
G01 X338.372367 Y359.244630 Z-0.249992
G01 X338.385067 Y359.428864 Z-0.249992
G01 X338.492312 Y360.985235 Z-0.249992
G01 X338.693508 Y361.436113 Z-0.249992
G01 X338.912089 Y361.925967 Z-0.249992
G01 X339.635030 Y362.440937 Z-0.249992
G01 X339.877741 Y362.562519 Z-0.249992
G01 X341.399398 Y363.324829 Z-0.249992
G01 X341.946260 Y363.598782 Z-0.249992
G01 X343.746104 Y364.500454 Z-0.249992
G01 X344.151996 Y364.665752 Z-0.249992
G01 X345.861924 Y365.362107 Z-0.249992
G01 X345.947833 Y365.387196 Z-0.249992
G01 X348.656827 Y366.178632 Z-0.249992
G01 X350.096358 Y366.599228 Z-0.249992
G01 X350.449644 Y366.661514 Z-0.249992
G01 X352.194539 Y366.969221 Z-0.249992
G01 X352.643894 Y367.005571 Z-0.249992
G01 X354.511443 Y367.156758 Z-0.249992
G01 X354.584284 Y367.162656 Z-0.249992
G01 X356.072019 Y367.283052 Z-0.249992
G01 X356.366687 Y367.326938 Z-0.249992
G01 X358.063435 Y367.579555 Z-0.249992
G01 X358.931410 Y367.815973 Z-0.249992
G01 X359.783241 Y368.048016 Z-0.249992
G01 X360.808075 Y368.309861 Z-0.249992
G01 X361.210185 Y368.398310 Z-0.249992
G01 X361.892485 Y368.548396 Z-0.249992
G01 X362.166071 Y368.914720 Z-0.249992
G01 X362.313081 Y369.820541 Z-0.249992
G01 X362.411859 Y370.429350 Z-0.249992
G01 X362.364276 Y371.143147 Z-0.249992
G01 X362.155432 Y371.351991 Z-0.249992
G01 X361.773190 Y371.734233 Z-0.249992
G01 X360.967050 Y371.738749 Z-0.249992
G01 X358.841776 Y371.750715 Z-0.249992
G01 X358.455950 Y371.719557 Z-0.249992
G01 X357.049411 Y371.605991 Z-0.249992
G01 X355.267827 Y371.462086 Z-0.249992
G01 X354.957382 Y371.437025 Z-0.249992
G01 X353.257812 Y371.299752 Z-0.249992
G01 X352.467533 Y371.346375 Z-0.249992
G01 X351.494148 Y371.678043 Z-0.249992
G01 X350.258890 Y372.098921 Z-0.249992
G01 X349.974382 Y372.089692 Z-0.249992
G01 X349.906451 Y372.065816 Z-0.249992
G01 X348.543572 Y371.586800 Z-0.249992
G01 X347.357787 Y371.170014 Z-0.249992
G01 X346.355587 Y370.934697 Z-0.249992
G01 X346.116291 Y370.916974 Z-0.249992
G01 X344.473419 Y370.795167 Z-0.249992
G01 X343.627232 Y370.890304 Z-0.249992
G01 X342.736821 Y371.149158 Z-0.249992
G01 X341.473228 Y371.516499 Z-0.249992
G01 X340.804107 Y371.561174 Z-0.249992
G01 X339.954900 Y371.326704 Z-0.249992
G01 X338.834083 Y371.017219 Z-0.249992
G01 X338.595154 Y371.030625 Z-0.249992
G01 X337.186244 Y371.109619 Z-0.249992
G01 X335.532704 Y371.202329 Z-0.249992
G01 X334.253814 Y371.649707 Z-0.249992
G01 X333.762183 Y371.821694 Z-0.249992
G01 X333.478239 Y371.855165 Z-0.249992
G01 X331.813099 Y372.051479 Z-0.249992
G01 X331.572985 Y372.065957 Z-0.249992
G01 X329.931439 Y372.164876 Z-0.249992
G01 X329.906096 Y372.166428 Z-0.249992
G01 X328.497553 Y372.251321 Z-0.249992
G01 X327.080120 Y372.336749 Z-0.249992
G01 X326.354414 Y372.477747 Z-0.249992
G01 X325.137076 Y373.089182 Z-0.249992
G01 X324.307315 Y373.505968 Z-0.249992
G01 X323.306696 Y373.860806 Z-0.249992
G01 X322.924087 Y373.860806 Z-0.249992
G01 X321.967975 Y373.860806 Z-0.249992
G01 X321.473578 Y374.007307 Z-0.249992
G01 X320.120633 Y374.408204 Z-0.249992
G01 X318.267646 Y374.957267 Z-0.249992
G01 X317.278683 Y375.536754 Z-0.249992
G01 X316.742969 Y375.850670 Z-0.249992
G01 X315.392649 Y376.295226 Z-0.249992
G01 X314.288454 Y376.525463 Z-0.249992
G01 X313.210817 Y376.750169 Z-0.249992
G01 X313.088981 Y376.789172 Z-0.249992
G01 X311.625066 Y377.257745 Z-0.249992
G01 X310.758362 Y377.655001 Z-0.249992
G01 X309.629614 Y378.172315 Z-0.249992
G01 X308.793108 Y378.367020 Z-0.249992
G01 X308.147186 Y378.246370 Z-0.249992
G01 X307.664388 Y378.156172 Z-0.249992
G01 X306.498528 Y378.350538 Z-0.249992
G01 X306.488142 Y378.353642 Z-0.249992
G01 X305.110813 Y378.765913 Z-0.249992
G01 X304.441354 Y378.966290 Z-0.249992
G01 X302.438902 Y379.565646 Z-0.249992
G01 X301.947356 Y379.801894 Z-0.249992
G01 X301.765351 Y379.948254 Z-0.249992
G01 X300.461258 Y380.996908 Z-0.249992
G01 X299.773765 Y381.549781 Z-0.249992
G01 X298.620266 Y382.096728 Z-0.249992
G01 X297.680495 Y382.316833 Z-0.249992
G01 X297.397793 Y382.383070 Z-0.249992
G01 X295.769201 Y382.764494 Z-0.249992
G01 X295.372735 Y382.960694 Z-0.249992
G01 X293.713664 Y383.781792 Z-0.249992
G01 X293.571339 Y383.903458 Z-0.249992
G01 X292.332750 Y384.962243 Z-0.249992
G01 X291.542161 Y385.638052 Z-0.249992
G01 X290.603659 Y386.060821 Z-0.249992
G01 X289.204938 Y386.376684 Z-0.249992
G01 X288.041985 Y386.639320 Z-0.249992
G01 X286.836670 Y387.081224 Z-0.249992
G01 X286.407354 Y387.293934 Z-0.249992
G01 X284.715996 Y388.131993 Z-0.249992
G01 X283.839922 Y388.718423 Z-0.249992
G01 X283.319419 Y389.282388 Z-0.249992
G01 X282.856462 Y389.784009 Z-0.249992
G01 X282.140436 Y390.229695 Z-0.249992
G01 X281.743095 Y390.229695 Z-0.249992
G01 X281.442585 Y390.229695 Z-0.249992
G01 X280.438664 Y390.435745 Z-0.249992
G01 X279.505242 Y390.693668 Z-0.249992
G01 X279.455656 Y390.707356 Z-0.249992
G01 X278.083576 Y391.086465 Z-0.249992
G01 X277.630355 Y391.383080 Z-0.249992
G01 X277.400993 Y391.618623 Z-0.249992
G01 X276.167964 Y392.884870 Z-0.249992
G01 X275.201071 Y393.877840 Z-0.249992
G01 X274.111750 Y394.745250 Z-0.249992
G01 X273.747514 Y394.745250 Z-0.249992
G01 X273.138027 Y394.745250 Z-0.249992
G01 X272.792446 Y394.953333 Z-0.249992
G01 X271.583575 Y395.681269 Z-0.249992
G01 X269.987890 Y396.642094 Z-0.249992
G01 X269.754041 Y396.843855 Z-0.249992
G01 X268.435696 Y397.981351 Z-0.249992
G01 X267.724073 Y398.595354 Z-0.249992
G01 X267.595464 Y398.678412 Z-0.249992
G01 X266.284429 Y399.525276 Z-0.249992
G01 X265.243001 Y400.044678 Z-0.249992
G01 X264.223953 Y400.552876 Z-0.249992
G01 X264.177217 Y400.581662 Z-0.249992
G01 X262.934028 Y401.347077 Z-0.249992
G01 X262.370261 Y401.811784 Z-0.249992
G01 X261.778864 Y402.299267 Z-0.249992
G01 X261.698488 Y402.347583 Z-0.249992
G01 X260.414433 Y403.119235 Z-0.249992
G01 X259.345008 Y403.631751 Z-0.249992
G01 X259.342553 Y403.632908 Z-0.249992
G01 X258.088527 Y404.233900 Z-0.249992
G01 X258.073541 Y404.244850 Z-0.249992
G01 X256.917953 Y405.090699 Z-0.249992
G01 X256.874576 Y405.135177 Z-0.249992
G01 X255.831341 Y406.204658 Z-0.249992
G01 X255.692799 Y406.346672 Z-0.249992
G01 X254.551943 Y407.516201 Z-0.249992
G01 X253.809671 Y408.028688 Z-0.249992
G01 X252.855054 Y408.243177 Z-0.249992
G01 X252.183478 Y408.394053 Z-0.249992
G01 X251.067713 Y409.117671 Z-0.249992
G01 X250.546730 Y409.553225 Z-0.249992
G01 X248.942805 Y410.894147 Z-0.249992
G01 X248.946502 Y410.890224 Z-0.249992
G01 X247.998151 Y411.894286 Z-0.249992
G01 X247.668289 Y412.585985 Z-0.249992
G01 X247.272896 Y413.415097 Z-0.249992
G01 X246.663719 Y413.860218 Z-0.249992
G01 X246.320678 Y414.020972 Z-0.249992
G01 X244.721748 Y414.770244 Z-0.249992
G01 X244.708315 Y414.776537 Z-0.249992
G01 X243.407101 Y415.386306 Z-0.249992
G01 X242.102811 Y415.862359 Z-0.249992
G01 X241.862103 Y415.713600 Z-0.249992
G01 X241.625827 Y415.567550 Z-0.249992
G01 X241.493493 Y414.678352 Z-0.249992
G01 X241.493493 Y413.820763 Z-0.249992
G01 X241.493493 Y412.637970 Z-0.249992
G01 X241.424405 Y412.407902 Z-0.249992
G01 X241.079642 Y412.223386 Z-0.249992
G01 X240.628708 Y411.982057 Z-0.249992
G01 X240.319392 Y411.921775 Z-0.249992
G01 X239.443995 Y412.187684 Z-0.249992
G01 X238.921941 Y412.534648 Z-0.249992
G01 X238.136290 Y413.174644 Z-0.249992
G01 X238.097880 Y413.205942 Z-0.249992
G01 X236.955501 Y414.136485 Z-0.249992
G01 X236.166266 Y414.655520 Z-0.249992
G01 X234.831581 Y414.281548 Z-0.249992
G01 X234.331370 Y413.418907 Z-0.249992
G01 X234.280373 Y413.310082 Z-0.249992
G01 X233.635241 Y411.933374 Z-0.249992
G01 X233.551872 Y411.755518 Z-0.249992
G01 X232.953110 Y410.477756 Z-0.249992
G01 X232.276538 Y409.034020 Z-0.249992
G01 X232.089143 Y408.723717 Z-0.249992
G01 X230.630139 Y406.307895 Z-0.249992
G01 X229.750791 Y404.851826 Z-0.249992
G01 X229.318116 Y404.685794 Z-0.249992
G01 X229.194390 Y404.638325 Z-0.249992
G01 X228.833710 Y404.744468 Z-0.249992
G01 X228.483952 Y404.973633 Z-0.249992
G01 X228.135859 Y405.201697 Z-0.249992
G01 X227.863627 Y405.614870 Z-0.249992
G01 X227.773993 Y405.874627 Z-0.249992
G01 X227.217705 Y407.486483 Z-0.249992
G01 X227.213613 Y407.503557 Z-0.249992
G01 X226.879349 Y408.900840 Z-0.249992
G01 X226.801568 Y409.281360 Z-0.249992
G01 X226.440437 Y411.048494 Z-0.249992
G01 X226.423504 Y411.131440 Z-0.249992
G01 X226.122485 Y412.604470 Z-0.249992
G01 X226.113680 Y412.637152 Z-0.249992
G01 X225.725963 Y414.077783 Z-0.249992
G01 X225.542716 Y414.298594 Z-0.249992
G01 X225.357240 Y414.522086 Z-0.249992
G01 X224.192960 Y415.044422 Z-0.249992
G01 X222.984823 Y415.473316 Z-0.249992
G01 X222.416484 Y415.675104 Z-0.249992
G01 X220.543658 Y416.339964 Z-0.249992
G01 X220.335490 Y416.469080 Z-0.249992
G01 X218.927794 Y417.342163 Z-0.249992
G01 X218.498675 Y417.755026 Z-0.249992
G01 X217.033631 Y419.164613 Z-0.249992
G01 X216.883235 Y419.309308 Z-0.249992
G01 X215.621645 Y420.523174 Z-0.249992
G01 X215.078029 Y420.413616 Z-0.249992
G01 X213.279483 Y420.051214 Z-0.249992
G01 X213.169727 Y420.029116 Z-0.249992
G01 X211.698531 Y419.732670 Z-0.249992
G01 X210.464542 Y419.706564 Z-0.249992
G01 X210.288351 Y419.754711 Z-0.249992
G01 X208.783006 Y420.165909 Z-0.249992
G01 X208.409033 Y420.557746 Z-0.249992
G01 X208.409033 Y421.218372 Z-0.249992
G01 X208.409033 Y422.146008 Z-0.249992
G01 X208.805499 Y422.799889 Z-0.249992
G01 X209.098559 Y423.101556 Z-0.249992
G01 X210.394692 Y424.435649 Z-0.249992
G01 X210.616660 Y424.664136 Z-0.249992
G01 X211.923829 Y426.009574 Z-0.249992
G01 X211.523976 Y427.361870 Z-0.249992
G01 X211.467221 Y427.553810 Z-0.249992
G01 X211.009513 Y429.101911 Z-0.249992
G01 X210.698843 Y430.064854 Z-0.249992
G01 X210.540714 Y430.247367 Z-0.249992
G01 X209.459464 Y431.495128 Z-0.249992
G01 X208.533126 Y431.961528 Z-0.249992
G01 X208.325608 Y432.060024 Z-0.249992
G01 X206.845917 Y432.762418 Z-0.249992
G01 X206.519499 Y432.917387 Z-0.249992
G01 X204.922008 Y433.675689 Z-0.249992
G01 X203.900872 Y434.202062 Z-0.249992
G01 X203.865989 Y434.234885 Z-0.249992
G01 X202.839067 Y435.201891 Z-0.249992
G01 X202.764589 Y435.635412 Z-0.249992
G01 X202.764589 Y436.514224 Z-0.249992
G01 X202.764589 Y437.154022 Z-0.249992
G01 X202.777289 Y437.445021 Z-0.249992
G01 X202.972389 Y437.818232 Z-0.249992
G01 X203.140029 Y437.913228 Z-0.249992
G01 X203.580437 Y438.122213 Z-0.249992
G01 X204.097863 Y438.367747 Z-0.249992
G01 X204.236011 Y438.419168 Z-0.249992
G01 X205.703058 Y438.964929 Z-0.249992
G01 X205.755975 Y438.982653 Z-0.249992
G01 X207.150943 Y439.449702 Z-0.249992
G01 X207.207811 Y439.468724 Z-0.249992
G01 X208.608169 Y439.937580 Z-0.249992
G01 X208.624199 Y439.943760 Z-0.249992
G01 X209.986740 Y440.469851 Z-0.249992
G01 X210.199874 Y440.638704 Z-0.249992
G01 X210.437195 Y440.826777 Z-0.249992
G01 X210.754469 Y441.662183 Z-0.249992
G01 X210.924734 Y442.456103 Z-0.249992
G01 X210.991169 Y442.765841 Z-0.249992
G01 X211.348095 Y444.430162 Z-0.249992
G01 X211.470185 Y444.706176 Z-0.249992
G01 X212.041036 Y445.996665 Z-0.249992
G01 X212.733891 Y447.563027 Z-0.249992
G01 X212.899894 Y447.794082 Z-0.249992
G01 X213.904323 Y449.192183 Z-0.249992
G01 X213.998388 Y449.323106 Z-0.249992
G01 X214.987774 Y450.700265 Z-0.249992
G01 X214.911490 Y450.952262 Z-0.249992
G01 X214.462023 Y452.436722 Z-0.249992
G01 X214.115059 Y453.582629 Z-0.249992
G01 X213.950071 Y454.493953 Z-0.249992
G01 X213.950297 Y454.515261 Z-0.249992
G01 X213.964832 Y455.931480 Z-0.249992
G01 X214.120449 Y456.390768 Z-0.249992
G01 X214.445964 Y456.716284 Z-0.249992
G01 X214.806559 Y457.076879 Z-0.249992
G01 X215.149205 Y457.177209 Z-0.249992
G01 X216.384859 Y456.871929 Z-0.249992
G01 X217.209653 Y456.426385 Z-0.249992
G01 X217.211177 Y456.425369 Z-0.249992
G01 X218.394620 Y455.631788 Z-0.249992
G01 X218.745817 Y455.396274 Z-0.249992
G01 X220.384117 Y454.297667 Z-0.249992
G01 X220.657929 Y454.420547 Z-0.249992
G01 X222.092662 Y455.064409 Z-0.249992
G01 X222.948586 Y455.448513 Z-0.249992
G01 X223.149190 Y455.510009 Z-0.249992
G01 X224.703218 Y455.986316 Z-0.249992
G01 X225.997997 Y456.260410 Z-0.249992
G01 X226.494652 Y456.365538 Z-0.249992
G01 X228.507094 Y456.791524 Z-0.249992
G01 X228.749523 Y457.451755 Z-0.249992
G01 X229.430610 Y459.306858 Z-0.249992
G01 X229.897490 Y460.578466 Z-0.249992
G01 X230.374107 Y461.537937 Z-0.249992
G01 X230.435970 Y461.622040 Z-0.249992
G01 X231.322599 Y462.827890 Z-0.249992
G01 X231.717654 Y463.107488 Z-0.249992
G01 X232.110987 Y463.107488 Z-0.249992
G01 X232.374046 Y463.107488 Z-0.249992
G01 X232.959290 Y462.793657 Z-0.249992
G01 X233.426199 Y462.376476 Z-0.249992
G01 X234.122526 Y461.754317 Z-0.249992
G01 X234.294879 Y461.365133 Z-0.249992
G01 X234.306394 Y461.294859 Z-0.249992
G01 X234.551504 Y459.800549 Z-0.249992
G01 X234.747987 Y458.602713 Z-0.249992
G01 X235.076014 Y457.654108 Z-0.249992
G01 X235.426138 Y457.482602 Z-0.249992
G01 X235.925361 Y457.238028 Z-0.249992
G01 X236.546081 Y456.970001 Z-0.249992
G01 X237.841594 Y456.410580 Z-0.249992
G01 X239.754863 Y455.584431 Z-0.249992
G01 X240.847515 Y455.141371 Z-0.249992
G01 X241.478705 Y454.885423 Z-0.249992
G01 X242.252135 Y454.940428 Z-0.249992
G01 X242.457931 Y454.987447 Z-0.249992
G01 X244.020652 Y455.344345 Z-0.249992
G01 X244.172883 Y455.379143 Z-0.249992
G01 X245.682941 Y455.724018 Z-0.249992
G01 X246.454480 Y455.784358 Z-0.249992
G01 X247.096310 Y455.598373 Z-0.249992
G01 X247.558082 Y455.464543 Z-0.249992
G01 X247.704696 Y455.380300 Z-0.249992
G01 X247.877219 Y454.679458 Z-0.249992
G01 X247.823568 Y454.033761 Z-0.249992
G01 X247.669193 Y452.818117 Z-0.249992
G01 X247.616643 Y452.404380 Z-0.249992
G01 X247.578232 Y452.043643 Z-0.249992
G01 X248.057305 Y451.721966 Z-0.249992
G01 X248.448662 Y451.744290 Z-0.249992
G01 X249.054593 Y451.784620 Z-0.249992
G01 X249.967639 Y451.845382 Z-0.249992
G01 X250.286296 Y451.752446 Z-0.249992
G01 X250.771831 Y451.296290 Z-0.249992
G01 X251.194233 Y450.899458 Z-0.249992
G01 X251.364667 Y450.519050 Z-0.249992
G01 X251.308476 Y449.446154 Z-0.249992
G01 X251.054787 Y448.811239 Z-0.249992
G01 X250.539788 Y447.974281 Z-0.249992
G01 X250.475243 Y447.869379 Z-0.249992
G01 X249.584409 Y446.421607 Z-0.249992
G01 X250.286155 Y445.436059 Z-0.249992
G01 X250.606025 Y444.986874 Z-0.249992
G01 X251.075953 Y443.979397 Z-0.249992
G01 X251.332211 Y443.188131 Z-0.249992
G01 X251.352108 Y443.126691 Z-0.249992
G01 X251.847747 Y441.596200 Z-0.249992
G01 X252.004408 Y441.551270 Z-0.249992
G01 X253.360825 Y441.162170 Z-0.249992
G01 X254.745971 Y440.764829 Z-0.249992
G01 X254.986340 Y440.695883 Z-0.249992
G01 X256.342756 Y440.306783 Z-0.249992
G01 X257.920858 Y439.854098 Z-0.249992
G01 X258.927940 Y439.387105 Z-0.249992
G01 X259.290596 Y438.709461 Z-0.249992
G01 X259.471811 Y438.370908 Z-0.249992
G01 X259.424792 Y438.155798 Z-0.249992
G01 X259.424228 Y438.155318 Z-0.249992
G01 X258.325593 Y437.178208 Z-0.249992
G01 X257.257185 Y436.530875 Z-0.249992
G01 X256.985630 Y436.383217 Z-0.249992
G01 X255.469279 Y435.558648 Z-0.249992
G01 X255.094346 Y435.354771 Z-0.249992
G01 X253.854657 Y434.680655 Z-0.249992
G01 X252.136291 Y433.746245 Z-0.249992
G01 X252.106121 Y433.589386 Z-0.249992
G01 X251.839421 Y432.203703 Z-0.249992
G01 X251.564875 Y430.777126 Z-0.249992
G01 X251.557001 Y430.736232 Z-0.249992
G01 X251.290329 Y429.350549 Z-0.249992
G01 X250.997411 Y427.828525 Z-0.249992
G01 X251.397997 Y427.177579 Z-0.249992
G01 X252.487206 Y425.407651 Z-0.249992
G01 X252.528918 Y425.339917 Z-0.249992
G01 X253.302320 Y424.083154 Z-0.249992
G01 X253.381511 Y423.911337 Z-0.249992
G01 X254.046625 Y422.468588 Z-0.249992
G01 X254.235629 Y421.623954 Z-0.249992
G01 X254.237915 Y421.613850 Z-0.249992
G01 X254.539385 Y420.266691 Z-0.249992
G01 X254.531257 Y420.189221 Z-0.249992
G01 X254.040021 Y419.542000 Z-0.249992
G01 X253.589904 Y418.948939 Z-0.249992
G01 X253.439480 Y418.890265 Z-0.249992
G01 X252.493640 Y418.952805 Z-0.249992
G01 X251.933514 Y418.989833 Z-0.249992
G01 X251.565863 Y419.002674 Z-0.249992
G01 X251.087779 Y418.727620 Z-0.249992
G01 X251.159548 Y418.379047 Z-0.249992
G01 X251.257338 Y418.064652 Z-0.249992
G01 X251.375561 Y417.684498 Z-0.249992
G01 X251.623577 Y417.256254 Z-0.249992
G01 X251.827596 Y417.176837 Z-0.249992
G01 X251.829205 Y417.176188 Z-0.249992
G01 X253.132366 Y416.668950 Z-0.249992
G01 X253.698899 Y416.369315 Z-0.249992
G01 X254.946264 Y415.709564 Z-0.249992
G01 X256.757397 Y414.751645 Z-0.249992
G01 X257.684892 Y414.079787 Z-0.249992
G01 X258.364286 Y413.587648 Z-0.249992
G01 X258.395020 Y413.573339 Z-0.249992
G01 X259.701765 Y412.965291 Z-0.249992
G01 X260.646956 Y412.700087 Z-0.249992
G01 X261.843804 Y412.364271 Z-0.249992
G01 X262.644638 Y411.906902 Z-0.249992
G01 X262.632248 Y411.918162 Z-0.249992
G01 X263.685332 Y410.963038 Z-0.249992
G01 X264.499261 Y410.224801 Z-0.249992
G01 X264.606054 Y410.152777 Z-0.249992
G01 X265.884859 Y409.289939 Z-0.249992
G01 X266.757377 Y408.891329 Z-0.249992
G01 X267.795927 Y408.416857 Z-0.249992
G01 X268.833573 Y407.752534 Z-0.249992
G01 X269.201450 Y407.450810 Z-0.249992
G01 X270.659269 Y406.255232 Z-0.249992
G01 X271.416217 Y405.449713 Z-0.249992
G01 X271.897604 Y404.681843 Z-0.249992
G01 X272.526903 Y403.678007 Z-0.249992
G01 X273.188149 Y403.104080 Z-0.249992
G01 X274.372354 Y402.530971 Z-0.249992
G01 X275.218061 Y402.121636 Z-0.249992
G01 X276.277241 Y401.512629 Z-0.249992
G01 X276.731195 Y401.175825 Z-0.249992
G01 X277.214106 Y400.817572 Z-0.249992
G01 X277.581362 Y400.632434 Z-0.249992
G01 X279.194770 Y399.819211 Z-0.249992
G01 X279.518535 Y399.674628 Z-0.249992
G01 X281.125424 Y398.957107 Z-0.249992
G01 X281.443855 Y398.814923 Z-0.249992
G01 X283.042813 Y398.100957 Z-0.249992
G01 X283.364942 Y397.929310 Z-0.249992
G01 X284.910447 Y397.105898 Z-0.249992
G01 X285.288992 Y396.748210 Z-0.249992
G01 X285.717885 Y396.342967 Z-0.249992
G01 X286.674844 Y395.851477 Z-0.249992
G01 X287.399506 Y395.659622 Z-0.249992
G01 X287.554559 Y395.618559 Z-0.249992
G01 X289.053131 Y395.221811 Z-0.249992
G01 X289.144768 Y395.179901 Z-0.249992
G01 X290.428061 Y394.593104 Z-0.249992
G01 X291.804007 Y393.963918 Z-0.249992
G01 X291.959370 Y393.859863 Z-0.249992
G01 X293.303962 Y392.959348 Z-0.249992
G01 X293.990185 Y392.499721 Z-0.249992
G01 X294.021681 Y392.485356 Z-0.249992
G01 X295.333506 Y391.886142 Z-0.249992
G01 X296.280842 Y391.598444 Z-0.249992
G01 X296.652218 Y391.485668 Z-0.249992
G01 X298.353566 Y390.969032 Z-0.249992
G01 X298.381958 Y390.954836 Z-0.249992
G01 X299.676060 Y390.307362 Z-0.249992
G01 X300.199384 Y389.949363 Z-0.249992
G01 X301.901410 Y388.784971 Z-0.249992
G01 X302.888567 Y388.109641 Z-0.249992
G01 X304.203892 Y387.481471 Z-0.249992
G01 X304.870952 Y387.374819 Z-0.249992
G01 X305.579923 Y387.261451 Z-0.249992
G01 X306.588896 Y386.711766 Z-0.249992
G01 X306.691004 Y386.634409 Z-0.249992
G01 X307.932838 Y385.693565 Z-0.249992
G01 X307.961173 Y385.672116 Z-0.249992
G01 X309.127513 Y384.788478 Z-0.249992
G01 X309.173317 Y384.762542 Z-0.249992
G01 X310.469169 Y384.028285 Z-0.249992
G01 X311.097791 Y383.913759 Z-0.249992
G01 X311.641746 Y383.814671 Z-0.249992
G01 X311.664662 Y383.807643 Z-0.249992
G01 X313.044334 Y383.384197 Z-0.249992
G01 X314.218858 Y382.954429 Z-0.249992
G01 X315.410711 Y382.518339 Z-0.249992
G01 X315.787393 Y382.419618 Z-0.249992
G01 X317.527914 Y381.963519 Z-0.249992
G01 X318.918761 Y381.722614 Z-0.249992
G01 X320.290446 Y381.485011 Z-0.249992
G01 X320.542611 Y381.422668 Z-0.249992
G01 X322.161071 Y381.022618 Z-0.249992
G01 X323.080579 Y380.694535 Z-0.249992
G01 X324.029382 Y380.355981 Z-0.249992
G01 X324.307851 Y380.301089 Z-0.249992
G01 X325.965342 Y379.974219 Z-0.249992
G01 X327.375324 Y379.846203 Z-0.249992
G01 X327.461205 Y379.838385 Z-0.249992
G01 X328.866530 Y379.710793 Z-0.249992
G01 X330.343145 Y379.576709 Z-0.249992
G01 X330.622997 Y379.517696 Z-0.249992
G01 X332.264796 Y379.171494 Z-0.249992
G01 X333.404071 Y378.582355 Z-0.249992
G01 X334.082025 Y378.231779 Z-0.249992
G01 X334.795680 Y378.163989 Z-0.249992
G01 X336.147327 Y378.308741 Z-0.249992
G01 X337.496547 Y378.453239 Z-0.249992
G01 X338.342508 Y378.362109 Z-0.249992
G01 X338.553469 Y378.305185 Z-0.249992
G01 X340.145682 Y377.875558 Z-0.249992
G01 X340.609740 Y377.750336 Z-0.249992
G01 X342.464251 Y377.249956 Z-0.249992
G01 X342.601891 Y377.245525 Z-0.249992
G01 X342.964828 Y377.330982 Z-0.249992
G01 X344.669084 Y377.732330 Z-0.249992
G01 X344.774832 Y377.757222 Z-0.249992
G01 X346.233837 Y378.100828 Z-0.249992
G01 X347.237701 Y378.166106 Z-0.249992
G01 X347.426875 Y378.150358 Z-0.249992
G01 X349.040791 Y378.015935 Z-0.249992
G01 X349.301987 Y377.994148 Z-0.249992
G01 X350.989817 Y377.853573 Z-0.249992
G01 X351.679512 Y377.908804 Z-0.249992
G01 X352.445237 Y378.304790 Z-0.249992
G01 X352.467618 Y378.316361 Z-0.249992
G01 X353.699602 Y378.953421 Z-0.249992
G01 X353.887619 Y378.969875 Z-0.249992
G01 X359.510586 Y379.461873 Z-0.249992
G01 X361.101021 Y379.601008 Z-0.249992
G01 X362.354398 Y379.174288 Z-0.249992
G01 X363.065711 Y378.932085 Z-0.249992
G01 X363.297613 Y379.228870 Z-0.249992
G01 X363.477869 Y380.391089 Z-0.249992
G01 X363.493334 Y380.490968 Z-0.249992
G01 X363.721709 Y381.963547 Z-0.249992
G01 X364.030883 Y382.868097 Z-0.249992
G01 X364.193866 Y383.013188 Z-0.249992
G01 X365.417469 Y384.102453 Z-0.249992
G01 X366.487486 Y384.410414 Z-0.249992
G01 X366.699830 Y384.441994 Z-0.249992
G01 X368.324358 Y384.683605 Z-0.249992
G01 X369.474018 Y384.854603 Z-0.249992
G01 X370.661186 Y384.864029 Z-0.249992
G01 X371.072384 Y384.814274 Z-0.249992
G01 X372.882247 Y384.595354 Z-0.249992
G01 X373.873524 Y384.324646 Z-0.249992
G01 X374.644499 Y383.925951 Z-0.249992
G01 X375.289264 Y383.592534 Z-0.249992
G01 X375.616529 Y383.225701 Z-0.249992
G01 X375.714319 Y382.772734 Z-0.249992
G01 X376.119872 Y380.894602 Z-0.249992
G01 X376.135592 Y380.636002 Z-0.249992
G01 X376.237926 Y378.953054 Z-0.249992
G01 X376.247832 Y378.675884 Z-0.249992
G01 X376.298236 Y377.265676 Z-0.249992
G01 X376.358632 Y375.575193 Z-0.249992
G01 X376.364418 Y375.413677 Z-0.249992
G01 X376.414822 Y374.003441 Z-0.249992
G01 X376.471069 Y372.429516 Z-0.249992
G01 X376.480608 Y372.250248 Z-0.249992
G01 X376.566037 Y370.646351 Z-0.249992
G01 X376.625642 Y370.343781 Z-0.249992
G01 X376.974836 Y368.571171 Z-0.249992
G01 X377.416203 Y368.280821 Z-0.249992
G01 X377.998004 Y368.280821 Z-0.249992
G01 X378.186642 Y368.280821 Z-0.249992
G01 X378.969018 Y367.944609 Z-0.249992
G01 X379.746230 Y367.508943 Z-0.249992
G01 X379.781338 Y367.489272 Z-0.249992
G01 X381.082552 Y366.759841 Z-0.249992
G01 X381.612312 Y366.657591 Z-0.249992
G01 X381.886180 Y366.644045 Z-0.249992
G01 X383.295570 Y366.574308 Z-0.249992
G01 X384.961160 Y366.491899 Z-0.249992
G01 X385.360082 Y366.472171 Z-0.249992
G01 X387.161478 Y366.383046 Z-0.249992
G01 X387.231074 Y366.375736 Z-0.249992
G01 X388.694594 Y366.222151 Z-0.249992
G01 X388.741273 Y366.210918 Z-0.249992
G01 X390.113353 Y365.881396 Z-0.249992
G01 X391.530419 Y365.541064 Z-0.249992
G01 X391.515151 Y365.547188 Z-0.249992
G01 X392.818538 Y365.025246 Z-0.249992
G01 X393.036216 Y364.919752 Z-0.249992
G01 X394.531598 Y364.194864 Z-0.249992
G01 X394.538485 Y364.191534 Z-0.249992
G01 X395.806368 Y363.576938 Z-0.249992
G01 X396.719075 Y363.042466 Z-0.249992
G01 X397.064486 Y362.764477 Z-0.249992
G01 X398.511327 Y361.600056 Z-0.249992
G01 X399.377580 Y360.701094 Z-0.249992
G01 X399.497891 Y360.562128 Z-0.249992
G01 X400.546205 Y359.351281 Z-0.249992
G01 X401.063660 Y358.753591 Z-0.249992
G01 X401.301912 Y358.462677 Z-0.249992
G01 X401.504293 Y357.857451 Z-0.249992
G01 X401.474096 Y357.544692 Z-0.249992
G01 X401.383841 Y356.866795 Z-0.249992
G01 X401.312044 Y356.327327 Z-0.249992
G01 X401.125833 Y354.928549 Z-0.249992
G01 X400.866979 Y352.984207 Z-0.249992
G01 X400.819312 Y352.412114 Z-0.249992
G01 X400.654551 Y350.435627 Z-0.249992
G01 X400.621305 Y349.754343 Z-0.249992
G01 X400.483721 Y346.935451 Z-0.249992
G01 X400.381896 Y344.849038 Z-0.249992
G01 X400.369083 Y344.586346 Z-0.249992
G01 X400.300277 Y343.176900 Z-0.249992
G01 X400.218856 Y341.508515 Z-0.249992
G01 X400.172063 Y340.915877 Z-0.249992
G01 X400.061009 Y339.509140 Z-0.249992
G01 X399.903501 Y337.514026 Z-0.249992
G01 X399.893454 Y337.444233 Z-0.249992
G01 X399.681279 Y335.969763 Z-0.249992
G01 X399.670103 Y335.892011 Z-0.249992
G01 X399.457674 Y334.415932 Z-0.249992
G01 X399.387232 Y333.876775 Z-0.249992
G01 X399.204436 Y332.477545 Z-0.249992
G01 X398.951339 Y330.540033 Z-0.249992
G01 X398.927548 Y330.348545 Z-0.249992
G01 X398.753671 Y328.948215 Z-0.249992
G01 X398.556115 Y327.357187 Z-0.249992
G01 X398.532437 Y327.166490 Z-0.249992
G01 X398.358560 Y325.766159 Z-0.249992
G01 X398.161230 Y324.176797 Z-0.249992
G01 X398.067391 Y323.496246 Z-0.249992
G01 X397.784238 Y321.442346 Z-0.249992
G01 X397.722854 Y321.273069 Z-0.249992
G01 X397.642393 Y321.051073 Z-0.249992
G01 X397.636127 Y320.995165 Z-0.249992
G01 X397.478732 Y319.592859 Z-0.249992
G01 X397.318204 Y318.162303 Z-0.249992
G01 X397.294159 Y317.915753 Z-0.249992
G01 X397.157225 Y316.511303 Z-0.249992
G01 X396.996414 Y314.862109 Z-0.249992
G01 X396.970704 Y314.598654 Z-0.249992
G01 X396.149070 Y306.171950 Z-0.249992
G01 X395.986821 Y304.507883 Z-0.249992
G01 X395.944741 Y304.181352 Z-0.249992
G01 X394.681938 Y294.384629 Z-0.249992
G01 X394.462934 Y292.685425 Z-0.249992
G01 X393.990465 Y291.484033 Z-0.249992
G01 X393.598205 Y290.486547 Z-0.249992
G01 X393.193639 Y289.719919 Z-0.249992
G01 X393.144476 Y289.655290 Z-0.249992
G01 X392.243905 Y288.471113 Z-0.249992
G01 X391.723967 Y288.015296 Z-0.249992
G01 X391.074997 Y287.634974 Z-0.249992
G01 X390.308481 Y287.185789 Z-0.249992
G01 X389.825543 Y286.769483 Z-0.249992
G01 X389.624685 Y285.935573 Z-0.249992
G01 X389.998376 Y285.527141 Z-0.249992
G01 X390.608371 Y285.211701 Z-0.249992
G01 X391.232533 Y284.888923 Z-0.249992
G01 X391.733478 Y284.440049 Z-0.249992
G01 X391.797599 Y284.346690 Z-0.249992
G01 X392.665206 Y283.083463 Z-0.249992
G01 X393.064523 Y282.206655 Z-0.249992
G01 X393.446905 Y281.044125 Z-0.249992
G01 X393.496323 Y280.893870 Z-0.249992
G01 X393.983438 Y279.412994 Z-0.249992
G01 X394.007258 Y279.313482 Z-0.249992
G01 X394.359415 Y277.842709 Z-0.249992
G01 X394.442896 Y277.263928 Z-0.249992
G01 X394.644318 Y275.867266 Z-0.249992
G01 X394.929729 Y273.888211 Z-0.249992
G01 X394.968394 Y273.408236 Z-0.249992
G01 X395.120794 Y271.517658 Z-0.249992
G01 X395.130700 Y271.319707 Z-0.249992
G01 X395.201396 Y269.910346 Z-0.249992
G01 X395.282197 Y268.299252 Z-0.249992
G01 X395.291707 Y268.109288 Z-0.249992
G01 X395.362404 Y266.699955 Z-0.249992
G01 X395.442753 Y265.097892 Z-0.249992
G01 X395.493101 Y264.398574 Z-0.249992
G01 X395.647307 Y262.257495 Z-0.249992
G01 X395.746734 Y261.998387 Z-0.249992
G01 X395.854430 Y261.717688 Z-0.249992
G01 X396.380549 Y261.245446 Z-0.249992
G01 X396.881465 Y260.949564 Z-0.249992
G01 X397.478676 Y260.596786 Z-0.249992
G01 X397.997485 Y259.862557 Z-0.249992
G01 X398.090110 Y259.631163 Z-0.249992
G01 X398.614620 Y258.321144 Z-0.249992
G01 X399.238359 Y256.763334 Z-0.249992
G01 X399.379979 Y256.283584 Z-0.249992
G01 X399.923285 Y254.443354 Z-0.249992
G01 X400.014273 Y254.090548 Z-0.249992
G01 X400.366627 Y252.724141 Z-0.249992
G01 X400.811071 Y251.000751 Z-0.249992
G01 X400.839575 Y250.890289 Z-0.249992
G01 X402.601432 Y244.058254 Z-0.249992
G01 X402.983166 Y242.578055 Z-0.249992
G01 X403.010147 Y242.484357 Z-0.249992
G01 X403.400403 Y241.128279 Z-0.249992
G01 X403.832740 Y239.626010 Z-0.249992
G01 X404.240353 Y239.176825 Z-0.249992
G01 X404.640573 Y238.735825 Z-0.249992
G01 X405.260107 Y239.197907 Z-0.249992
G01 X405.407963 Y239.364672 Z-0.249992
G01 X406.474961 Y240.568068 Z-0.249992
G01 X406.564312 Y240.668821 Z-0.249992
G01 X407.500500 Y241.724671 Z-0.249992
G01 X408.538795 Y242.895724 Z-0.249992
G01 X409.064801 Y243.713435 Z-0.249992
G01 X409.067172 Y244.665455 Z-0.249992
G01 X409.069232 Y245.487201 Z-0.249992
G01 X409.023286 Y245.428640 Z-0.249992
G01 X409.881609 Y246.522985 Z-0.249992
G01 X409.895917 Y246.533907 Z-0.249992
G01 X412.139443 Y248.246121 Z-0.249992
G01 X413.288765 Y249.123268 Z-0.249992
G01 X413.337984 Y249.152111 Z-0.249992
G01 X414.555350 Y249.865738 Z-0.249992
G01 X415.827297 Y250.611313 Z-0.249992
G01 X416.228871 Y250.809235 Z-0.249992
G01 X417.494638 Y251.433003 Z-0.249992
G01 X419.170106 Y252.258700 Z-0.249992
G01 X419.262704 Y252.304335 Z-0.249992
G01 X423.059975 Y254.175695 Z-0.249992
G01 X424.416843 Y254.844364 Z-0.249992
G01 X424.660006 Y254.960216 Z-0.249992
G01 X425.933901 Y255.567163 Z-0.249992
G01 X427.442520 Y256.285927 Z-0.249992
G01 X427.559134 Y256.329361 Z-0.249992
G01 X431.526332 Y257.806709 Z-0.249992
G01 X432.962165 Y258.341436 Z-0.249992
G01 X433.516281 Y258.477918 Z-0.249992
G01 X435.451648 Y258.954648 Z-0.249992
G01 X435.475439 Y258.959926 Z-0.249992
G01 X438.230916 Y259.570090 Z-0.249992
G01 X439.635310 Y259.881099 Z-0.249992
G01 X440.063836 Y259.975982 Z-0.249992
G01 X441.441560 Y260.281093 Z-0.249992
G01 X443.246343 Y260.680748 Z-0.249992
G01 X443.582103 Y260.750880 Z-0.249992
G01 X445.289773 Y261.107580 Z-0.249992
G01 X445.333235 Y261.112689 Z-0.249992
G01 X448.136013 Y261.443199 Z-0.249992
G01 X449.581640 Y261.613661 Z-0.249992
G01 X449.994926 Y261.628168 Z-0.249992
G01 X451.827451 Y261.692430 Z-0.249992
G01 X452.423363 Y261.707218 Z-0.249992
G01 X453.834023 Y261.742185 Z-0.249992
G01 X455.841893 Y261.791941 Z-0.249992
G01 X456.032365 Y261.796654 Z-0.249992
G01 X460.264400 Y261.901556 Z-0.249992
G01 X461.858645 Y261.941067 Z-0.249992
G01 X461.923725 Y261.939092 Z-0.249992
G01 X464.744621 Y261.853155 Z-0.249992
G01 X466.211951 Y261.808479 Z-0.249992
G01 X466.598228 Y261.749580 Z-0.249992
G01 X472.178185 Y260.898764 Z-0.249992
G01 X473.955988 Y260.627690 Z-0.249992
G01 X474.291155 Y260.523973 Z-0.249992
G01 X475.639217 Y260.106877 Z-0.249992
G01 X477.329164 Y259.584004 Z-0.249992
G01 X477.401582 Y259.554004 Z-0.249992
G01 X480.008808 Y258.473629 Z-0.249992
G01 X481.395563 Y257.898996 Z-0.249992
G01 X481.605254 Y257.812100 Z-0.249992
G01 X482.908895 Y257.271926 Z-0.249992
G01 X484.419348 Y256.646042 Z-0.249992
G01 X484.673800 Y256.533125 Z-0.249992
G01 X486.207170 Y255.852744 Z-0.249992
G01 X486.774154 Y255.514670 Z-0.249992
G01 X488.535052 Y254.464690 Z-0.249992
G01 X489.062186 Y253.894658 Z-0.249992
G01 X489.602501 Y253.034247 Z-0.249992
G01 X490.109598 Y252.226781 Z-0.249992
G01 X490.341979 Y251.760126 Z-0.249992
G01 X490.376044 Y250.941682 Z-0.249992
G01 X490.195308 Y250.604906 Z-0.249992
G01 X489.752643 Y250.024544 Z-0.249992
G01 X489.112732 Y249.185582 Z-0.249992
G01 X489.239365 Y248.939372 Z0.000000
G01 X489.112732 Y249.185582 Z-0.249992
G01 X488.916390 Y249.179486 Z-0.249992
G01 X486.095523 Y249.092251 Z-0.249992
G01 X484.369818 Y249.038855 Z-0.249992
G01 X483.738036 Y249.019325 Z-0.249992
G01 X481.689864 Y248.955966 Z-0.249992
G01 X481.330003 Y248.927603 Z-0.249992
G01 X479.923238 Y248.816774 Z-0.249992
G01 X478.152914 Y248.677272 Z-0.249992
G01 X478.025435 Y248.657234 Z-0.249992
G01 X476.513514 Y248.419377 Z-0.249992
G01 X475.857686 Y248.316197 Z-0.249992
G01 X473.792779 Y247.991331 Z-0.249992
G01 X473.567001 Y247.926815 Z-0.249992
G01 X472.210189 Y247.539070 Z-0.249992
G01 X470.631777 Y247.087994 Z-0.249992
G01 X470.558851 Y247.060054 Z-0.249992
G01 X465.288209 Y245.040105 Z-0.249992
G01 X463.899394 Y244.507862 Z-0.249992
G01 X463.379964 Y244.264417 Z-0.249992
G01 X462.102203 Y243.665598 Z-0.249992
G01 X460.305576 Y242.823616 Z-0.249992
G01 X459.737773 Y242.509305 Z-0.249992
G01 X458.503164 Y241.825961 Z-0.249992
G01 X456.708089 Y240.832397 Z-0.249992
G01 X456.519000 Y240.727721 Z-0.249992
G01 X454.049782 Y239.361032 Z-0.249992
G01 X452.615218 Y238.566999 Z-0.249992
G01 X452.135299 Y238.235445 Z-0.249992
G01 X446.330185 Y234.225264 Z-0.249992
G01 X444.503954 Y232.963675 Z-0.249992
G01 X444.871633 Y232.368778 Z-0.249992
G01 X444.977889 Y232.196849 Z-0.249992
G01 X446.068029 Y231.366043 Z-0.249992
G01 X446.095377 Y231.346795 Z-0.249992
G01 X447.272836 Y230.518219 Z-0.249992
G01 X447.595980 Y230.290804 Z-0.249992
G01 X449.060432 Y229.260270 Z-0.249992
G01 X449.290386 Y229.051341 Z-0.249992
G01 X450.334806 Y228.102453 Z-0.249992
G01 X451.615418 Y226.938964 Z-0.249992
G01 X451.696077 Y226.856781 Z-0.249992
G01 X455.649869 Y222.828482 Z-0.249992
G01 X456.719491 Y221.738737 Z-0.249992
G01 X457.051130 Y221.363805 Z-0.249992
G01 X457.986104 Y220.306883 Z-0.249992
G01 X459.250008 Y218.878133 Z-0.249992
G01 X459.271852 Y218.848725 Z-0.249992
G01 X460.113891 Y217.716365 Z-0.249992
G01 X460.984123 Y216.546074 Z-0.249992
G01 X461.288246 Y216.137049 Z-0.249992
G01 X462.972294 Y213.872329 Z-0.249992
G01 X464.110552 Y212.341584 Z-0.249992
G01 X464.233319 Y212.133755 Z-0.249992
G01 X466.386562 Y208.488940 Z-0.249992
G01 X467.220162 Y207.077914 Z-0.249992
G01 X467.400727 Y206.532576 Z-0.249992
G01 X468.033329 Y204.622213 Z-0.249992
G01 X468.293086 Y203.837777 Z-0.249992
G01 X468.755281 Y202.713319 Z-0.249992
G01 X469.059093 Y202.127708 Z-0.249992
G01 X469.351504 Y201.564082 Z-0.249992
G01 X469.760162 Y200.508006 Z-0.249992
G01 X469.968893 Y199.775442 Z-0.249992
G01 X470.180899 Y199.031363 Z-0.249992
G01 X470.294493 Y198.638284 Z-0.249992
G01 X470.799727 Y196.889832 Z-0.249992
G01 X470.875024 Y196.630640 Z-0.249992
G01 X471.344049 Y195.016554 Z-0.249992
G01 X471.420447 Y194.753551 Z-0.249992
G01 X471.814203 Y193.398490 Z-0.249992
G01 X472.280660 Y191.793097 Z-0.249992
G01 X472.383925 Y191.216573 Z-0.249992
G01 X472.632732 Y189.827560 Z-0.249992
G01 X472.985482 Y187.858354 Z-0.249992
G01 X473.047458 Y187.250984 Z-0.249992
G01 X473.620397 Y181.635693 Z-0.249992
G01 X473.825657 Y179.623900 Z-0.249992
G01 X473.826391 Y179.600589 Z-0.249992
G01 X473.913880 Y176.779721 Z-0.249992
G01 X473.958274 Y175.347754 Z-0.249992
G01 X473.929346 Y174.810826 Z-0.249992
G01 X473.853428 Y173.401775 Z-0.249992
G01 X473.748018 Y171.445185 Z-0.249992
G01 X473.747454 Y171.434771 Z-0.249992
G01 X473.443754 Y165.798483 Z-0.249992
G01 X473.367780 Y164.388726 Z-0.249992
G01 X473.345597 Y164.221312 Z-0.249992
G01 X471.863169 Y153.030185 Z-0.249992
G01 X471.660392 Y151.499270 Z-0.249992
G01 X471.645801 Y151.472008 Z-0.249992
G01 X470.943915 Y150.160549 Z-0.249992
G01 X470.814064 Y149.917923 Z-0.249992
G01 X470.497778 Y149.610272 Z-0.249992
G01 X470.225518 Y149.464561 Z-0.249992
G01 X469.823238 Y149.249254 Z-0.249992
G01 X469.621986 Y149.309028 Z-0.249992
G01 X469.013740 Y150.336317 Z-0.249992
G01 X468.744359 Y151.315882 Z-0.249992
G01 X468.732647 Y151.383418 Z-0.249992
G01 X468.478111 Y152.853316 Z-0.249992
G01 X468.383849 Y153.397807 Z-0.249992
G01 X468.046621 Y155.345197 Z-0.249992
G01 X467.854823 Y156.031166 Z-0.249992
G01 X467.283662 Y158.073722 Z-0.249992
G01 X467.135213 Y158.475324 Z-0.249992
G01 X465.667601 Y162.446106 Z-0.249992
G01 X465.030794 Y164.169044 Z-0.249992
G01 X464.853023 Y164.571409 Z-0.249992
G01 X464.282736 Y165.862152 Z-0.249992
G01 X463.535496 Y167.553369 Z-0.249992
G01 X463.527961 Y167.568496 Z-0.249992
G01 X462.271028 Y170.095344 Z-0.249992
G01 X461.637552 Y171.368815 Z-0.249992
G01 X461.326007 Y171.995123 Z-0.249992
G01 X460.069074 Y174.521971 Z-0.249992
G01 X459.127750 Y176.414356 Z-0.249992
G01 X459.007862 Y176.641686 Z-0.249992
G01 X458.349663 Y177.889870 Z-0.249992
G01 X457.565424 Y179.377040 Z-0.249992
G01 X457.367135 Y179.658331 Z-0.249992
G01 X454.927944 Y183.118319 Z-0.249992
G01 X453.915670 Y184.554266 Z-0.249992
G01 X453.832894 Y184.642094 Z-0.249992
G01 X452.865069 Y185.669016 Z-0.249992
G01 X451.824149 Y186.773520 Z-0.249992
G01 X451.539951 Y187.058000 Z-0.249992
G01 X449.545289 Y189.054553 Z-0.249992
G01 X448.266315 Y190.334742 Z-0.249992
G01 X447.932107 Y190.669231 Z-0.249992
G01 X444.940100 Y193.664061 Z-0.249992
G01 X443.603383 Y195.002048 Z-0.249992
G01 X443.215045 Y195.347573 Z-0.249992
G01 X441.764225 Y196.638514 Z-0.249992
G01 X441.236723 Y196.984066 Z-0.249992
G01 X439.544209 Y198.092692 Z-0.249992
G01 X439.171280 Y198.336983 Z-0.249992
G01 X437.990857 Y199.110188 Z-0.249992
G01 X436.426725 Y200.134711 Z-0.249992
G01 X435.108042 Y200.816306 Z-0.249992
G01 X434.695885 Y200.404176 Z-0.249992
G01 X434.501970 Y200.210262 Z-0.249992
G01 X434.681633 Y199.005370 Z-0.249992
G01 X434.984090 Y197.792718 Z-0.249992
G01 X435.047816 Y197.537222 Z-0.249992
G01 X435.447330 Y195.935385 Z-0.249992
G01 X435.517180 Y194.702610 Z-0.249992
G01 X435.516531 Y194.555460 Z-0.249992
G01 X435.498553 Y190.322154 Z-0.249992
G01 X435.491893 Y188.756329 Z-0.249992
G01 X435.491215 Y188.600430 Z-0.249992
G01 X435.467226 Y182.956013 Z-0.249992
G01 X435.460594 Y181.397751 Z-0.249992
G01 X435.412306 Y180.745987 Z-0.249992
G01 X435.308053 Y179.338743 Z-0.249992
G01 X435.155738 Y177.282867 Z-0.249992
G01 X435.057581 Y176.706428 Z-0.249992
G01 X434.583871 Y173.924253 Z-0.249992
G01 X434.246841 Y171.945029 Z-0.249992
G01 X434.221864 Y171.798329 Z-0.249992
G01 X433.985023 Y170.407228 Z-0.249992
G01 X433.725125 Y168.880773 Z-0.249992
G01 X433.569677 Y168.297701 Z-0.249992
G01 X433.051997 Y166.355843 Z-0.249992
G01 X432.810527 Y165.770627 Z-0.249992
G01 X432.272245 Y164.466224 Z-0.249992
G01 X431.497037 Y162.587612 Z-0.249992
G01 X431.475616 Y162.557442 Z-0.249992
G01 X430.656974 Y161.402815 Z-0.249992
G01 X429.764701 Y160.943583 Z-0.249992
G01 X429.006736 Y160.553495 Z-0.249992
G01 X428.707129 Y160.498998 Z-0.249992
G01 X428.457645 Y160.652104 Z-0.249992
G01 X427.677187 Y161.131063 Z-0.249992
G01 X427.423949 Y161.698414 Z-0.249992
G01 X426.571525 Y163.608099 Z-0.249992
G01 X426.444074 Y164.065130 Z-0.249992
G01 X426.065078 Y165.424397 Z-0.249992
G01 X425.553691 Y167.258503 Z-0.249992
G01 X425.544208 Y167.292511 Z-0.249992
G01 X424.028223 Y172.729578 Z-0.249992
G01 X423.638023 Y174.128977 Z-0.249992
G01 X423.618578 Y174.187143 Z-0.249992
G01 X422.723708 Y176.863739 Z-0.249992
G01 X422.255106 Y178.265339 Z-0.249992
G01 X422.041548 Y178.748023 Z-0.249992
G01 X421.470613 Y180.038485 Z-0.249992
G01 X420.690889 Y181.800850 Z-0.249992
G01 X420.547125 Y182.125772 Z-0.249992
G01 X419.832736 Y183.740422 Z-0.249992
G01 X419.562085 Y184.362694 Z-0.249992
G01 X418.728852 Y186.278474 Z-0.249992
G01 X418.237588 Y187.441428 Z-0.249992
G01 X418.030098 Y187.932607 Z-0.249992
G01 X417.481006 Y189.232494 Z-0.249992
G01 X416.719091 Y191.036148 Z-0.249992
G01 X416.682713 Y191.101314 Z-0.249992
G01 X411.869695 Y199.727154 Z-0.249992
G01 X411.080884 Y201.140805 Z-0.249992
G01 X410.448537 Y201.140805 Z-0.249992
G01 X410.178224 Y201.140805 Z-0.249992
G01 X409.747101 Y200.445268 Z-0.249992
G01 X409.445632 Y199.741970 Z-0.249992
G01 X409.026447 Y198.764014 Z-0.249992
G01 X408.445549 Y197.926689 Z-0.249992
G01 X408.159150 Y197.652566 Z-0.249992
G01 X406.851078 Y196.400403 Z-0.249992
G01 X405.864824 Y195.742063 Z-0.249992
G01 X404.632840 Y195.145812 Z-0.249992
G01 X403.405596 Y194.551847 Z-0.249992
G01 X402.284807 Y194.085249 Z-0.249992
G01 X402.134157 Y194.085249 Z-0.249992
G01 X401.894974 Y194.085249 Z-0.249992
G01 X400.892012 Y193.768088 Z-0.249992
G01 X399.913435 Y193.394736 Z-0.249992
G01 X399.551795 Y193.256758 Z-0.249992
G01 X398.233394 Y192.753781 Z-0.249992
G01 X396.562695 Y192.116354 Z-0.249992
G01 X396.461716 Y192.086862 Z-0.249992
G01 X395.107247 Y191.691045 Z-0.249992
G01 X393.659588 Y191.268022 Z-0.249992
G01 X393.390207 Y191.230289 Z-0.249992
G01 X391.705340 Y190.994295 Z-0.249992
G01 X390.609669 Y190.840822 Z-0.249992
G01 X390.279779 Y190.776560 Z-0.249992
G01 X388.566324 Y190.442833 Z-0.249992
G01 X388.550688 Y190.439107 Z-0.249992
G01 X387.167094 Y190.110516 Z-0.249992
G01 X387.000018 Y190.070836 Z-0.249992
G01 X385.474777 Y189.708575 Z-0.249992
G01 X384.970446 Y189.651905 Z-0.249992
G01 X383.056668 Y189.436795 Z-0.249992
G01 X382.811050 Y189.424970 Z-0.249992
G01 X381.401576 Y189.357067 Z-0.249992
G01 X379.738525 Y189.276916 Z-0.249992
G01 X379.084955 Y189.245420 Z-0.249992
G01 X377.021149 Y189.145993 Z-0.249992
G01 X376.784280 Y189.133068 Z-0.249992
G01 X373.966234 Y188.979482 Z-0.249992
G01 X372.320455 Y188.889792 Z-0.249992
G01 X372.214904 Y188.883442 Z-0.249992
G01 X370.806333 Y188.798719 Z-0.249992
G01 X369.292916 Y188.707646 Z-0.249992
G01 X368.684558 Y188.671042 Z-0.249992
G01 X367.275987 Y188.586318 Z-0.249992
G01 X365.265972 Y188.465386 Z-0.249992
G01 X364.605487 Y188.462282 Z-0.249992
G01 X362.546055 Y188.452686 Z-0.249992
G01 X361.930416 Y188.544324 Z-0.249992
G01 X359.138956 Y188.959868 Z-0.249992
G01 X357.126994 Y189.259362 Z-0.249992
G01 X357.139496 Y189.255580 Z-0.249992
G01 X355.789543 Y189.666524 Z-0.249992
G01 X354.440577 Y190.077186 Z-0.249992
G01 X353.792341 Y190.311599 Z-0.249992
G01 X352.465332 Y190.791518 Z-0.249992
G01 X350.484075 Y191.508052 Z-0.249992
G01 X350.332635 Y191.562803 Z-0.249992
G01 X348.855201 Y192.097135 Z-0.249992
G01 X348.742171 Y192.139073 Z-0.249992
G01 X347.310938 Y192.670046 Z-0.249992
G01 X347.050757 Y192.781467 Z-0.249992
G01 X346.397723 Y193.061149 Z-0.249992
G01 X346.078502 Y192.637110 Z-0.249992
G01 X345.019265 Y191.230035 Z-0.249992
G01 X344.806357 Y190.860070 Z-0.249992
G01 X342.694742 Y187.191012 Z-0.249992
G01 X341.782007 Y185.605092 Z-0.249992
G01 X341.739222 Y185.519664 Z-0.249992
G01 X340.475516 Y182.996174 Z-0.249992
G01 X339.801343 Y181.649945 Z-0.249992
G01 X339.692067 Y181.401787 Z-0.249992
G01 X338.554711 Y178.818861 Z-0.249992
G01 X337.879269 Y177.284899 Z-0.249992
G01 X337.848986 Y177.216149 Z-0.249992
G01 X336.143009 Y173.341803 Z-0.249992
G01 X335.540804 Y171.974210 Z-0.249992
G01 X335.344066 Y171.435730 Z-0.249992
G01 X334.859830 Y170.110302 Z-0.249992
G01 X334.174142 Y168.233496 Z-0.249992
G01 X334.086033 Y167.738393 Z-0.249992
G01 X333.591607 Y164.959831 Z-0.249992
G01 X333.257795 Y163.083985 Z-0.249992
G01 X333.248961 Y162.959976 Z-0.249992
G01 X333.139995 Y161.429541 Z-0.249992
G01 X333.147869 Y161.113481 Z-0.249992
G01 X333.183034 Y159.702821 Z-0.249992
G01 X333.226045 Y157.977286 Z-0.249992
G01 X333.249498 Y157.767652 Z-0.249992
G01 X333.429414 Y156.160340 Z-0.249992
G01 X333.483347 Y155.827543 Z-0.249992
G01 X333.761985 Y154.107850 Z-0.249992
G01 X333.798448 Y153.882665 Z-0.249992
G01 X334.060012 Y152.268269 Z-0.249992
G01 X334.126729 Y151.759790 Z-0.249992
G01 X334.376609 Y149.854648 Z-0.249992
G01 X334.465988 Y148.742044 Z-0.249992
G01 X334.483599 Y148.522955 Z-0.249992
G01 X334.611615 Y146.928935 Z-0.249992
G01 X334.589094 Y146.799762 Z-0.249992
G01 X334.089617 Y146.334406 Z-0.249992
G01 X333.771919 Y146.038468 Z-0.249992
G01 X333.386347 Y145.825249 Z-0.249992
G01 X333.217889 Y145.825249 Z-0.249992
G01 X332.891301 Y145.825249 Z-0.249992
G01 X332.222689 Y146.476279 Z-0.249992
G01 X332.166413 Y146.549657 Z-0.249992
G01 X331.307527 Y147.669289 Z-0.249992
G01 X330.387143 Y148.869100 Z-0.249992
G01 X330.229297 Y149.110654 Z-0.249992
G01 X329.297483 Y150.536526 Z-0.249992
G01 X329.061009 Y150.937479 Z-0.249992
G01 X326.910448 Y154.583874 Z-0.249992
G01 X325.958738 Y156.197536 Z-0.249992
G01 X325.754833 Y156.607605 Z-0.249992
G01 X324.498295 Y159.134651 Z-0.249992
G01 X323.669775 Y160.800891 Z-0.249992
G01 X323.557196 Y161.135720 Z-0.249992
G01 X323.107503 Y162.473256 Z-0.249992
G01 X322.539757 Y164.161904 Z-0.249992
G01 X322.173828 Y165.250322 Z-0.249992
G01 X322.169792 Y165.266832 Z-0.249992
G01 X321.833185 Y166.637191 Z-0.249992
G01 X321.491245 Y168.029223 Z-0.249992
G01 X321.397632 Y168.491024 Z-0.249992
G01 X321.022700 Y170.340793 Z-0.249992
G01 X320.948814 Y170.705255 Z-0.249992
G01 X320.596290 Y172.444449 Z-0.249992
G01 X320.554154 Y172.760707 Z-0.249992
G01 X320.325837 Y174.474276 Z-0.249992
G01 X320.291659 Y175.114299 Z-0.249992
G01 X320.216447 Y176.523407 Z-0.249992
G01 X320.107030 Y178.572566 Z-0.249992
G01 X320.115242 Y178.892380 Z-0.249992
G01 X320.159579 Y180.622995 Z-0.249992
G01 X320.202872 Y181.040176 Z-0.249992
G01 X320.639950 Y185.250875 Z-0.249992
G01 X320.828220 Y187.064492 Z-0.249992
G01 X320.890055 Y187.319141 Z-0.249992
G01 X321.556015 Y190.061663 Z-0.249992
G01 X321.952283 Y191.693613 Z-0.249992
G01 X321.990299 Y191.807095 Z-0.249992
G01 X323.335059 Y195.821170 Z-0.249992
G01 X323.824687 Y197.282770 Z-0.249992
G01 X323.988714 Y197.772341 Z-0.249992
G01 X324.601927 Y199.602806 Z-0.249992
G01 X324.712445 Y199.961144 Z-0.249992
G01 X325.249034 Y201.701044 Z-0.249992
G01 X325.249034 Y201.938562 Z-0.249992
G01 X325.249034 Y202.417127 Z-0.249992
G01 X324.417607 Y202.551916 Z-0.249992
G01 X324.283269 Y202.551916 Z-0.249992
G01 X322.757915 Y202.551916 Z-0.249992
G01 X321.540323 Y202.551916 Z-0.249992
G01 X320.811061 Y202.515763 Z-0.249992
G01 X319.918364 Y202.011573 Z-0.249992
G01 X319.814676 Y201.495840 Z-0.249992
G01 X319.775080 Y200.771827 Z-0.249992
G01 X319.747789 Y200.272915 Z-0.249992
G01 X319.763650 Y200.191804 Z-0.249992
G01 X319.804092 Y200.188220 Z-0.220133
G01 X318.666201 Y199.193584 Z-0.249992
G01 X318.622230 Y199.161411 Z-0.249992
G01 X317.428176 Y198.287933 Z-0.249992
G01 X317.264911 Y198.167368 Z-0.249992
G01 X316.129700 Y197.329196 Z-0.249992
G01 X314.831647 Y196.370826 Z-0.249992
G01 X314.440374 Y196.081915 Z-0.249992
G01 X312.169953 Y194.405571 Z-0.249992
G01 X310.640139 Y193.276033 Z-0.249992
G01 X310.127426 Y192.870706 Z-0.249992
G01 X309.020466 Y191.995535 Z-0.249992
G01 X307.398506 Y190.713230 Z-0.249992
G01 X307.196548 Y190.534188 Z-0.249992
G01 X302.973177 Y186.789466 Z-0.249992
G01 X301.714410 Y185.673362 Z-0.249992
G01 X301.479544 Y185.435194 Z-0.249992
G01 X300.488690 Y184.430483 Z-0.249992
G01 X299.264298 Y183.188960 Z-0.249992
G01 X298.896336 Y182.774883 Z-0.249992
G01 X297.959048 Y181.720021 Z-0.249992
G01 X296.658116 Y180.255937 Z-0.249992
G01 X296.602124 Y180.192888 Z-0.249992
G01 X294.727519 Y178.083193 Z-0.249992
G01 X293.729920 Y176.960513 Z-0.249992
G01 X293.568432 Y176.758695 Z-0.249992
G01 X292.686742 Y175.656956 Z-0.249992
G01 X291.639782 Y174.348631 Z-0.249992
G01 X291.497231 Y174.128525 Z-0.249992
G01 X289.196104 Y170.575235 Z-0.249992
G01 X288.285373 Y169.168921 Z-0.249992
G01 X288.271939 Y169.141659 Z-0.249992
G01 X287.648228 Y167.875864 Z-0.249992
G01 X287.013341 Y166.587378 Z-0.249992
G01 X286.890095 Y166.280067 Z-0.249992
G01 X286.364795 Y164.970358 Z-0.249992
G01 X285.719804 Y163.362227 Z-0.249992
G01 X285.671939 Y163.242847 Z-0.249992
G01 X285.146667 Y161.933139 Z-0.249992
G01 X284.569184 Y160.493297 Z-0.249992
G01 X284.519343 Y160.325290 Z-0.249992
G01 X281.709906 Y150.855437 Z-0.249992
G01 X281.258858 Y149.335021 Z-0.249992
G01 X281.219517 Y149.139864 Z-0.249992
G01 X280.940794 Y147.756552 Z-0.249992
G01 X280.624959 Y146.189090 Z-0.249992
G01 X280.515316 Y145.644852 Z-0.249992
G01 X280.124889 Y143.707058 Z-0.249992
G01 X280.102509 Y143.513595 Z-0.249992
G01 X279.778377 Y140.710027 Z-0.249992
G01 X279.593493 Y139.110872 Z-0.249992
G01 X279.593493 Y138.884219 Z-0.249992
G01 X279.593493 Y137.260820 Z-0.249992
G01 X279.593493 Y136.393354 Z-0.249992
G01 X279.456869 Y135.946624 Z-0.249992
G01 X279.102257 Y135.592040 Z-0.249992
G01 X278.742085 Y135.231840 Z-0.249992
G01 X278.579271 Y135.120503 Z-0.249992
G01 X278.185035 Y135.173025 Z-0.249992
G01 X277.951694 Y135.369819 Z-0.249992
G01 X277.506460 Y135.846435 Z-0.249992
G00 Z5.000000

G00 Z5.000000
G00 X278.460907 Y149.702248

G01 Z-0.249992 F100.0(Penetrate)
G01 X278.460907 Y149.702248 Z-0.249992 F400.000000
G01 X278.676017 Y150.514202 Z-0.249992
G01 X279.398788 Y153.242303 Z-0.249992
G01 X279.925358 Y155.229881 Z-0.249992
G01 X280.059075 Y155.696084 Z-0.249992
G01 X280.448147 Y157.052500 Z-0.249992
G01 X280.969778 Y158.871028 Z-0.249992
G01 X281.082949 Y159.197418 Z-0.249992
G01 X282.469648 Y163.197184 Z-0.249992
G01 X283.043970 Y164.853715 Z-0.249992
G01 X283.272260 Y165.372835 Z-0.249992
G01 X284.069905 Y167.186734 Z-0.249992
G01 X284.123188 Y167.292031 Z-0.249992
G01 X284.760418 Y168.551052 Z-0.249992
G01 X285.454035 Y169.921439 Z-0.249992
G01 X285.666436 Y170.341131 Z-0.249992
G01 X286.513413 Y172.014483 Z-0.249992
G01 X286.596527 Y172.160816 Z-0.249992
G01 X287.373626 Y173.528888 Z-0.249992
G01 X287.760214 Y174.078826 Z-0.249992
G01 X288.571801 Y175.233200 Z-0.249992
G01 X289.771894 Y176.940277 Z-0.249992
G01 X290.092273 Y177.334880 Z-0.249992
G01 X291.305772 Y178.829642 Z-0.249992
G01 X291.593864 Y179.169071 Z-0.249992
G01 X292.506994 Y180.244902 Z-0.249992
G01 X293.709995 Y181.662250 Z-0.249992
G01 X293.916892 Y181.906006 Z-0.249992
G01 X294.830022 Y182.981837 Z-0.249992
G01 X295.943981 Y184.294283 Z-0.249992
G01 X296.418030 Y184.774540 Z-0.249992
G01 X297.409279 Y185.778856 Z-0.249992
G01 X298.876552 Y187.265406 Z-0.249992
G01 X298.874097 Y187.263148 Z-0.249992
G01 X304.087758 Y192.016927 Z-0.249992
G01 X305.128113 Y192.965532 Z-0.249992
G01 X305.146599 Y192.980716 Z-0.249992
G01 X307.326935 Y194.772658 Z-0.249992
G01 X308.433867 Y195.682373 Z-0.249992
G01 X308.770953 Y195.922403 Z-0.249992
G01 X309.920444 Y196.740876 Z-0.249992
G01 X311.414049 Y197.804374 Z-0.249992
G01 X311.417125 Y197.806575 Z-0.249992
G01 X312.566616 Y198.625048 Z-0.249992
G01 X313.723276 Y199.448628 Z-0.249992
G01 X314.144746 Y199.775160 Z-0.249992
G01 X315.733037 Y201.005592 Z-0.249992
G01 X315.836951 Y201.276413 Z-0.249992
G01 X316.010207 Y201.727940 Z-0.249992
G01 X315.977949 Y201.860782 Z-0.249992
G01 X315.630139 Y203.292919 Z-0.249992
G01 X315.585717 Y203.453785 Z-0.249992
G01 X314.082996 Y208.894522 Z-0.249992
G01 X313.663924 Y210.411805 Z-0.249992
G01 X313.532550 Y210.887434 Z-0.249992
G01 X312.781162 Y213.607802 Z-0.249992
G01 X312.275645 Y215.438013 Z-0.249992
G01 X312.233396 Y215.624336 Z-0.249992
G01 X311.609093 Y218.376652 Z-0.249992
G01 X311.255694 Y219.934604 Z-0.249992
G01 X311.251602 Y219.963616 Z-0.249992
G01 X311.055429 Y221.361011 Z-0.249992
G01 X310.853697 Y222.797804 Z-0.249992
G01 X310.842521 Y222.877363 Z-0.249992
G01 X310.646320 Y224.274786 Z-0.249992
G01 X310.435754 Y225.774515 Z-0.249992
G01 X310.273843 Y226.258583 Z-0.249992
G01 X309.520225 Y226.258583 Z-0.249992
G01 X308.807049 Y226.258583 Z-0.249992
G01 X308.333452 Y225.949634 Z-0.249992
G01 X305.969756 Y224.407628 Z-0.249992
G01 X304.365831 Y223.361261 Z-0.249992
G01 X304.124644 Y223.166076 Z-0.249992
G01 X303.027703 Y222.278403 Z-0.249992
G01 X301.699537 Y221.203559 Z-0.249992
G01 X301.234632 Y220.827301 Z-0.249992
G01 X299.662908 Y219.555381 Z-0.249992
G01 X299.483697 Y219.377469 Z-0.249992
G01 X297.480907 Y217.389072 Z-0.249992
G01 X296.305875 Y216.222506 Z-0.249992
G01 X295.942401 Y215.832673 Z-0.249992
G01 X291.131048 Y210.672070 Z-0.249992
G01 X289.805366 Y209.250178 Z-0.249992
G01 X289.611479 Y209.025783 Z-0.249992
G01 X287.766282 Y206.890321 Z-0.249992
G01 X286.645380 Y205.593058 Z-0.249992
G01 X286.230852 Y205.013261 Z-0.249992
G01 X285.002339 Y203.294866 Z-0.249992
G01 X284.671969 Y202.832755 Z-0.249992
G01 X283.851267 Y201.684845 Z-0.249992
G01 X282.694777 Y200.067175 Z-0.249992
G01 X282.349478 Y199.498469 Z-0.249992
G01 X281.617139 Y198.292279 Z-0.249992
G01 X280.538260 Y196.515352 Z-0.249992
G01 X280.459549 Y196.353074 Z-0.249992
G01 X279.843683 Y195.083469 Z-0.249992
G01 X279.154243 Y193.662142 Z-0.249992
G01 X279.074599 Y193.497973 Z-0.249992
G01 X278.458734 Y192.228368 Z-0.249992
G01 X277.758400 Y190.784604 Z-0.249992
G01 X277.732605 Y190.716645 Z-0.249992
G01 X276.730574 Y188.078318 Z-0.249992
G01 X276.205415 Y186.695599 Z-0.249992
G01 X276.003711 Y186.070307 Z-0.249992
G01 X274.270754 Y180.698461 Z-0.249992
G01 X273.635641 Y178.729679 Z-0.249992
G01 X273.482789 Y178.147539 Z-0.249992
G01 X273.124424 Y176.782684 Z-0.249992
G01 X272.611061 Y174.827533 Z-0.249992
G01 X272.535764 Y174.269778 Z-0.249992
G01 X272.273749 Y172.328823 Z-0.249992
G01 X272.180447 Y171.637660 Z-0.249992
G01 X271.896136 Y169.531464 Z-0.249992
G01 X271.896051 Y169.074067 Z-0.249992
G01 X271.895346 Y164.840733 Z-0.249992
G01 X271.895064 Y162.971096 Z-0.249992
G01 X271.983935 Y162.353198 Z-0.249992
G01 X272.271238 Y160.356278 Z-0.249992
G01 X272.353900 Y159.783000 Z-0.249992
G01 X272.639340 Y157.803550 Z-0.249992
G01 X272.720648 Y157.440387 Z-0.249992
G01 X274.262315 Y150.555322 Z-0.249992
G01 X274.653334 Y148.809043 Z-0.249992
G01 X274.684520 Y148.722824 Z-0.249992
G01 X275.190488 Y147.324639 Z-0.249992
G01 X275.393688 Y146.763158 Z-0.249992
G01 X276.082733 Y144.859005 Z-0.249992
G01 X276.415445 Y144.221606 Z-0.249992
G01 X276.913878 Y144.720038 Z-0.249992
G01 X277.101273 Y144.907462 Z-0.249992
G01 X277.259374 Y145.429658 Z-0.249992
G01 X277.809454 Y147.246605 Z-0.249992
G01 X277.979239 Y147.887503 Z-0.249992
G01 X278.460032 Y149.702248 Z-0.249992
G01 X278.267641 Y149.952241 Z0.000000
G01 X278.460032 Y149.702248 Z-0.249992
G01 X278.460907 Y149.702248 Z-0.249992
G00 Z5.000000

G00 Z5.000000
G00 X330.217979 Y159.340730

G01 Z-0.249992 F100.0(Penetrate)
G01 X330.231921 Y160.751785 Z-0.249992 F400.000000
G01 X330.248629 Y162.441139 Z-0.249992
G01 X330.252015 Y162.784293 Z-0.249992
G01 X330.265957 Y164.195347 Z-0.249992
G01 X330.283257 Y165.945774 Z-0.249992
G01 X330.299175 Y166.343764 Z-0.249992
G01 X330.371113 Y168.141294 Z-0.249992
G01 X330.443983 Y168.610968 Z-0.249992
G01 X330.660306 Y170.005400 Z-0.249992
G01 X330.948681 Y171.864285 Z-0.249992
G01 X330.974589 Y171.945198 Z-0.249992
G01 X331.434527 Y173.381173 Z-0.249992
G01 X331.598074 Y173.800216 Z-0.249992
G01 X332.277496 Y175.541019 Z-0.249992
G01 X332.513914 Y176.146753 Z-0.249992
G01 X333.540017 Y178.775822 Z-0.249992
G01 X334.284858 Y180.684237 Z-0.249992
G01 X334.430259 Y180.967927 Z-0.249992
G01 X336.361167 Y184.735227 Z-0.249992
G01 X337.151502 Y186.277233 Z-0.249992
G01 X337.244494 Y186.428080 Z-0.249992
G01 X340.946432 Y192.434447 Z-0.249992
G01 X341.782120 Y193.790327 Z-0.249992
G01 X341.787172 Y193.797806 Z-0.249992
G01 X342.579115 Y194.965726 Z-0.249992
G01 X343.375546 Y196.140278 Z-0.249992
G01 X343.667477 Y196.526189 Z-0.249992
G01 X345.370067 Y198.776968 Z-0.249992
G01 X346.512531 Y200.287252 Z-0.249992
G01 X346.820351 Y200.645476 Z-0.249992
G01 X348.045308 Y202.071009 Z-0.249992
G01 X348.247605 Y202.266166 Z-0.249992
G01 X349.473917 Y203.449129 Z-0.249992
G01 X349.483146 Y203.458019 Z-0.249992
G01 X350.498722 Y204.437697 Z-0.249992
G01 X351.533123 Y205.435550 Z-0.249992
G01 X351.840802 Y205.803229 Z-0.249992
G01 X353.072561 Y207.275102 Z-0.249992
G01 X353.416421 Y208.179512 Z-0.249992
G01 X353.623205 Y208.723410 Z-0.249992
G01 X353.446449 Y210.061454 Z-0.249992
G01 X353.396750 Y210.257062 Z-0.249992
G01 X352.701834 Y212.992388 Z-0.249992
G01 X352.306920 Y214.546812 Z-0.249992
G01 X352.229309 Y214.803719 Z-0.249992
G01 X351.821300 Y216.154575 Z-0.249992
G01 X351.336584 Y217.759404 Z-0.249992
G01 X351.279660 Y217.934833 Z-0.249992
G01 X350.408863 Y220.619359 Z-0.249992
G01 X349.917316 Y222.134610 Z-0.249992
G01 X349.719620 Y222.744069 Z-0.249992
G01 X349.086906 Y224.694564 Z-0.249992
G01 X349.001985 Y224.965892 Z-0.249992
G01 X348.580430 Y226.312572 Z-0.249992
G01 X348.074292 Y227.929536 Z-0.249992
G01 X348.068761 Y227.948501 Z-0.249992
G01 X347.666820 Y229.324250 Z-0.249992
G01 X347.660611 Y229.345501 Z-0.249992
G01 X347.257936 Y230.723846 Z-0.249992
G01 X347.240664 Y230.778569 Z-0.249992
G01 X346.796503 Y232.185644 Z-0.249992
G01 X346.641648 Y232.569834 Z-0.249992
G01 X346.505617 Y232.907343 Z-0.249992
G01 X346.381213 Y233.203168 Z-0.249992
G01 X345.915292 Y233.285154 Z-0.249992
G01 X345.689261 Y233.059489 Z-0.249992
G01 X345.428713 Y232.791914 Z-0.249992
G01 X344.843215 Y232.190640 Z-0.249992
G01 X344.701257 Y231.994778 Z-0.249992
G01 X342.217194 Y228.566878 Z-0.249992
G01 X341.256114 Y227.240631 Z-0.249992
G01 X341.060167 Y226.956010 Z-0.249992
G01 X339.459741 Y224.631459 Z-0.249992
G01 X338.465275 Y223.187017 Z-0.249992
G01 X338.181246 Y222.774521 Z-0.249992
G01 X337.381034 Y221.612245 Z-0.249992
G01 X336.287140 Y220.023391 Z-0.249992
G01 X336.063253 Y219.578975 Z-0.249992
G01 X334.793479 Y217.058561 Z-0.249992
G01 X333.938289 Y215.361051 Z-0.249992
G01 X333.915683 Y215.306695 Z-0.249992
G01 X331.748866 Y210.094728 Z-0.249992
G01 X331.188034 Y208.745791 Z-0.249992
G01 X331.002670 Y208.299879 Z-0.249992
G01 X329.919247 Y205.693896 Z-0.249992
G01 X329.190945 Y203.942086 Z-0.249992
G01 X329.153917 Y203.846187 Z-0.249992
G01 X328.137550 Y201.213336 Z-0.249992
G01 X327.591845 Y199.799769 Z-0.249992
G01 X327.516520 Y199.581414 Z-0.249992
G01 X325.675980 Y194.245467 Z-0.249992
G01 X325.139870 Y192.691269 Z-0.249992
G01 X325.102024 Y192.559669 Z-0.249992
G01 X324.712050 Y191.203506 Z-0.249992
G01 X324.283354 Y189.712865 Z-0.249992
G01 X324.170465 Y189.166229 Z-0.249992
G01 X323.774028 Y187.247005 Z-0.249992
G01 X323.713463 Y186.953832 Z-0.249992
G01 X323.428023 Y185.571903 Z-0.249992
G01 X323.078350 Y183.878936 Z-0.249992
G01 X323.076854 Y183.853028 Z-0.249992
G01 X322.830897 Y179.626835 Z-0.249992
G01 X322.747219 Y178.188969 Z-0.249992
G01 X322.754641 Y178.123409 Z-0.249992
G01 X322.913955 Y176.721301 Z-0.249992
G01 X323.078293 Y175.274997 Z-0.249992
G01 X323.121586 Y174.894025 Z-0.249992
G01 X323.325238 Y173.101942 Z-0.249992
G01 X323.422379 Y172.584939 Z-0.249992
G01 X323.779757 Y170.682846 Z-0.249992
G01 X323.845853 Y170.417134 Z-0.249992
G01 X324.527025 Y167.678365 Z-0.249992
G01 X324.933792 Y166.042915 Z-0.249992
G01 X325.073887 Y165.597456 Z-0.249992
G01 X325.638218 Y163.803002 Z-0.249992
G01 X325.744503 Y163.544317 Z-0.249992
G01 X326.383003 Y161.990260 Z-0.249992
G01 X326.535290 Y161.619646 Z-0.249992
G01 X327.228907 Y159.931478 Z-0.249992
G01 X327.239660 Y159.911581 Z-0.249992
G01 X328.583235 Y157.429690 Z-0.249992
G01 X329.330532 Y156.049257 Z-0.249992
G01 X329.746555 Y156.050104 Z-0.249992
G01 X330.091516 Y156.050837 Z-0.249992
G01 X330.129221 Y156.967382 Z-0.249992
G01 X330.215185 Y159.058508 Z-0.249992
G01 X330.217979 Y159.340730 Z-0.249992
G00 Z5.000000

G00 Z5.000000
G00 X357.664994 Y193.953084

G01 Z-0.249992 F100.0(Penetrate)
G01 X357.301915 Y193.703092 Z0.000000 F400.000000
G01 X357.664994 Y193.953084 Z-0.249992
G01 X357.810762 Y194.334734 Z-0.249992
G01 X357.991073 Y195.156734 Z-0.249992
G01 X357.891505 Y195.416209 Z-0.249992
G01 X357.781523 Y195.702834 Z-0.249992
G01 X356.506105 Y196.266291 Z-0.249992
G01 X356.487111 Y196.272471 Z-0.249992
G01 X355.138399 Y196.711694 Z-0.249992
G01 X355.131429 Y196.713980 Z-0.249992
G01 X353.786894 Y197.151848 Z-0.249992
G01 X353.636723 Y197.206627 Z-0.249992
G01 X352.165160 Y197.743555 Z-0.249992
G01 X351.531656 Y198.027188 Z-0.249992
G01 X350.951238 Y198.287030 Z-0.249992
G01 X350.603427 Y198.441208 Z-0.249992
G01 X349.993488 Y198.408583 Z-0.249992
G01 X349.758933 Y198.192796 Z-0.249992
G01 X349.428000 Y197.883791 Z-0.249992
G01 X349.047000 Y197.528078 Z-0.249992
G01 X348.532452 Y196.849983 Z-0.249992
G01 X348.290588 Y196.384993 Z-0.249992
G01 X347.887094 Y195.609193 Z-0.249992
G01 X347.888280 Y195.307074 Z-0.249992
G01 X348.340428 Y194.855038 Z-0.249992
G01 X349.063284 Y194.132183 Z-0.249992
G01 X349.716120 Y193.895652 Z-0.249992
G01 X352.369545 Y192.934234 Z-0.249992
G01 X354.335759 Y192.221820 Z-0.249992
G01 X355.647669 Y192.196562 Z-0.249992
G01 X356.214767 Y192.185640 Z-0.249992
G01 X356.594694 Y192.191736 Z-0.249992
G01 X357.139637 Y192.606856 Z-0.249992
G01 X357.298077 Y192.992033 Z-0.249992
G01 X357.665107 Y193.953084 Z-0.249992
G01 X357.664994 Y193.953084 Z-0.249992
G00 Z5.000000

G00 Z5.000000
G00 X355.163207 Y200.115181

G01 Z-0.249992 F100.0(Penetrate)
G01 X355.163207 Y200.375362 Z-0.249992 F400.000000
G01 X354.810373 Y200.990239 Z-0.249992
G01 X354.420962 Y201.471428 Z-0.249992
G01 X353.814100 Y202.221321 Z-0.249992
G01 X353.436543 Y202.389638 Z-0.249992
G01 X352.898514 Y202.061837 Z-0.249992
G01 X352.409169 Y201.763697 Z-0.249992
G01 X352.131576 Y201.333817 Z-0.249992
G01 X352.242150 Y200.575796 Z-0.249992
G01 X352.615163 Y200.203714 Z-0.249992
G01 X353.170661 Y199.962442 Z-0.249992
G01 X354.383822 Y199.435562 Z-0.249992
G01 X355.166029 Y199.398873 Z-0.249992
G01 X355.163207 Y200.115181 Z-0.249992
G00 Z5.000000

G00 Z5.000000
G00 X359.306793 Y203.654812

G01 Z-0.249992 F100.0(Penetrate)
G01 X359.631547 Y204.515195 Z-0.249992 F400.000000
G01 X359.515920 Y205.009451 Z-0.249992
G01 X359.465289 Y205.134701 Z-0.249992
G01 X358.936349 Y206.442942 Z-0.249992
G01 X358.364002 Y207.858484 Z-0.249992
G01 X358.153267 Y208.379720 Z-0.249992
G01 X357.411671 Y210.213854 Z-0.249992
G01 X356.822165 Y211.518370 Z-0.249992
G01 X355.894755 Y211.772821 Z-0.249992
G01 X355.975414 Y210.356687 Z-0.249992
G01 X356.019808 Y209.971369 Z-0.249992
G01 X356.224814 Y208.191365 Z-0.249992
G01 X356.230825 Y208.139126 Z-0.249992
G01 X356.399792 Y206.672247 Z-0.249992
G01 X356.701826 Y205.305925 Z-0.249992
G01 X356.813417 Y204.993703 Z-0.249992
G01 X357.404954 Y203.338328 Z-0.249992
G01 X357.887921 Y202.616375 Z-0.249992
G01 X358.386241 Y202.616375 Z-0.249992
G01 X358.703628 Y202.616375 Z-0.249992
G01 X359.111270 Y203.136850 Z-0.249992
G01 X359.306793 Y203.654812 Z-0.249992
G00 Z5.000000

G00 Z5.000000
G00 X363.731558 Y200.274890

G01 Z-0.249992 F100.0(Penetrate)
G01 X364.226124 Y200.980954 Z-0.249992 F400.000000
G01 X364.238796 Y201.407646 Z-0.249992
G01 X364.280763 Y202.818136 Z-0.249992
G01 X364.333961 Y204.606324 Z-0.249992
G01 X364.267498 Y204.981144 Z-0.249992
G01 X363.959142 Y206.720028 Z-0.249992
G01 X363.777786 Y207.742829 Z-0.249992
G01 X363.528415 Y208.055249 Z-0.249992
G01 X362.812050 Y208.055249 Z-0.249992
G01 X361.854216 Y208.055249 Z-0.249992
G01 X361.862259 Y207.766254 Z-0.249992
G01 X361.901432 Y206.355679 Z-0.249992
G01 X361.941479 Y204.913072 Z-0.249992
G01 X361.956098 Y204.386953 Z-0.249992
G01 X362.009353 Y202.469394 Z-0.249992
G01 X361.943144 Y201.941469 Z-0.249992
G01 X361.464128 Y201.002234 Z-0.249992
G01 X361.132517 Y200.352219 Z-0.249992
G01 X360.901208 Y199.592223 Z-0.249992
G01 X361.047484 Y199.355467 Z-0.249992
G01 X361.399415 Y198.786055 Z-0.249992
G01 X361.716237 Y198.916273 Z-0.249992
G01 X363.209842 Y199.530050 Z-0.249992
G01 X363.731558 Y200.274890 Z-0.249992
G00 Z5.000000

G00 Z5.000000
G00 X361.091256 Y209.902902

G01 Z-0.249992 F100.0(Penetrate)
G01 X361.091256 Y210.296630 Z-0.249992 F400.000000
G01 X360.729052 Y210.746238 Z-0.249992
G01 X360.326575 Y210.873972 Z-0.249992
G01 X360.029480 Y210.943907 Z-0.226766
G01 X360.029480 Y210.943907 Z-0.226766
G01 X360.038821 Y211.284041 Z-0.249992
G01 X359.961351 Y213.177583 Z-0.249992
G01 X359.971032 Y213.634049 Z-0.249992
G01 X360.010740 Y215.509077 Z-0.249992
G01 X360.015369 Y215.725541 Z-0.249992
G01 X360.075651 Y218.547114 Z-0.249992
G01 X360.110393 Y220.174380 Z-0.249992
G01 X360.120158 Y220.631269 Z-0.249992
G01 X360.180441 Y223.452842 Z-0.249992
G01 X360.220290 Y225.318924 Z-0.249992
G01 X360.232934 Y225.688127 Z-0.249992
G01 X360.329595 Y228.508712 Z-0.249992
G01 X360.390329 Y230.280927 Z-0.249992
G01 X360.487752 Y231.203455 Z-0.249992
G01 X360.503077 Y231.348460 Z-0.249992
G01 X360.644781 Y232.690681 Z-0.249992
G01 X360.417931 Y232.923035 Z0.000000
G01 X360.644781 Y232.690681 Z-0.249992
G01 X361.563527 Y232.765442 Z-0.249992
G01 X362.444597 Y232.837154 Z-0.249992
G01 X363.036925 Y232.945274 Z-0.249992
G01 X363.604304 Y234.039252 Z-0.249992
G01 X363.631256 Y234.950632 Z-0.249992
G01 X363.631256 Y235.050906 Z-0.249992
G01 X363.631256 Y236.558593 Z-0.249992
G01 X363.631256 Y237.136076 Z-0.249992
G01 X363.631256 Y239.102657 Z-0.249992
G01 X363.666845 Y239.303063 Z-0.249992
G01 X364.084618 Y239.563978 Z-0.249992
G01 X364.732967 Y239.968882 Z-0.249992
G01 X364.769571 Y240.365969 Z-0.249992
G01 X364.765310 Y240.642010 Z-0.249992
G01 X364.721848 Y243.463894 Z-0.249992
G01 X364.696053 Y245.137471 Z-0.249992
G01 X364.690154 Y245.521576 Z-0.249992
G01 X364.646664 Y248.343459 Z-0.249992
G01 X364.615930 Y250.337755 Z-0.249992
G01 X364.107958 Y250.445733 Z-0.249992
G01 X362.727694 Y250.739131 Z-0.249992
G01 X361.034360 Y251.099049 Z-0.249992
G01 X360.793145 Y251.150329 Z-0.249992
G01 X359.175080 Y251.494273 Z-0.249992
G01 X358.499017 Y251.657764 Z-0.249992
G01 X356.452172 Y252.152782 Z-0.249992
G01 X356.398691 Y252.167683 Z-0.249992
G01 X354.981738 Y252.562766 Z-0.249992
G01 X354.413088 Y252.721291 Z-0.249992
G01 X350.335288 Y253.858251 Z-0.249992
G01 X348.400485 Y254.397719 Z-0.249992
G01 X348.081348 Y254.467315 Z-0.249992
G01 X347.704807 Y254.011780 Z-0.249992
G01 X347.253929 Y253.466329 Z-0.249992
G01 X347.176261 Y253.256271 Z-0.249992
G01 X345.708170 Y249.285658 Z-0.249992
G01 X345.148297 Y247.771395 Z-0.249992
G01 X344.918286 Y246.504951 Z-0.249992
G01 X344.807740 Y245.896057 Z-0.249992
G01 X344.650739 Y245.240595 Z-0.249992
G01 X344.163793 Y243.207608 Z-0.249992
G01 X343.998298 Y242.552993 Z-0.249992
G01 X343.486544 Y240.528811 Z-0.249992
G01 X343.386581 Y240.133474 Z-0.249992
G01 X342.694826 Y237.397329 Z-0.249992
G01 X342.246516 Y235.624127 Z-0.249992
G01 X342.011058 Y234.225264 Z-0.249992
G01 X342.720283 Y234.225264 Z-0.249992
G01 X342.936239 Y234.225264 Z-0.249992
G01 X343.675859 Y234.864300 Z-0.249992
G01 X344.368574 Y235.570138 Z-0.249992
G01 X345.040488 Y236.254753 Z-0.249992
G01 X345.727022 Y236.765264 Z-0.249992
G01 X345.898077 Y236.765264 Z-0.249992
G01 X346.266603 Y236.765264 Z-0.249992
G01 X346.878517 Y236.171215 Z-0.249992
G01 X347.193928 Y235.711164 Z-0.249992
G01 X348.312940 Y234.078989 Z-0.249992
G01 X348.356345 Y233.995959 Z-0.249992
G01 X349.053378 Y232.662628 Z-0.249992
G01 X349.085974 Y232.576099 Z-0.249992
G01 X349.621548 Y231.154884 Z-0.249992
G01 X349.677456 Y231.006548 Z-0.249992
G01 X350.229567 Y229.541335 Z-0.249992
G01 X350.249379 Y229.483451 Z-0.249992
G01 X350.713494 Y228.125991 Z-0.249992
G01 X350.713494 Y228.002321 Z-0.249992
G01 X350.713494 Y227.718772 Z-0.249992
G01 X351.039009 Y227.451931 Z-0.249992
G01 X351.329923 Y227.451931 Z-0.249992
G01 X351.931367 Y227.451931 Z-0.249992
G01 X352.019477 Y227.953045 Z-0.249992
G01 X352.996982 Y233.512202 Z-0.249992
G01 X353.295206 Y235.208188 Z-0.249992
G01 X353.344172 Y235.830008 Z-0.249992
G01 X353.454944 Y237.236745 Z-0.249992
G01 X353.613779 Y239.253420 Z-0.249992
G01 X353.640223 Y239.589208 Z-0.249992
G01 X353.776564 Y241.320331 Z-0.249992
G01 X353.867525 Y241.849526 Z-0.249992
G01 X354.345553 Y244.630967 Z-0.249992
G01 X354.673325 Y246.537915 Z-0.249992
G01 X355.014984 Y247.428382 Z-0.249992
G01 X355.087289 Y247.616794 Z-0.249992
G01 X355.447913 Y247.887868 Z-0.249992
G01 X355.862130 Y248.032253 Z-0.249992
G01 X356.395220 Y248.218096 Z-0.249992
G01 X356.686614 Y248.178444 Z-0.249992
G01 X357.124595 Y247.692203 Z-0.249992
G01 X357.208838 Y247.251626 Z-0.249992
G01 X357.128377 Y246.522675 Z-0.249992
G01 X357.058385 Y245.888578 Z-0.249992
G01 X356.998780 Y245.380183 Z-0.249992
G01 X356.834470 Y243.978667 Z-0.249992
G01 X356.610527 Y242.068051 Z-0.249992
G01 X356.537601 Y241.451621 Z-0.249992
G01 X356.371823 Y240.050303 Z-0.249992
G01 X356.133092 Y238.032414 Z-0.249992
G01 X356.060165 Y237.415843 Z-0.249992
G01 X355.894388 Y236.014525 Z-0.249992
G01 X355.655656 Y233.996523 Z-0.249992
G01 X355.637792 Y233.844377 Z-0.249992
G01 X355.308862 Y231.041403 Z-0.249992
G01 X355.126518 Y229.487572 Z-0.249992
G01 X355.122313 Y229.450911 Z-0.249992
G01 X354.957241 Y228.012650 Z-0.249992
G01 X354.953092 Y227.976300 Z-0.249992
G01 X354.788218 Y226.539563 Z-0.249992
G01 X354.746619 Y226.212778 Z-0.249992
G01 X354.526965 Y224.486792 Z-0.249992
G01 X354.376625 Y223.450105 Z-0.249992
G01 X354.324555 Y223.091005 Z-0.249992
G01 X354.069709 Y221.333466 Z-0.249992
G01 X353.921147 Y220.182931 Z-0.249992
G01 X354.065221 Y219.638891 Z-0.249992
G01 X354.567238 Y217.743063 Z-0.249992
G01 X354.602121 Y217.685857 Z-0.249992
G01 X355.353001 Y216.453759 Z-0.249992
G01 X355.363697 Y216.436544 Z-0.249992
G01 X356.108595 Y215.238059 Z-0.249992
G01 X356.863596 Y214.023290 Z-0.249992
G01 X356.866390 Y214.018802 Z-0.249992
G01 X357.611287 Y212.820317 Z-0.249992
G01 X358.360841 Y211.614354 Z-0.249992
G01 X358.655396 Y211.168979 Z-0.249992
G01 X359.754341 Y209.507395 Z-0.249992
G01 X359.967871 Y209.365325 Z-0.249992
G01 X360.598779 Y208.945491 Z-0.249992
G01 X361.091256 Y209.166302 Z-0.249992
G01 X361.091256 Y209.902902 Z-0.249992
G00 Z5.000000

G00 Z5.000000
G00 X368.625376 Y215.985129

G01 Z-0.249992 F100.0(Penetrate)
G01 X368.523071 Y216.026390 Z-0.249992 F400.000000
G01 X368.429034 Y216.537636 Z-0.249992
G01 X368.429034 Y217.671266 Z-0.249992
G01 X368.429034 Y218.552307 Z-0.249992
G01 X368.430417 Y218.942705 Z-0.249992
G01 X368.578499 Y219.270506 Z-0.249992
G01 X368.673834 Y219.290939 Z-0.249992
G01 X369.110008 Y219.378174 Z-0.249992
G01 X370.329575 Y219.622071 Z-0.249992
G01 X370.968978 Y219.613265 Z-0.249992
G01 X372.975098 Y219.585636 Z-0.249992
G01 X373.344245 Y219.351363 Z-0.249992
G01 X373.464838 Y219.274824 Z-0.249992
G01 X373.672921 Y218.605534 Z-0.249992
G01 X373.768086 Y217.802076 Z-0.249992
G01 X373.883317 Y216.829199 Z-0.249992
G01 X373.856534 Y216.398980 Z-0.249992
G01 X373.163256 Y215.880397 Z-0.249992
G01 X372.437973 Y215.823839 Z-0.249992
G01 X372.440287 Y215.823811 Z-0.249992
G01 X371.020511 Y215.838628 Z-0.249992
G01 X369.854143 Y215.850820 Z-0.249992
G01 X368.782292 Y215.921799 Z-0.249992
G01 X368.625376 Y215.985129 Z-0.249992
G00 Z5.000000

G00 Z5.000000
G00 X373.240246 Y216.841363

G01 Z-0.249992 F100.0(Penetrate)
G01 X373.240246 Y216.841363 Z-0.249992 F400.000000
G01 X373.402185 Y217.263229 Z-0.249992
G01 X373.400717 Y217.786271 Z-0.249992
G01 X373.307471 Y218.142436 Z-0.249992
G01 X373.140452 Y218.781077 Z-0.249992
G01 X372.739527 Y218.920805 Z-0.249992
G01 X371.368068 Y218.920805 Z-0.249992
G01 X370.439444 Y218.920805 Z-0.249992
G01 X369.782007 Y218.709985 Z-0.249992
G01 X369.534894 Y218.031043 Z-0.249992
G01 X370.144663 Y217.706911 Z-0.249992
G01 X371.058527 Y217.629384 Z-0.249992
G01 X371.725136 Y217.572827 Z-0.249992
G01 X371.946821 Y217.455197 Z-0.249992
G01 X372.038035 Y217.167866 Z-0.249992
G01 X372.154226 Y216.801767 Z-0.249992
G01 X372.385338 Y216.515397 Z-0.249992
G01 X372.882670 Y216.419893 Z-0.249992
G01 X373.170593 Y216.660064 Z-0.249992
G01 X373.240189 Y216.841363 Z-0.249992
G01 X373.068344 Y217.091384 Z0.000000
G01 X373.240189 Y216.841363 Z-0.249992
G01 X373.240246 Y216.841363 Z-0.249992
G00 Z5.000000

G00 Z5.000000
G00 X379.607687 Y208.584218

G01 Z-0.249992 F100.0(Penetrate)
G01 X379.807246 Y209.104269 Z-0.249992 F400.000000
G01 X379.600349 Y209.605496 Z-0.249992
G01 X378.730202 Y210.051520 Z-0.249992
G01 X378.042370 Y210.116770 Z-0.249992
G01 X377.222091 Y210.007945 Z-0.249992
G01 X375.882043 Y209.830173 Z-0.249992
G01 X375.549049 Y209.632956 Z-0.249992
G01 X375.549049 Y208.897795 Z-0.249992
G01 X375.549049 Y208.564265 Z-0.249992
G01 X375.597817 Y208.235646 Z-0.249992
G01 X376.224125 Y207.989435 Z-0.249992
G01 X376.696932 Y207.978598 Z-0.249992
G01 X377.501237 Y207.978598 Z-0.249992
G01 X378.820428 Y207.978598 Z-0.249992
G01 X379.430931 Y208.123716 Z-0.249992
G01 X379.607687 Y208.584218 Z-0.249992
G00 Z5.000000

G00 Z5.000000
G00 X375.456537 Y198.388517

G01 Z-0.249992 F100.0(Penetrate)
G01 X375.910209 Y198.842189 Z-0.249992 F400.000000
G01 X375.821789 Y199.365034 Z-0.249992
G01 X374.358749 Y199.680192 Z-0.249992
G01 X373.094704 Y199.727492 Z-0.249992
G01 X372.777966 Y199.727182 Z-0.249992
G01 X371.054914 Y199.725376 Z-0.249992
G01 X370.682550 Y199.724980 Z-0.249992
G01 X368.895181 Y199.723146 Z-0.249992
G01 X367.603280 Y199.681800 Z-0.249992
G01 X366.081199 Y199.363284 Z-0.249992
G01 X365.879580 Y198.904165 Z-0.249992
G01 X366.075865 Y198.392666 Z-0.249992
G01 X366.302574 Y197.801890 Z-0.249992
G01 X366.891911 Y197.754815 Z-0.249992
G01 X367.415631 Y197.771608 Z-0.249992
G01 X368.826008 Y197.816876 Z-0.249992
G01 X370.746135 Y197.878513 Z-0.249992
G01 X371.259441 Y197.894995 Z-0.249992
G01 X373.191083 Y197.956999 Z-0.249992
G01 X373.462637 Y197.983133 Z-0.249992
G01 X375.220232 Y198.152212 Z-0.249992
G01 X375.456537 Y198.388517 Z-0.249992
G00 Z5.000000

G00 Z5.000000
G00 X391.877891 Y200.216245

G01 Z-0.249992 F100.0(Penetrate)
G01 X391.877891 Y200.216245 Z-0.249992 F400.000000
G01 X392.552515 Y200.412304 Z-0.249992
G01 X393.907549 Y200.806089 Z-0.249992
G01 X395.909351 Y201.387806 Z-0.249992
G01 X395.916632 Y201.390346 Z-0.249992
G01 X398.581769 Y202.318800 Z-0.249992
G01 X399.931469 Y202.788983 Z-0.249992
G01 X400.035948 Y202.842153 Z-0.249992
G01 X401.382966 Y203.527586 Z-0.249992
G01 X401.994034 Y203.838539 Z-0.249992
G01 X402.401817 Y204.181100 Z-0.249992
G01 X402.626409 Y205.059263 Z-0.249992
G01 X402.463793 Y205.607367 Z-0.249992
G01 X402.117308 Y206.301887 Z-0.249992
G01 X401.889922 Y206.757704 Z-0.249992
G01 X401.630108 Y207.744099 Z-0.249992
G01 X401.540051 Y208.504547 Z-0.249992
G01 X401.396343 Y209.717651 Z-0.249992
G01 X401.452139 Y209.931575 Z-0.249992
G01 X401.433343 Y209.903212 Z-0.249992
G01 X402.216763 Y211.085977 Z-0.249992
G01 X402.708931 Y211.829012 Z-0.249992
G01 X403.142368 Y212.624625 Z-0.249992
G01 X403.142368 Y212.846733 Z-0.249992
G01 X403.142368 Y212.937835 Z-0.249992
G01 X403.754846 Y213.992923 Z-0.249992
G01 X403.760886 Y214.002151 Z-0.249992
G01 X404.545153 Y215.196713 Z-0.249992
G01 X404.718466 Y215.460704 Z-0.249992
G01 X405.677909 Y216.922107 Z-0.249992
G01 X406.007347 Y217.677870 Z-0.249992
G01 X405.880826 Y218.359239 Z-0.249992
G01 X405.788709 Y218.855442 Z-0.249992
G01 X405.437963 Y220.744610 Z-0.249992
G01 X405.404576 Y220.887837 Z-0.249992
G01 X404.444202 Y225.010794 Z-0.249992
G01 X404.091283 Y226.525932 Z-0.249992
G01 X404.077285 Y226.579864 Z-0.249992
G01 X403.367807 Y229.311437 Z-0.249992
G01 X402.999874 Y230.728108 Z-0.249992
G01 X402.834548 Y231.364604 Z-0.249992
G01 X402.314497 Y233.366857 Z-0.249992
G01 X402.256952 Y233.588515 Z-0.249992
G01 X401.902396 Y234.954357 Z-0.249992
G01 X401.490295 Y236.541829 Z-0.249992
G01 X401.168308 Y237.783579 Z-0.249992
G01 X400.846631 Y239.024115 Z-0.249992
G01 X400.836669 Y239.064162 Z-0.249992
G01 X400.156174 Y241.803101 Z-0.249992
G01 X399.805739 Y243.213478 Z-0.249992
G01 X399.666265 Y243.782777 Z-0.249992
G01 X399.330505 Y245.153361 Z-0.249992
G01 X398.855158 Y247.093638 Z-0.249992
G01 X398.715571 Y247.663332 Z-0.249992
G01 X398.379811 Y249.033916 Z-0.249992
G01 X397.903505 Y250.978060 Z-0.249992
G01 X397.815056 Y251.294968 Z-0.249992
G01 X397.435721 Y252.654150 Z-0.249992
G01 X396.952896 Y254.384116 Z-0.249992
G01 X396.722235 Y254.635406 Z-0.249992
G01 X396.347162 Y255.043923 Z-0.249992
G01 X395.732256 Y254.959567 Z-0.249992
G01 X395.404596 Y254.855878 Z-0.249992
G01 X393.751903 Y254.332779 Z-0.249992
G01 X392.457011 Y253.922965 Z-0.249992
G01 X392.120602 Y253.834347 Z-0.249992
G01 X390.756058 Y253.474852 Z-0.249992
G01 X389.051915 Y253.025921 Z-0.249992
G01 X388.991181 Y253.011359 Z-0.249992
G01 X387.618875 Y252.682824 Z-0.249992
G01 X386.183070 Y252.339077 Z-0.249992
G01 X386.119570 Y252.323865 Z-0.249992
G01 X384.747264 Y251.995330 Z-0.249992
G01 X383.308919 Y251.650963 Z-0.249992
G01 X382.666694 Y251.483041 Z-0.249992
G01 X380.642850 Y250.953902 Z-0.249992
G01 X380.264136 Y250.788435 Z-0.249992
G01 X379.934867 Y250.644558 Z-0.249992
G01 X379.654000 Y250.493852 Z-0.249992
G01 X379.512014 Y249.602566 Z-0.249992
G01 X379.558778 Y248.919927 Z-0.249992
G01 X379.653972 Y247.647020 Z-0.249992
G01 X379.669409 Y247.440602 Z-0.249992
G01 X379.791357 Y245.810205 Z-0.249992
G01 X380.029694 Y244.688766 Z-0.249992
G01 X380.438154 Y244.013126 Z-0.249992
G01 X380.881723 Y243.279405 Z-0.249992
G01 X380.930322 Y242.892873 Z-0.249992
G01 X380.915223 Y242.690859 Z-0.249992
G01 X380.793049 Y241.056651 Z-0.249992
G01 X380.781844 Y240.906593 Z-0.249992
G01 X380.676660 Y239.499433 Z-0.249992
G01 X380.559369 Y237.930137 Z-0.249992
G01 X380.563884 Y237.726203 Z-0.249992
G01 X380.594929 Y236.315430 Z-0.249992
G01 X380.631505 Y234.653057 Z-0.249992
G01 X380.974038 Y234.013090 Z-0.249992
G01 X381.206363 Y233.578947 Z-0.249992
G01 X381.753169 Y233.378598 Z-0.249992
G01 X382.565658 Y233.378598 Z-0.249992
G01 X383.150564 Y233.378598 Z-0.249992
G01 X383.570087 Y233.306377 Z-0.249992
G01 X383.581122 Y233.288033 Z-0.249992
G01 X383.621085 Y233.221626 Z-0.249992
G01 X383.640022 Y232.993901 Z-0.249992
G01 X383.757031 Y231.587644 Z-0.249992
G01 X383.897662 Y229.897387 Z-0.249992
G01 X383.938585 Y229.297128 Z-0.249992
G01 X384.034597 Y227.889291 Z-0.249992
G01 X384.171644 Y225.879332 Z-0.249992
G01 X384.214400 Y225.252460 Z-0.249992
G01 X384.502380 Y221.028948 Z-0.249992
G01 X384.640556 Y219.002423 Z-0.249992
G01 X384.641262 Y218.693729 Z-0.249992
G01 X384.290742 Y218.437443 Z-0.249992
G01 X384.015772 Y218.236388 Z-0.249992
G01 X383.743513 Y218.202690 Z-0.249992
G01 X383.195324 Y218.375072 Z-0.249992
G01 X383.028136 Y218.535543 Z-0.249992
G01 X382.967373 Y218.826260 Z-0.249992
G01 X382.840881 Y219.431232 Z-0.249992
G01 X382.813562 Y219.868959 Z-0.249992
G01 X382.373775 Y226.910798 Z-0.249992
G01 X382.257838 Y228.767030 Z-0.249992
G01 X382.257838 Y228.784415 Z-0.249992
G01 X382.257838 Y230.220672 Z-0.249992
G01 X382.257838 Y231.042588 Z-0.249992
G01 X382.118646 Y231.637992 Z-0.249992
G01 X381.961025 Y231.685462 Z-0.249992
G01 X380.554684 Y232.109134 Z-0.249992
G01 X379.224062 Y232.100893 Z-0.249992
G01 X378.735987 Y232.085314 Z-0.249992
G01 X376.840724 Y232.024750 Z-0.249992
G01 X376.634053 Y232.018146 Z-0.249992
G01 X370.992487 Y231.837890 Z-0.249992
G01 X369.391045 Y231.786723 Z-0.249992
G01 X369.030478 Y231.776112 Z-0.249992
G01 X367.619959 Y231.734851 Z-0.249992
G01 X365.858159 Y231.683289 Z-0.249992
G01 X365.583021 Y231.662687 Z-0.249992
G01 X364.175832 Y231.557361 Z-0.249992
G01 X361.929739 Y231.389185 Z-0.249992
G01 X362.384342 Y230.965203 Z-0.249992
G01 X362.319770 Y230.792003 Z-0.249992
G01 X362.182469 Y230.423562 Z-0.249992
G01 X362.153851 Y229.841478 Z-0.249992
G01 X362.084509 Y228.432061 Z-0.249992
G01 X361.988328 Y226.476289 Z-0.249992
G01 X361.985647 Y226.368621 Z-0.249992
G01 X361.915119 Y223.547274 Z-0.249992
G01 X361.877245 Y222.031938 Z-0.249992
G01 X361.865307 Y221.553317 Z-0.249992
G01 X361.759530 Y217.321310 Z-0.249992
G01 X361.712145 Y215.426273 Z-0.249992
G01 X361.713218 Y215.376065 Z-0.249992
G01 X361.747592 Y213.748631 Z-0.249992
G01 X362.216392 Y213.581160 Z-0.249992
G01 X362.464409 Y213.492571 Z-0.249992
G01 X362.730713 Y213.494518 Z-0.249992
G01 X365.552851 Y213.515290 Z-0.249992
G01 X367.187680 Y213.527312 Z-0.249992
G01 X367.828381 Y213.540774 Z-0.249992
G01 X370.649982 Y213.600069 Z-0.249992
G01 X372.699762 Y213.643108 Z-0.249992
G01 X373.092644 Y213.651377 Z-0.249992
G01 X377.325046 Y213.740277 Z-0.249992
G01 X379.125285 Y213.778095 Z-0.249992
G01 X379.565721 Y213.775329 Z-0.249992
G01 X380.976804 Y213.766411 Z-0.249992
G01 X382.742866 Y213.755235 Z-0.249992
G01 X382.889000 Y213.634783 Z-0.249992
G01 X383.173734 Y213.400058 Z-0.249992
G01 X383.297912 Y212.910262 Z-0.249992
G01 X383.352635 Y212.494605 Z-0.249992
G01 X383.593596 Y210.665381 Z-0.249992
G01 X383.701462 Y209.846344 Z-0.249992
G01 X383.992828 Y209.107487 Z-0.249992
G01 X384.370102 Y209.107487 Z-0.249992
G01 X384.508053 Y209.107487 Z-0.249992
G01 X384.837886 Y208.952942 Z-0.249992
G01 X385.117512 Y208.737663 Z-0.249992
G01 X385.378285 Y208.536918 Z-0.249992
G01 X385.380712 Y208.534858 Z-0.249992
G01 X385.349188 Y208.427698 Z-0.249992
G01 X385.172827 Y208.260171 Z-0.249992
G01 X384.726860 Y207.849707 Z-0.249992
G01 X384.169527 Y207.336740 Z-0.249992
G01 X383.616033 Y207.067471 Z-0.249992
G01 X383.152455 Y207.067471 Z-0.249992
G01 X382.511500 Y207.067471 Z-0.249992
G01 X381.972173 Y206.859530 Z-0.249992
G01 X381.359836 Y206.111528 Z-0.249992
G01 X381.242657 Y205.528965 Z-0.249992
G01 X381.328424 Y204.860409 Z-0.249992
G01 X381.401266 Y204.292493 Z-0.249992
G01 X381.537777 Y202.974149 Z-0.249992
G01 X381.631841 Y201.929672 Z-0.249992
G01 X381.727571 Y200.866795 Z-0.249992
G01 X381.969407 Y199.807333 Z-0.249992
G01 X382.226709 Y199.648301 Z-0.249992
G01 X383.001014 Y199.169765 Z-0.249992
G01 X384.354129 Y198.992642 Z-0.249992
G01 X384.611346 Y199.009067 Z-0.249992
G01 X386.019607 Y199.098955 Z-0.249992
G01 X387.676025 Y199.204647 Z-0.249992
G01 X388.000891 Y199.265607 Z-0.249992
G01 X389.709690 Y199.586184 Z-0.249992
G01 X390.139148 Y199.710982 Z-0.249992
G01 X391.877806 Y200.216245 Z-0.249992
G01 X391.842218 Y200.466237 Z0.000000
G01 X391.877806 Y200.216245 Z-0.249992
G01 X391.877891 Y200.216245 Z-0.249992
G00 Z5.000000

G00 Z5.000000
G00 X397.043291 Y205.141531

G01 Z-0.249992 F100.0(Penetrate)
G01 X396.695368 Y205.516943 Z-0.249992 F400.000000
G01 X396.271301 Y206.373910 Z-0.249992
G01 X396.097932 Y207.062363 Z-0.249992
G01 X395.992042 Y207.482931 Z-0.249992
G01 X395.543393 Y209.264600 Z-0.249992
G01 X395.445660 Y209.782534 Z-0.249992
G01 X392.828585 Y223.648846 Z-0.249992
G01 X392.468695 Y225.555624 Z-0.249992
G01 X392.437961 Y225.766754 Z-0.249992
G01 X392.234733 Y227.163133 Z-0.249992
G01 X392.000037 Y228.775864 Z-0.249992
G01 X391.979406 Y228.917596 Z-0.249992
G01 X391.755124 Y230.458811 Z-0.249992
G01 X391.739179 Y230.552001 Z-0.249992
G01 X391.501068 Y231.942877 Z-0.249992
G01 X391.247068 Y233.426491 Z-0.249992
G01 X391.192909 Y233.706540 Z-0.249992
G01 X390.871317 Y235.369393 Z-0.249992
G01 X390.817667 Y235.646818 Z-0.249992
G01 X390.496836 Y237.305720 Z-0.249992
G01 X390.427438 Y237.739242 Z-0.249992
G01 X390.204341 Y239.132601 Z-0.249992
G01 X389.911677 Y240.960385 Z-0.249992
G01 X389.835590 Y241.525648 Z-0.249992
G01 X389.570809 Y243.492483 Z-0.249992
G01 X389.542954 Y243.699465 Z-0.249992
G01 X389.166413 Y246.496456 Z-0.249992
G01 X388.966769 Y247.979308 Z-0.249992
G01 X388.702496 Y248.068575 Z0.000000
G01 X388.966769 Y247.979308 Z-0.249992
G01 X389.471156 Y248.483667 Z-0.249992
G01 X389.919918 Y248.932457 Z-0.249992
G01 X389.964735 Y248.941827 Z-0.249992
G01 X390.486507 Y248.704083 Z-0.249992
G01 X390.832624 Y248.546377 Z-0.249992
G01 X391.272665 Y248.106816 Z-0.249992
G01 X391.478264 Y247.707951 Z-0.249992
G01 X391.990723 Y246.713767 Z-0.249992
G01 X392.089304 Y246.236219 Z-0.249992
G01 X392.659844 Y243.472247 Z-0.249992
G01 X393.045529 Y241.603682 Z-0.249992
G01 X393.045755 Y241.552120 Z-0.249992
G01 X393.051681 Y240.064414 Z-0.249992
G01 X393.054560 Y239.377739 Z-0.249992
G01 X393.079142 Y239.212809 Z-0.249992
G01 X393.310028 Y237.661574 Z-0.249992
G01 X393.313838 Y237.644189 Z-0.249992
G01 X393.616831 Y236.256390 Z-0.249992
G01 X393.618835 Y236.247189 Z-0.249992
G01 X393.921123 Y234.862663 Z-0.249992
G01 X394.012197 Y234.384297 Z-0.249992
G01 X394.367204 Y232.519598 Z-0.249992
G01 X394.373413 Y232.481724 Z-0.249992
G01 X394.608363 Y231.048148 Z-0.249992
G01 X394.673584 Y230.650327 Z-0.249992
G01 X395.586545 Y225.080192 Z-0.249992
G01 X395.880254 Y223.288109 Z-0.249992
G01 X395.974093 Y222.761934 Z-0.249992
G01 X396.221827 Y221.372723 Z-0.249992
G01 X396.563655 Y219.455955 Z-0.249992
G01 X396.571642 Y219.416980 Z-0.249992
G01 X397.138033 Y216.652190 Z-0.249992
G01 X397.428581 Y215.233967 Z-0.249992
G01 X397.464480 Y215.058707 Z-0.249992
G01 X398.597348 Y209.529127 Z-0.249992
G01 X398.915328 Y207.976933 Z-0.249992
G01 X399.019299 Y207.321641 Z-0.249992
G01 X399.018000 Y207.301716 Z-0.249992
G01 X398.923992 Y205.845816 Z-0.249992
G01 X398.882336 Y205.200261 Z-0.249992
G01 X398.850699 Y204.903420 Z-0.249992
G01 X398.697029 Y204.636522 Z-0.249992
G01 X398.620744 Y204.617077 Z-0.249992
G01 X398.281259 Y204.577989 Z-0.249992
G01 X397.805376 Y204.523210 Z-0.249992
G01 X397.484828 Y204.665111 Z-0.249992
G01 X397.043291 Y205.141531 Z-0.249992
G00 Z5.000000

G00 Z5.000000
G00 X400.185667 Y197.444399

G01 Z-0.249992 F100.0(Penetrate)
G01 X400.525716 Y197.582575 Z-0.249992 F400.000000
G01 X402.181853 Y198.255506 Z-0.249992
G01 X402.332136 Y198.330323 Z-0.249992
G01 X403.750980 Y199.036499 Z-0.249992
G01 X404.225480 Y199.350584 Z-0.249992
G01 X405.890873 Y200.452860 Z-0.249992
G01 X406.529034 Y201.168237 Z-0.249992
G01 X406.529034 Y201.771430 Z-0.249992
G01 X406.529034 Y202.376910 Z-0.249992
G01 X406.169060 Y202.771400 Z-0.249992
G01 X405.101667 Y202.623375 Z-0.249992
G01 X404.361624 Y202.247906 Z-0.249992
G01 X403.382059 Y201.597073 Z-0.249992
G01 X402.349718 Y200.911189 Z-0.249992
G01 X402.097129 Y200.781197 Z-0.249992
G01 X400.590289 Y200.005538 Z-0.249992
G01 X399.466508 Y199.581442 Z-0.249992
G01 X398.426124 Y199.188815 Z-0.249992
G01 X397.755761 Y198.873064 Z-0.249992
G01 X396.994721 Y198.188026 Z-0.249992
G01 X396.940760 Y197.731701 Z-0.249992
G01 X397.116613 Y197.273457 Z-0.249992
G01 X397.252475 Y196.919409 Z-0.249992
G01 X397.548356 Y196.676190 Z-0.249992
G01 X398.474469 Y196.781911 Z-0.249992
G01 X399.135941 Y197.017848 Z-0.249992
G01 X400.185667 Y197.444399 Z-0.249992
G00 Z5.000000

G00 Z5.000000
G00 X406.865697 Y208.529157

G01 Z-0.249992 F100.0(Penetrate)
G01 X407.325719 Y209.105680 Z-0.249992 F400.000000
G01 X407.471149 Y209.359709 Z-0.249992
G01 X408.312227 Y210.828732 Z-0.249992
G01 X408.376376 Y210.959937 Z-0.249992
G01 X409.056899 Y212.351490 Z-0.249992
G01 X409.117464 Y212.475385 Z-0.249992
G01 X409.794825 Y213.860476 Z-0.249992
G01 X410.005476 Y214.235239 Z-0.249992
G01 X410.905765 Y215.836878 Z-0.249992
G01 X411.527190 Y216.747270 Z-0.249992
G01 X412.161033 Y217.675838 Z-0.249992
G01 X412.268362 Y217.867862 Z-0.249992
G01 X413.064059 Y219.291504 Z-0.249992
G01 X413.531419 Y220.333242 Z-0.249992
G01 X413.989410 Y221.353984 Z-0.249992
G01 X414.148950 Y221.634259 Z-0.249992
G01 X415.007752 Y223.143019 Z-0.249992
G01 X415.005127 Y223.139152 Z-0.249992
G01 X415.797156 Y224.312858 Z-0.249992
G01 X415.907900 Y224.476998 Z-0.249992
G01 X416.818716 Y225.826783 Z-0.249992
G01 X417.249979 Y226.742650 Z-0.249992
G01 X417.097325 Y227.223613 Z-0.249992
G01 X416.902931 Y227.836092 Z-0.249992
G01 X416.435655 Y228.109142 Z-0.249992
G01 X415.515018 Y227.379767 Z-0.249992
G01 X414.966886 Y226.603148 Z-0.249992
G01 X414.955343 Y226.583787 Z-0.249992
G01 X414.226504 Y225.360439 Z-0.249992
G01 X414.183042 Y225.287484 Z-0.249992
G01 X413.419885 Y224.006562 Z-0.249992
G01 X413.114718 Y223.538271 Z-0.249992
G01 X412.039198 Y221.887892 Z-0.249992
G01 X412.009197 Y221.845784 Z-0.249992
G01 X411.157084 Y220.650376 Z-0.249992
G01 X410.861569 Y220.235819 Z-0.249992
G01 X410.042503 Y219.086751 Z-0.249992
G01 X408.918582 Y217.510004 Z-0.249992
G01 X408.582455 Y216.880705 Z-0.249992
G01 X405.923047 Y211.902023 Z-0.249992
G01 X404.900161 Y209.987060 Z-0.249992
G01 X404.900161 Y208.878520 Z-0.249992
G01 X404.900161 Y208.085645 Z-0.249992
G01 X405.056540 Y207.498171 Z-0.249992
G01 X405.819443 Y207.401086 Z-0.249992
G01 X406.301027 Y207.821456 Z-0.249992
G01 X406.865697 Y208.529157 Z-0.249992
G00 Z5.000000

G00 Z5.000000
G00 X417.336622 Y212.206343

G01 Z-0.249992 F100.0(Penetrate)
G01 X418.352452 Y212.506853 Z-0.249992 F400.000000
G01 X418.844450 Y212.634164 Z-0.249992
G01 X420.704464 Y213.115409 Z-0.249992
G01 X420.947147 Y213.173265 Z-0.249992
G01 X422.564788 Y213.558949 Z-0.249992
G01 X422.637122 Y213.576193 Z-0.249992
G01 X424.009766 Y213.903458 Z-0.249992
G01 X425.472608 Y214.252228 Z-0.249992
G01 X426.143479 Y214.520904 Z-0.249992
G01 X426.143479 Y215.158529 Z-0.249992
G01 X426.143479 Y215.586914 Z-0.249992
G01 X425.907005 Y215.938055 Z-0.249992
G01 X424.709451 Y215.858722 Z-0.249992
G01 X423.766547 Y215.615333 Z-0.249992
G01 X423.638249 Y215.578729 Z-0.249992
G01 X422.156018 Y215.155932 Z-0.249992
G01 X422.136008 Y215.150231 Z-0.249992
G01 X420.759723 Y214.757660 Z-0.249992
G01 X420.329419 Y214.637575 Z-0.249992
G01 X418.539989 Y214.138239 Z-0.249992
G01 X417.222971 Y213.779337 Z-0.249992
G01 X417.037184 Y213.728706 Z-0.249992
G01 X415.469919 Y213.301647 Z-0.249992
G01 X414.645266 Y212.921861 Z-0.249992
G01 X414.553007 Y212.438217 Z-0.249992
G01 X414.481690 Y212.064555 Z-0.249992
G01 X414.601606 Y211.669161 Z-0.249992
G01 X415.514510 Y211.689397 Z-0.249992
G01 X416.193396 Y211.868156 Z-0.249992
G01 X417.336622 Y212.206343 Z-0.249992
G00 Z5.000000

G00 Z5.000000
G00 X420.077084 Y217.824146

G01 Z0.000000 F100.0(Penetrate)
G01 X420.077084 Y217.824146 Z0.000000 F400.000000
G01 X420.077084 Y217.824146 Z0.000000
G01 X420.676439 Y217.574153 Z-0.249992
G01 X421.184609 Y217.742132 Z-0.249992
G01 X421.861603 Y218.439164 Z-0.249992
G01 X422.076995 Y218.991840 Z-0.249992
G01 X422.191352 Y219.707273 Z-0.249992
G01 X422.435728 Y221.235902 Z-0.249992
G01 X420.903910 Y221.124960 Z-0.249992
G01 X420.338394 Y221.084010 Z-0.249992
G01 X419.949294 Y221.022232 Z-0.249992
G01 X419.312459 Y220.580554 Z-0.249992
G01 X419.052307 Y220.205650 Z-0.249992
G01 X418.677234 Y219.597545 Z-0.249992
G01 X418.261379 Y218.923373 Z-0.249992
G01 X418.034726 Y218.330283 Z-0.249992
G01 X418.034670 Y217.492506 Z-0.249992
G01 X418.460910 Y217.231479 Z-0.249992
G01 X418.979522 Y217.430361 Z-0.249992
G01 X419.182270 Y217.508141 Z-0.249992
G01 X419.671136 Y217.574153 Z-0.249992
