%
(Header)
(Generated by gcodetools from Inkscape.)
(Using default header. To add your own header create file "header" in the output dir.)
M3
(Header end.)
G21 (All units in mm)
(Tool diameter should be at least 0.5 mm)
(Depth, as a function of radius w, must be 10)
(Rapid feeds use safe Z=5.0 mm)
(Material surface at Z=0.0 mm)
(Change tool to Cylindrical cutter)

G00 Z5.000000
G00 X74.949841 Y40.364382

G01 Z-0.249992 F100.0(Penetrate)
G01 X75.579845 Y40.711685 Z-0.249992 F400.000000
G01 X76.241713 Y41.008978 Z-0.249992
G01 X76.254723 Y41.012449 Z-0.249992
G01 X77.631008 Y41.378830 Z-0.249992
G01 X78.316695 Y41.444305 Z-0.249992
G01 X79.020106 Y41.324897 Z-0.249992
G01 X79.757666 Y41.180286 Z-0.249992
G01 X80.343248 Y40.753341 Z-0.249992
G01 X80.369806 Y40.716765 Z-0.249992
G01 X81.225927 Y39.537471 Z-0.249992
G01 X81.467142 Y38.816026 Z-0.249992
G01 X81.469936 Y38.074205 Z-0.249992
G01 X81.470896 Y37.211734 Z-0.249992
G01 X81.265692 Y36.401135 Z-0.249992
G01 X81.203490 Y36.255283 Z-0.249992
G01 X80.587681 Y34.811124 Z-0.249992
G01 X80.127179 Y34.069585 Z-0.249992
G01 X79.619179 Y33.372891 Z-0.249992
G01 X79.360664 Y33.030330 Z-0.249992
G01 X78.510638 Y31.903981 Z-0.249992
G01 X77.401392 Y30.434139 Z-0.249992
G01 X77.139546 Y30.092312 Z-0.249992
G01 X76.281393 Y28.972143 Z-0.249992
G01 X75.160153 Y27.508539 Z-0.249992
G01 X74.900028 Y27.162788 Z-0.249992
G01 X74.051668 Y26.035169 Z-0.249992
G01 X72.945442 Y24.564763 Z-0.249992
G01 X72.322860 Y23.753798 Z-0.238196
G01 X71.830975 Y22.862455 Z-0.157367
G01 X71.830975 Y22.862455 Z-0.157367
G01 X71.267179 Y22.014349 Z0.000000
G01 X71.830975 Y22.862455 Z-0.157367
G01 X71.866394 Y22.926125 Z-0.162927
G01 X72.408655 Y23.915060 Z-0.249992
G01 X72.527668 Y24.297189 Z-0.249992
G01 X73.066374 Y26.026872 Z-0.249992
G01 X73.266752 Y27.144867 Z-0.249992
G01 X73.187278 Y28.276578 Z-0.249992
G01 X73.155726 Y28.879320 Z-0.249992
G01 X72.892017 Y29.511752 Z-0.249992
G01 X72.097534 Y30.420959 Z-0.249992
G01 X71.501791 Y30.763013 Z-0.249992
G01 X70.862614 Y30.802693 Z-0.249992
G01 X69.744590 Y30.903334 Z-0.249992
G01 X68.675843 Y30.627207 Z-0.249992
G01 X68.338700 Y30.491882 Z-0.249992
G01 X66.692498 Y29.831087 Z-0.249992
G01 X65.745078 Y29.305391 Z-0.249992
G01 X65.531041 Y29.208392 Z-0.249992
G01 X64.916333 Y28.655405 Z0.000000
G01 X65.531041 Y29.208392 Z-0.249992
G01 X65.555538 Y29.250132 Z-0.249992
G01 X66.111459 Y29.890974 Z-0.249992
G01 X66.626599 Y30.586426 Z-0.249992
G01 X66.800900 Y30.819147 Z-0.249992
G01 X67.646776 Y31.948600 Z-0.249992
G01 X68.666191 Y33.309786 Z-0.249992
G01 X68.844104 Y33.539910 Z-0.249992
G01 X69.707168 Y34.656296 Z-0.249992
G01 X70.750572 Y36.005940 Z-0.249992
G01 X70.926791 Y36.241821 Z-0.249992
G01 X71.771369 Y37.372262 Z-0.249992
G01 X72.791885 Y38.738161 Z-0.249992
G01 X73.321955 Y39.465871 Z-0.249992
G01 X74.134980 Y39.902949 Z-0.249992
G01 X74.949841 Y40.364382 Z-0.249992
G00 Z5.000000

G00 Z5.000000
G00 X66.860703 Y48.357282

G01 Z-0.249992 F100.0(Penetrate)
G01 X66.860703 Y48.357282 Z-0.249992 F400.000000
G01 X67.839336 Y48.635638 Z-0.249992
G01 X68.831009 Y48.872507 Z-0.249992
G01 X69.134228 Y48.906628 Z-0.249992
G01 X70.839528 Y49.098454 Z-0.249992
G01 X71.824738 Y49.086714 Z-0.249992
G01 X72.807972 Y48.861726 Z-0.249992
G01 X73.335896 Y48.752111 Z-0.249992
G01 X73.781977 Y48.485750 Z-0.249992
G01 X74.493431 Y47.694229 Z-0.249992
G01 X74.705408 Y47.231244 Z-0.249992
G01 X74.735436 Y46.689123 Z-0.249992
G01 X74.797215 Y46.046475 Z-0.249992
G01 X74.639848 Y45.472576 Z-0.249992
G01 X74.052854 Y44.338184 Z-0.249992
G01 X73.641148 Y43.829337 Z-0.249992
G01 X73.196253 Y43.365053 Z-0.249992
G01 X72.538082 Y42.643129 Z-0.249992
G01 X71.565488 Y42.167754 Z-0.249992
G01 X70.927722 Y41.278641 Z-0.249992
G01 X70.606920 Y40.843087 Z-0.249992
G01 X69.449781 Y39.272154 Z-0.249992
G01 X69.121303 Y38.844502 Z-0.249992
G01 X67.931228 Y37.295102 Z-0.249992
G01 X67.602891 Y36.861750 Z-0.249992
G01 X66.875406 Y35.901546 Z-0.249992
G01 X66.622168 Y35.153318 Z0.000000
G01 X66.875406 Y35.901546 Z-0.249992
G01 X66.876197 Y36.086147 Z-0.249992
G01 X66.672009 Y37.159212 Z-0.249992
G01 X65.927140 Y37.849387 Z-0.249992
G01 X65.747675 Y37.674832 Z0.000000
G01 X65.927140 Y37.849387 Z-0.249992
G01 X65.514249 Y38.320500 Z-0.249992
G01 X64.934818 Y38.611048 Z-0.249992
G01 X63.777622 Y38.891859 Z-0.249992
G01 X63.145162 Y38.904418 Z-0.249992
G01 X62.581057 Y38.859488 Z-0.249992
G01 X62.513916 Y38.855340 Z-0.249992
G01 X61.001092 Y38.761360 Z-0.249992
G01 X60.896472 Y38.724191 Z-0.249992
G01 X59.500319 Y38.227819 Z-0.249992
G01 X59.444072 Y38.210406 Z-0.249992
G01 X58.562635 Y37.896038 Z-0.210143
G01 X58.108625 Y37.535612 Z0.000000
G01 X58.562635 Y37.896038 Z-0.210143
G01 X58.562635 Y37.896038 Z-0.210143
G01 X58.914482 Y38.302551 Z-0.249992
G01 X59.256535 Y38.730626 Z-0.249992
G01 X59.519566 Y39.074570 Z-0.249992
G01 X60.376760 Y40.195472 Z-0.249992
G01 X61.495912 Y41.658879 Z-0.249992
G01 X61.756065 Y42.004150 Z-0.249992
G01 X62.605271 Y43.131148 Z-0.249992
G01 X63.713953 Y44.602541 Z-0.249992
G01 X63.973739 Y44.946232 Z-0.249992
G01 X64.824610 Y46.071960 Z-0.249992
G01 X65.934816 Y47.540842 Z-0.249992
G01 X66.223727 Y47.917383 Z-0.249992
G01 X66.460060 Y48.272700 Z-0.249992
G01 X66.860703 Y48.357282 Z-0.249992
G00 Z5.000000

G00 Z5.000000
G00 X61.228450 Y59.096064

G01 Z-0.249992 F100.0(Penetrate)
G01 X61.134047 Y59.339142 Z0.000000 F400.000000
G01 X61.228450 Y59.096064 Z-0.249992
G01 X62.253622 Y59.180674 Z-0.249992
G01 X63.372633 Y59.220072 Z-0.249992
G01 X63.772458 Y59.180561 Z-0.249992
G01 X65.576309 Y59.002309 Z-0.249992
G01 X66.626797 Y58.751781 Z-0.249992
G01 X67.612091 Y58.253913 Z-0.249992
G01 X68.117720 Y57.991277 Z-0.249992
G01 X68.578251 Y57.611123 Z-0.249992
G01 X69.232301 Y56.652217 Z-0.249992
G01 X69.389837 Y56.146475 Z-0.249992
G01 X69.288096 Y55.573140 Z-0.249992
G01 X69.155169 Y54.889090 Z-0.249992
G01 X68.827763 Y54.315022 Z-0.249992
G01 X68.829005 Y54.316546 Z-0.249992
G01 X67.942150 Y53.220649 Z-0.249992
G01 X67.404940 Y52.736750 Z-0.249992
G01 X66.872528 Y52.268205 Z-0.249992
G01 X66.180688 Y51.630891 Z-0.249992
G01 X65.224689 Y51.224575 Z-0.249992
G01 X64.543094 Y50.419621 Z-0.249992
G01 X64.362951 Y50.184022 Z-0.249992
G01 X63.327563 Y48.829807 Z-0.249992
G01 X63.154335 Y48.590708 Z-0.249992
G01 X62.159163 Y47.217133 Z-0.249992
G01 X61.979980 Y46.996604 Z-0.249992
G01 X61.200736 Y46.037416 Z-0.249992
G01 X61.100716 Y45.517816 Z0.000000
G01 X61.200736 Y46.037416 Z-0.249992
G01 X61.073059 Y46.447287 Z-0.249992
G01 X60.617185 Y47.387256 Z-0.249992
G01 X59.737216 Y47.848492 Z-0.249992
G01 X58.649306 Y48.479400 Z-0.249992
G01 X57.423671 Y48.703371 Z-0.249992
G01 X56.919848 Y48.718301 Z-0.249992
G01 X55.006156 Y48.775056 Z-0.249992
G01 X53.775808 Y48.631235 Z-0.249992
G01 X53.184524 Y48.581226 Z-0.249992
G01 X52.642065 Y48.284441 Z0.000000
G01 X53.184524 Y48.581226 Z-0.249992
G01 X53.214383 Y48.620201 Z-0.249992
G01 X54.072790 Y49.740171 Z-0.249992
G01 X55.305706 Y51.348753 Z-0.249992
G01 X55.676038 Y51.839622 Z-0.249992
G01 X56.525866 Y52.966141 Z-0.249992
G01 X57.745320 Y54.582597 Z-0.249992
G01 X58.115934 Y55.072083 Z-0.249992
G01 X58.967737 Y56.197105 Z-0.249992
G01 X60.188151 Y57.809017 Z-0.249992
G01 X60.572594 Y58.288569 Z-0.249992
G01 X60.852304 Y58.805064 Z-0.249992
G01 X61.228450 Y59.096064 Z-0.249992
G00 Z5.000000

G00 Z5.000000
G00 X55.240626 Y65.804966

G01 Z-0.249992 F100.0(Penetrate)
G01 X56.926734 Y68.068162 Z-0.249992 F400.000000
G01 X57.780993 Y69.214803 Z-0.249992
G01 X58.074871 Y69.562472 Z-0.249992
G01 X58.264806 Y69.955580 Z-0.249992
G01 X58.589926 Y69.808119 Z-0.249992
G01 X58.961049 Y69.712699 Z-0.249992
G01 X60.674815 Y69.272066 Z-0.249992
G01 X61.043933 Y69.167728 Z-0.249992
G01 X62.738819 Y68.688684 Z-0.249992
G01 X63.021859 Y68.509332 Z-0.249992
G01 X64.526697 Y67.555844 Z-0.249992
G01 X64.898157 Y67.315814 Z-0.249992
G01 X65.257737 Y67.032012 Z-0.249992
G01 X65.793790 Y66.335995 Z-0.249992
G01 X65.939699 Y65.985955 Z-0.249992
G01 X65.904082 Y65.543854 Z-0.249992
G01 X65.873546 Y64.963294 Z-0.249992
G01 X65.624880 Y64.503441 Z-0.249992
G01 X64.848345 Y63.643369 Z-0.249992
G01 X64.353779 Y63.297675 Z-0.249992
G01 X63.853173 Y63.003713 Z-0.249992
G01 X62.725470 Y62.295109 Z-0.249992
G01 X61.400831 Y61.996236 Z-0.249992
G01 X60.072665 Y61.464952 Z-0.249992
G01 X59.909823 Y61.281649 Z-0.249992
G01 X58.834980 Y60.071537 Z-0.249992
G01 X58.719692 Y59.886032 Z-0.249992
G01 X57.880448 Y58.535683 Z-0.249992
G01 X57.770635 Y58.405917 Z-0.249992
G01 X56.877148 Y57.350124 Z-0.249992
G01 X56.928258 Y57.023480 Z0.000000
G01 X56.877148 Y57.350124 Z-0.249992
G01 X55.980217 Y57.910194 Z-0.249992
G01 X54.785627 Y58.365306 Z-0.249992
G01 X54.255586 Y58.504469 Z-0.249992
G01 X52.360859 Y59.001971 Z-0.249992
G01 X51.105026 Y59.192640 Z-0.249992
G01 X50.300411 Y59.294748 Z-0.249992
G01 X49.849956 Y59.099930 Z0.000000
G01 X50.300411 Y59.294748 Z-0.249992
G01 X49.877162 Y59.111699 Z-0.015099
G01 X50.896436 Y60.115422 Z-0.249992
G01 X51.725633 Y61.257209 Z-0.249992
G01 X52.566881 Y62.415561 Z-0.249992
G01 X52.580935 Y62.433370 Z-0.249992
G01 X54.329302 Y64.648814 Z-0.249992
G01 X55.222761 Y65.780977 Z-0.249992
G01 X55.240626 Y65.804966 Z-0.249992
G00 Z5.000000

G00 Z5.000000
G00 X55.402763 Y75.807937

G01 Z-0.249992 F100.0(Penetrate)
G01 X56.279119 Y76.913938 Z-0.249992 F400.000000
G01 X57.441875 Y78.381409 Z-0.249992
G01 X57.343915 Y78.660329 Z0.000000
G01 X57.441875 Y78.381409 Z-0.249992
G01 X57.657210 Y78.332076 Z-0.249992
G01 X59.395699 Y77.933720 Z-0.249992
G01 X59.784178 Y77.824105 Z-0.249992
G01 X61.496533 Y77.340884 Z-0.249992
G01 X61.783299 Y77.142143 Z-0.249992
G01 X63.262651 Y76.116717 Z-0.249992
G01 X63.963833 Y75.615603 Z-0.249992
G01 X64.586866 Y74.966379 Z-0.249992
G01 X64.661034 Y74.132920 Z-0.249992
G01 X64.691881 Y73.550075 Z-0.249992
G01 X64.101952 Y73.212989 Z-0.249992
G01 X63.521195 Y72.995452 Z-0.249992
G01 X63.199942 Y72.882422 Z-0.249992
G01 X61.588933 Y72.315607 Z-0.249992
G01 X61.272900 Y72.324581 Z-0.249992
G01 X59.495521 Y72.375184 Z-0.249992
G01 X59.162245 Y72.372672 Z-0.249992
G01 X57.297885 Y72.358533 Z-0.249992
G01 X57.001269 Y71.959273 Z-0.249992
G01 X55.938674 Y70.528971 Z-0.249992
G01 X55.712784 Y70.235742 Z-0.249992
G01 X54.623265 Y68.821498 Z-0.249992
G01 X54.398757 Y68.521355 Z-0.249992
G01 X53.430283 Y67.226604 Z-0.249992
G01 X53.530275 Y66.942914 Z0.000000
G01 X53.430283 Y67.226604 Z-0.249992
G01 X53.517659 Y66.978700 Z-0.031524
G01 X52.187856 Y67.545007 Z-0.249992
G01 X52.166633 Y67.551075 Z-0.249992
G01 X50.759022 Y67.953524 Z-0.249992
G01 X50.706557 Y67.956713 Z-0.249992
G01 X49.579361 Y68.024869 Z-0.249992
G01 X49.257797 Y67.793870 Z0.000000
G01 X49.579361 Y68.024869 Z-0.249992
G01 X49.608063 Y68.130928 Z-0.249992
G01 X49.859071 Y68.463894 Z-0.249992
G01 X50.144285 Y68.819438 Z-0.249992
G01 X50.525116 Y69.310702 Z-0.249992
G01 X51.389675 Y70.425960 Z-0.249992
G01 X52.636251 Y72.034034 Z-0.249992
G01 X53.003930 Y72.541582 Z-0.249992
G01 X53.831744 Y73.684356 Z-0.249992
G01 X55.021706 Y75.327002 Z-0.249992
G01 X55.402763 Y75.807937 Z-0.249992
G00 Z5.000000

G00 Z5.000000
G00 X55.949653 Y83.333082

G01 Z-0.249992 F100.0(Penetrate)
G01 X57.621057 Y85.607144 Z-0.249992 F400.000000
G01 X58.482005 Y86.778480 Z-0.249992
G01 X58.383114 Y87.066064 Z0.000000
G01 X58.482005 Y86.778480 Z-0.249992
G01 X59.256507 Y86.560294 Z-0.249992
G01 X60.104811 Y86.040638 Z-0.249992
G01 X61.000245 Y85.572262 Z-0.249992
G01 X61.012240 Y85.565376 Z-0.249992
G01 X62.249050 Y84.857252 Z-0.249992
G01 X62.277273 Y84.839726 Z-0.249992
G01 X63.477140 Y84.094462 Z-0.249992
G01 X63.469605 Y84.102928 Z-0.249992
G01 X64.423911 Y83.029101 Z-0.249992
G01 X64.856840 Y82.545795 Z-0.249992
G01 X65.158056 Y81.944944 Z-0.249992
G01 X64.894884 Y81.384451 Z-0.249992
G01 X64.530422 Y80.706412 Z-0.249992
G01 X63.690303 Y80.516110 Z-0.249992
G01 X62.897795 Y80.400963 Z-0.249992
G01 X62.715394 Y80.385751 Z-0.249992
G01 X61.138083 Y80.254151 Z-0.249992
G01 X60.958984 Y80.266428 Z-0.249992
G01 X59.369198 Y80.375281 Z-0.249992
G01 X59.198482 Y80.409401 Z-0.249992
G01 X57.613240 Y80.726083 Z-0.249992
G01 X57.328139 Y80.747616 Z-0.249992
G01 X56.712471 Y81.013837 Z-0.249992
G01 X56.437813 Y80.452610 Z-0.249992
G01 X56.651765 Y80.321094 Z0.000000
G01 X56.437813 Y80.452610 Z-0.249992
G01 X56.237576 Y80.187659 Z-0.249992
G01 X55.172187 Y78.778016 Z-0.249992
G01 X54.956231 Y78.493931 Z-0.249992
G01 X53.886241 Y77.086291 Z-0.249992
G01 X53.669918 Y76.802488 Z-0.249992
G01 X52.691171 Y75.518349 Z-0.249992
G01 X52.796948 Y75.244706 Z0.000000
G01 X52.691171 Y75.518349 Z-0.249992
G01 X51.895418 Y75.664681 Z-0.249992
G01 X50.960867 Y75.854306 Z-0.249992
G01 X50.384287 Y76.022511 Z-0.249992
G01 X49.973484 Y75.881964 Z0.000000
G01 X50.384287 Y76.022511 Z-0.249992
G01 X50.223364 Y75.967449 Z-0.152061
G01 X51.131160 Y77.052227 Z-0.249992
G01 X51.959680 Y78.194493 Z-0.249992
G01 X52.911672 Y79.506968 Z-0.249992
G01 X53.042933 Y79.671672 Z-0.249992
G01 X54.801742 Y81.878820 Z-0.249992
G01 X55.818984 Y83.155311 Z-0.249992
G01 X55.949653 Y83.333082 Z-0.249992
G00 Z5.000000

G00 Z5.000000
G00 X53.614998 Y85.350689

G01 Z-0.249992 F100.0(Penetrate)
G01 X53.614998 Y85.350689 Z-0.249992 F400.000000
G01 X53.706381 Y85.470521 Z-0.249992
G01 X55.417636 Y87.714724 Z-0.249992
G01 X56.363165 Y88.954723 Z-0.249992
G01 X56.452573 Y89.074583 Z-0.249992
G01 X58.139641 Y91.337046 Z-0.249992
G01 X59.070466 Y92.585343 Z-0.249992
G01 X59.158604 Y92.699333 Z-0.249992
G01 X60.885014 Y94.931908 Z-0.249992
G01 X61.696967 Y95.981944 Z-0.249992
G01 X61.639930 Y96.316857 Z0.000000
G01 X61.696967 Y95.981944 Z-0.249992
G01 X61.751097 Y95.946835 Z-0.249992
G01 X63.175304 Y95.023404 Z-0.249992
G01 X63.415277 Y94.844024 Z-0.249992
G01 X64.773641 Y93.828532 Z-0.249992
G01 X64.960190 Y93.626094 Z-0.249992
G01 X66.114197 Y92.374015 Z-0.249992
G01 X66.645000 Y91.731988 Z-0.249992
G01 X67.225531 Y91.060779 Z-0.249992
G01 X67.118484 Y90.294743 Z-0.249992
G01 X67.363340 Y90.240500 Z0.000000
G01 X67.118484 Y90.294743 Z-0.249992
G01 X66.976837 Y89.832265 Z-0.249992
G01 X66.674182 Y89.479375 Z-0.249992
G01 X65.834627 Y88.893933 Z-0.249992
G01 X65.348669 Y88.707694 Z-0.249992
G01 X64.856050 Y88.605417 Z-0.249992
G01 X63.844114 Y88.415256 Z-0.249992
G01 X62.833391 Y88.423751 Z-0.249992
G01 X62.507058 Y88.463036 Z-0.249992
G01 X60.779576 Y88.670921 Z-0.249992
G01 X59.764705 Y88.908495 Z-0.249992
G01 X58.609710 Y89.219504 Z-0.249992
G01 X58.264411 Y88.807545 Z-0.249992
G01 X57.105522 Y87.425051 Z-0.249992
G01 X56.888211 Y87.092480 Z-0.249992
G01 X55.915701 Y85.604068 Z-0.249992
G01 X55.680836 Y85.326841 Z-0.249992
G01 X54.608392 Y84.060877 Z-0.249992
G01 X54.714564 Y83.799455 Z0.000000
G01 X54.608392 Y84.060877 Z-0.249992
G01 X53.967409 Y84.122853 Z-0.249992
G01 X53.201937 Y84.192985 Z-0.249992
G01 X52.796694 Y84.248950 Z-0.249992
G01 X52.406748 Y84.050435 Z0.000000
G01 X52.796694 Y84.248950 Z-0.249992
G01 X52.898210 Y84.438490 Z-0.249992
G01 X53.242605 Y84.892050 Z-0.249992
G01 X53.614998 Y85.350689 Z-0.249992
G00 Z5.000000

G00 Z5.000000
G00 X65.885992 Y101.553857

G01 Z-0.249992 F100.0(Penetrate)
G01 X66.828473 Y102.781693 Z-0.249992 F400.000000
G01 X66.781003 Y103.130463 Z0.000000
G01 X66.828473 Y102.781693 Z-0.249992
G01 X66.821248 Y102.834695 Z-0.212005
G01 X68.084813 Y101.835233 Z-0.249992
G01 X68.247430 Y101.689550 Z-0.249992
G01 X69.445124 Y100.616710 Z-0.249992
G01 X69.546724 Y100.463181 Z-0.249992
G01 X70.444756 Y99.106624 Z-0.249992
G01 X70.910902 Y98.396948 Z-0.249992
G01 X71.230801 Y97.591090 Z-0.249992
G01 X71.032229 Y96.784273 Z-0.249992
G01 X70.918437 Y96.319171 Z-0.249992
G01 X70.520786 Y96.025773 Z-0.249992
G01 X70.031272 Y95.966535 Z-0.249992
G01 X69.127794 Y95.827851 Z-0.249992
G01 X68.227392 Y96.021963 Z-0.249992
G01 X67.334949 Y96.287760 Z-0.249992
G01 X67.243340 Y96.315248 Z-0.249992
G01 X65.814307 Y96.744141 Z-0.249992
G01 X65.735539 Y96.778516 Z-0.249992
G01 X64.358915 Y97.379198 Z-0.249992
G01 X64.283760 Y97.419499 Z-0.249992
G01 X63.210666 Y97.994781 Z-0.249992
G01 X62.837935 Y97.910961 Z0.000000
G01 X63.210666 Y97.994781 Z-0.249992
G01 X63.267901 Y98.072307 Z-0.249992
G01 X64.334052 Y99.515874 Z-0.249992
G01 X64.565700 Y99.820505 Z-0.249992
G01 X65.652227 Y101.249311 Z-0.249992
G01 X65.885992 Y101.553857 Z-0.249992
G00 Z5.000000

G00 Z5.000000
G00 X72.728582 Y107.544391

G01 Z-0.249992 F100.0(Penetrate)
G01 X73.718082 Y109.074487 Z-0.099681 F400.000000
G01 X73.673039 Y109.179361 Z0.000000
G01 X73.718082 Y109.074487 Z-0.099681
G01 X73.718082 Y109.074487 Z-0.099681
G01 X73.829475 Y109.023235 Z-0.135523
G01 X73.776248 Y108.929368 Z-0.234357
G01 X73.902429 Y109.151900 Z0.000000
G01 X73.776248 Y108.929368 Z-0.234357
G01 X73.839324 Y108.818963 Z-0.249992
G01 X74.816208 Y107.513629 Z-0.249992
G01 X74.943999 Y107.312884 Z-0.249992
G01 X75.819142 Y105.938151 Z-0.249992
G01 X75.887129 Y105.744039 Z-0.249992
G01 X76.429588 Y104.195401 Z-0.249992
G01 X76.665046 Y103.431566 Z-0.249992
G01 X76.821736 Y102.579989 Z-0.249992
G01 X76.330444 Y101.983315 Z-0.249992
G01 X76.078984 Y101.689098 Z-0.249992
G01 X75.768059 Y101.569436 Z-0.249992
G01 X74.975833 Y101.480310 Z-0.249992
G01 X74.560148 Y101.533283 Z-0.249992
G01 X74.173052 Y101.609737 Z-0.249992
G01 X74.023277 Y101.647668 Z-0.249992
G01 X72.530124 Y102.025761 Z-0.249992
G01 X72.403970 Y102.095075 Z-0.249992
G01 X71.022069 Y102.854422 Z-0.249992
G01 X70.900432 Y102.934912 Z-0.249992
G01 X69.811138 Y103.655651 Z-0.249992
G01 X69.455454 Y103.591219 Z0.000000
G01 X69.811138 Y103.655651 Z-0.249992
G01 X69.928599 Y103.817477 Z-0.249992
G01 X71.026331 Y105.329821 Z-0.249992
G01 X71.306182 Y105.694057 Z-0.249992
G01 X72.447658 Y107.179873 Z-0.249992
G01 X72.728582 Y107.544391 Z-0.249992
G00 Z5.000000

G00 Z5.000000
G00 X79.920395 Y110.804481

G01 Z-0.249992 F100.0(Penetrate)
G01 X80.832622 Y112.075130 Z-0.249992 F400.000000
G01 X81.021908 Y112.352526 Z-0.249992
G01 X81.234478 Y112.582368 Z-0.249992
G01 X81.250339 Y112.594080 Z-0.249992
G01 X81.351318 Y112.979285 Z0.000000
G01 X81.250339 Y112.594080 Z-0.249992
G01 X81.311553 Y112.827619 Z-0.098439
G01 X81.800983 Y111.368643 Z-0.249992
G01 X81.854379 Y111.245227 Z-0.249992
G01 X82.456867 Y109.852997 Z-0.249992
G01 X82.472841 Y109.758086 Z-0.249992
G01 X82.727264 Y108.247830 Z-0.249992
G01 X82.777133 Y107.825738 Z-0.249992
G01 X82.818874 Y107.374465 Z-0.249992
G01 X82.707339 Y106.527064 Z-0.249992
G01 X82.577291 Y106.191418 Z-0.249992
G01 X82.254711 Y105.916392 Z-0.249992
G01 X81.873034 Y105.554837 Z-0.249992
G01 X81.301167 Y105.738253 Z-0.249992
G01 X80.789244 Y105.975264 Z-0.249992
G01 X79.646893 Y106.547413 Z-0.249992
G01 X78.673932 Y107.400175 Z-0.249992
G01 X77.882214 Y108.138243 Z-0.249992
G01 X77.551393 Y108.104884 Z0.000000
G01 X77.882214 Y108.138243 Z-0.249992
G01 X77.778582 Y108.127801 Z-0.171676
G01 X78.744347 Y109.347226 Z-0.249992
G01 X78.835420 Y109.458902 Z-0.249992
G01 X79.828362 Y110.676296 Z-0.249992
G01 X79.920395 Y110.804481 Z-0.249992
G00 Z5.000000

G00 Z5.000000
G00 X88.588455 Y112.482687

G01 Z-0.249992 F100.0(Penetrate)
G01 X89.531699 Y113.761549 Z-0.249992 F400.000000
G01 X89.808079 Y114.146133 Z-0.249992
G01 X90.101618 Y114.501366 Z-0.249992
G01 X90.142427 Y114.540793 Z-0.249992
G01 X90.264855 Y115.006713 Z0.000000
G01 X90.142427 Y114.540793 Z-0.249992
G01 X90.254498 Y114.967259 Z-0.021167
G01 X90.439833 Y113.539327 Z-0.249992
G01 X90.441752 Y113.518979 Z-0.249992
G01 X90.577219 Y112.085234 Z-0.249992
G01 X90.576711 Y112.068949 Z-0.249992
G01 X90.530765 Y110.629814 Z-0.249992
G01 X90.484594 Y109.838942 Z-0.249992
G01 X90.363012 Y109.044289 Z-0.249992
G01 X89.836470 Y108.494605 Z-0.249992
G01 X89.505170 Y108.142194 Z-0.249992
G01 X88.996887 Y108.119136 Z-0.249992
G01 X88.510562 Y108.252430 Z-0.249992
G01 X87.651788 Y108.527089 Z-0.249992
G01 X86.985715 Y109.172982 Z-0.249992
G01 X86.478788 Y109.705874 Z-0.249992
G01 X86.157111 Y109.681321 Z0.000000
G01 X86.478788 Y109.705874 Z-0.249992
G01 X86.432814 Y109.702347 Z-0.214263
G01 X87.362454 Y110.975366 Z-0.249992
G01 X87.468033 Y111.103890 Z-0.249992
G01 X88.479856 Y112.335452 Z-0.249992
G01 X88.588455 Y112.482687 Z-0.249992
G00 Z5.000000

G00 Z5.000000
G00 X98.169505 Y112.568821

G01 Z-0.249992 F100.0(Penetrate)
G01 X98.881608 Y113.449072 Z-0.249992 F400.000000
G01 X99.461405 Y114.408967 Z-0.249992
G01 X99.747353 Y114.698442 Z-0.249992
G01 X100.054890 Y115.365531 Z0.000000
G01 X99.747353 Y114.698442 Z-0.249992
G01 X100.012867 Y115.274401 Z-0.034149
G01 X99.671125 Y113.800157 Z-0.249992
G01 X99.655997 Y113.696976 Z-0.249992
G01 X99.439646 Y112.221829 Z-0.249992
G01 X99.413766 Y112.160813 Z-0.249992
G01 X98.826010 Y110.774029 Z-0.249992
G01 X98.524653 Y110.111823 Z-0.249992
G01 X98.135779 Y109.442110 Z-0.249992
G01 X97.439763 Y109.368675 Z-0.249992
G01 X96.906532 Y109.292250 Z-0.249992
G01 X96.437225 Y109.635291 Z-0.249992
G01 X96.128248 Y109.807841 Z-0.249992
G01 X95.782413 Y109.714652 Z0.000000
G01 X96.128248 Y109.807841 Z-0.249992
G01 X96.618355 Y110.634781 Z-0.249992
G01 X97.442359 Y111.555954 Z-0.249992
G01 X98.169505 Y112.568821 Z-0.249992
G00 Z5.000000

G00 Z5.000000
G00 X85.098524 Y92.778581

G01 Z-0.249992 F100.0(Penetrate)
G01 X86.523407 Y93.698597 Z-0.249992 F400.000000
G01 X86.552871 Y93.717365 Z-0.249992
G01 X87.743285 Y94.475103 Z-0.249992
G01 X88.947724 Y95.241816 Z-0.249992
G01 X88.970895 Y95.252004 Z-0.249992
G01 X90.262598 Y95.820146 Z-0.249992
G01 X91.579870 Y96.399548 Z-0.249992
G01 X91.628948 Y96.413829 Z-0.249992
G01 X95.693739 Y97.596509 Z-0.249992
G01 X97.097766 Y98.005054 Z-0.249992
G01 X97.129177 Y98.009852 Z-0.249992
G01 X98.523948 Y98.223889 Z-0.249992
G01 X99.951569 Y98.442922 Z-0.249992
G01 X99.966978 Y98.443430 Z-0.249992
G01 X101.377327 Y98.489996 Z-0.249992
G01 X102.818467 Y98.537551 Z-0.249992
G01 X102.820809 Y98.537635 Z-0.249992
G01 X104.230961 Y98.589790 Z-0.249992
G01 X105.629767 Y98.641493 Z-0.249992
G01 X106.319405 Y98.594249 Z-0.249992
G01 X108.418179 Y98.450429 Z-0.249992
G01 X109.087046 Y98.340193 Z-0.249992
G01 X111.871704 Y97.881243 Z-0.249992
G01 X113.932858 Y97.541504 Z-0.249992
G01 X114.601583 Y97.364805 Z-0.249992
G01 X116.635644 Y96.827284 Z-0.249992
G01 X117.279816 Y96.596031 Z-0.249992
G01 X119.936063 Y95.642431 Z-0.249992
G01 X121.908401 Y94.934363 Z-0.249992
G01 X121.900556 Y94.937976 Z-0.249992
G01 X123.182776 Y94.348780 Z-0.249992
G01 X124.457828 Y93.762859 Z-0.249992
G01 X125.058989 Y93.425914 Z-0.249992
G01 X127.520898 Y92.046073 Z-0.249992
G01 X129.353000 Y91.019207 Z-0.249992
G01 X129.345098 Y91.024513 Z-0.249992
G01 X130.516828 Y90.238185 Z-0.249992
G01 X131.680939 Y89.456938 Z-0.249992
G01 X132.218882 Y89.032109 Z-0.249992
G01 X133.869600 Y87.728468 Z-0.249992
G01 X134.085782 Y87.549567 Z-0.249992
G01 X134.287656 Y87.347665 Z-0.249992
G01 X134.345173 Y87.290713 Z-0.249992
G01 X134.673821 Y87.317016 Z0.000000
G01 X134.345173 Y87.290713 Z-0.249992
G01 X134.321974 Y87.258907 Z-0.249992
G01 X133.343679 Y85.917758 Z-0.249992
G01 X133.188852 Y85.723618 Z-0.249992
G01 X132.148242 Y84.418566 Z-0.249992
G01 X131.994403 Y84.211160 Z-0.249992
G01 X131.138507 Y83.057238 Z-0.249992
G01 X131.203306 Y82.724950 Z0.000000
G01 X131.138507 Y83.057238 Z-0.249992
G01 X131.125187 Y83.065366 Z-0.249992
G01 X130.925430 Y83.181106 Z-0.249992
G01 X130.748222 Y83.313101 Z-0.249992
G01 X130.448051 Y83.553018 Z-0.249992
G01 X129.345691 Y84.433947 Z-0.249992
G01 X127.930036 Y85.565291 Z-0.249992
G01 X127.583213 Y85.789516 Z-0.249992
G01 X126.398218 Y86.555665 Z-0.249992
G01 X124.865893 Y87.546350 Z-0.249992
G01 X124.788338 Y87.585663 Z-0.249992
G01 X119.753381 Y90.136924 Z-0.249992
G01 X118.417087 Y90.814060 Z-0.249992
G01 X118.032079 Y90.960731 Z-0.249992
G01 X116.713424 Y91.463086 Z-0.249992
G01 X115.008661 Y92.112536 Z-0.249992
G01 X114.616118 Y92.212584 Z-0.249992
G01 X113.248723 Y92.561157 Z-0.249992
G01 X111.502304 Y93.006334 Z-0.249992
G01 X110.904331 Y93.156815 Z-0.249992
G01 X108.928578 Y93.653949 Z-0.249992
G01 X108.301791 Y93.759387 Z-0.249992
G01 X106.281588 Y94.099239 Z-0.249992
G01 X105.739834 Y94.138158 Z-0.249992
G01 X102.924865 Y94.340342 Z-0.249992
G01 X100.975612 Y94.480352 Z-0.249992
G01 X100.340669 Y94.465479 Z-0.249992
G01 X98.292667 Y94.417473 Z-0.249992
G01 X97.664271 Y94.330690 Z-0.249992
G01 X95.652675 Y94.052870 Z-0.249992
G01 X95.009942 Y93.966990 Z-0.249992
G01 X92.953558 Y93.692190 Z-0.249992
G01 X92.295106 Y93.524748 Z-0.249992
G01 X90.267452 Y93.009156 Z-0.249992
G01 X89.697222 Y92.782391 Z-0.249992
G01 X87.074757 Y91.739523 Z-0.249992
G01 X85.193266 Y90.991295 Z-0.249992
G01 X84.601558 Y90.661632 Z-0.249992
G01 X82.774734 Y89.643769 Z-0.249992
G01 X82.242886 Y89.230596 Z-0.249992
G01 X80.614577 Y87.965732 Z-0.249992
G01 X79.650816 Y87.261362 Z-0.249992
G01 X78.863670 Y86.378486 Z-0.229588
G01 X78.863670 Y86.378486 Z-0.229588
G01 X78.078810 Y85.505290 Z0.000000
G01 X78.863670 Y86.378486 Z-0.229588
G01 X78.275801 Y85.724436 Z-0.057630
G01 X79.299788 Y87.073769 Z-0.249992
G01 X79.471916 Y87.289951 Z-0.249992
G01 X80.524802 Y88.612388 Z-0.249992
G01 X80.923159 Y89.009926 Z-0.249992
G01 X81.922028 Y90.006679 Z-0.249992
G01 X83.319282 Y91.401026 Z-0.249992
G01 X83.540403 Y91.576455 Z-0.249992
G01 X84.868654 Y92.630160 Z-0.249992
G01 X85.098524 Y92.778581 Z-0.249992
G00 Z5.000000

G00 Z5.000000
G00 X96.472559 Y72.373349

G01 Z-0.249992 F100.0(Penetrate)
G01 X96.459549 Y75.195543 Z-0.249992 F400.000000
G01 X96.451195 Y77.010063 Z-0.249992
G01 X96.200045 Y77.254467 Z0.000000
G01 X96.451195 Y77.010063 Z-0.249992
G01 X96.492935 Y77.010994 Z-0.249992
G01 X97.903680 Y77.042772 Z-0.249992
G01 X99.597211 Y77.080901 Z-0.249992
G01 X99.881719 Y77.077147 Z-0.249992
G01 X101.292717 Y77.058408 Z-0.249992
G01 X102.997875 Y77.035802 Z-0.249992
G01 X103.283456 Y77.035350 Z-0.249992
G01 X104.694567 Y77.032895 Z-0.249992
G01 X106.155999 Y77.030383 Z-0.249992
G01 X106.393968 Y77.279952 Z0.000000
G01 X106.155999 Y77.030383 Z-0.249992
G01 X106.169461 Y76.758123 Z-0.249992
G01 X106.169461 Y76.252832 Z-0.249992
G01 X106.155886 Y75.977948 Z-0.249992
G01 X106.393968 Y75.730975 Z0.000000
G01 X106.155886 Y75.977948 Z-0.249992
G01 X105.716889 Y75.972332 Z-0.249992
G01 X103.635641 Y75.945690 Z-0.249992
G01 X102.964376 Y75.956668 Z-0.249992
G01 X100.875282 Y75.990789 Z-0.249992
G01 X100.198118 Y75.984044 Z-0.249992
G01 X97.866201 Y75.960874 Z-0.249992
G01 X97.865156 Y75.448810 Z-0.249992
G01 X97.861798 Y73.774978 Z-0.249992
G01 X97.856464 Y73.512088 Z-0.249992
G01 X97.822484 Y71.829140 Z-0.249992
G01 X97.832080 Y71.557727 Z-0.249992
G01 X97.899898 Y69.641523 Z-0.249992
G01 X98.777157 Y69.642793 Z-0.249992
G01 X100.825950 Y69.645784 Z-0.249992
G01 X101.463772 Y69.657440 Z-0.249992
G01 X103.504690 Y69.694750 Z-0.249992
G01 X104.133905 Y69.677704 Z-0.249992
G01 X105.952065 Y69.628512 Z-0.249992
G01 X106.186140 Y69.872268 Z0.000000
G01 X105.952065 Y69.628512 Z-0.249992
G01 X105.971425 Y69.342254 Z-0.249992
G01 X105.971425 Y68.838488 Z-0.249992
G01 X105.945856 Y68.556237 Z-0.249992
G01 X106.174371 Y68.307571 Z0.000000
G01 X105.945856 Y68.556237 Z-0.249992
G01 X105.536323 Y68.553867 Z-0.249992
G01 X103.491821 Y68.541900 Z-0.249992
G01 X102.856341 Y68.554431 Z-0.249992
G01 X100.802187 Y68.594874 Z-0.249992
G01 X100.159708 Y68.580819 Z-0.249992
G01 X97.870631 Y68.530668 Z-0.249992
G01 X97.860669 Y67.718150 Z-0.249992
G01 X97.836257 Y65.732547 Z-0.249992
G01 X97.845965 Y65.157915 Z-0.249992
G01 X97.879409 Y63.179565 Z-0.249992
G01 X97.872861 Y62.611198 Z-0.249992
G01 X97.852795 Y60.869322 Z-0.249992
G01 X98.100022 Y60.625369 Z0.000000
G01 X97.852795 Y60.869322 Z-0.249992
G01 X97.465530 Y60.859727 Z-0.249992
G01 X96.843032 Y60.869379 Z-0.249992
G01 X96.451054 Y60.893650 Z-0.249992
G01 X96.200045 Y60.658728 Z0.000000
G01 X96.451054 Y60.893650 Z-0.249992
G01 X96.452803 Y61.307613 Z-0.249992
G01 X96.464826 Y64.129807 Z-0.249992
G01 X96.473603 Y66.191356 Z-0.249992
G01 X96.473829 Y66.840806 Z-0.249992
G01 X96.474817 Y69.663028 Z-0.249992
G01 X96.475551 Y71.723730 Z-0.249992
G01 X96.472559 Y72.373349 Z-0.249992
G00 Z5.000000

G00 Z5.000000
G00 X108.939698 Y72.392145

G01 Z-0.249992 F100.0(Penetrate)
G01 X108.946668 Y75.214368 Z-0.249992 F400.000000
G01 X108.951184 Y77.041474 Z-0.249992
G01 X108.701784 Y77.285850 Z0.000000
G01 X108.951184 Y77.041474 Z-0.249992
G01 X109.304216 Y77.049546 Z-0.249992
G01 X109.898068 Y77.047627 Z-0.249992
G01 X110.255756 Y77.038285 Z-0.249992
G01 X110.501741 Y77.281928 Z0.000000
G01 X110.255756 Y77.038285 Z-0.249992
G01 X110.257845 Y76.912837 Z-0.249992
G01 X110.304665 Y74.090982 Z-0.249992
G01 X110.334045 Y72.319163 Z-0.249992
G01 X110.328316 Y71.956338 Z-0.249992
G01 X110.283781 Y69.134454 Z-0.249992
G01 X110.255643 Y67.353773 Z-0.249992
G01 X110.258268 Y66.985219 Z-0.249992
G01 X110.278334 Y64.163081 Z-0.249992
G01 X110.290978 Y62.385956 Z-0.249992
G01 X110.296791 Y61.806300 Z-0.249992
G01 X110.279350 Y61.227124 Z-0.249992
G01 X110.262925 Y60.875870 Z-0.249992
G01 X110.501741 Y60.631268 Z0.000000
G01 X110.262925 Y60.875870 Z-0.249992
G01 X109.898491 Y60.867544 Z-0.249992
G01 X109.303792 Y60.865569 Z-0.249992
G01 X108.951269 Y60.872483 Z-0.249992
G01 X108.701784 Y60.627345 Z0.000000
G01 X108.951269 Y60.872483 Z-0.249992
G01 X108.950366 Y61.287632 Z-0.249992
G01 X108.944382 Y64.109826 Z-0.249992
G01 X108.940008 Y66.180491 Z-0.249992
G01 X108.939782 Y66.840016 Z-0.249992
G01 X108.938794 Y69.662238 Z-0.249992
G01 X108.938061 Y71.732733 Z-0.249992
G01 X108.939698 Y72.392145 Z-0.249992
G00 Z5.000000

G00 Z5.000000
G00 X114.237376 Y72.389323

G01 Z-0.249992 F100.0(Penetrate)
G01 X114.243359 Y75.211517 Z-0.249992 F400.000000
G01 X114.247225 Y77.037100 Z-0.249992
G01 X113.997741 Y77.281956 Z0.000000
G01 X114.247225 Y77.037100 Z-0.249992
G01 X115.034625 Y77.053497 Z-0.249992
G01 X116.060588 Y77.061314 Z-0.249992
G01 X116.954668 Y77.027391 Z-0.249992
G01 X117.097698 Y77.272134 Z0.000000
G01 X116.954668 Y77.027391 Z-0.249992
G01 X117.170568 Y76.676025 Z-0.249992
G01 X118.648198 Y74.271548 Z-0.249992
G01 X119.672863 Y72.604094 Z-0.249992
G01 X119.959092 Y72.138145 Z-0.249992
G01 X121.436244 Y69.733358 Z-0.249992
G01 X122.460710 Y68.065509 Z-0.249992
G01 X122.743751 Y67.599617 Z-0.249992
G01 X124.209049 Y65.187576 Z-0.249992
G01 X125.223017 Y63.518486 Z-0.249992
G01 X125.487346 Y63.050985 Z-0.249992
G01 X125.788647 Y62.582750 Z-0.249992
G01 X126.570600 Y61.613288 Z-0.249992
G01 X126.580336 Y62.689797 Z-0.249992
G01 X126.605849 Y65.511906 Z-0.249992
G01 X126.622049 Y67.303848 Z-0.249992
G01 X126.618126 Y67.686711 Z-0.249992
G01 X126.589339 Y70.508764 Z-0.249992
G01 X126.571079 Y72.298250 Z-0.249992
G01 X126.573281 Y72.674678 Z-0.249992
G01 X126.589932 Y75.496844 Z-0.249992
G01 X126.599048 Y77.044663 Z-0.249992
G01 X126.350466 Y77.287826 Z0.000000
G01 X126.599048 Y77.044663 Z-0.249992
G01 X126.983406 Y77.055416 Z-0.249992
G01 X127.607033 Y77.045792 Z-0.249992
G01 X127.997543 Y77.020308 Z-0.249992
G01 X128.248467 Y77.254496 Z0.000000
G01 X127.997543 Y77.020308 Z-0.249992
G01 X127.995935 Y76.606485 Z-0.249992
G01 X127.984928 Y73.784291 Z-0.249992
G01 X127.976913 Y71.723758 Z-0.249992
G01 X127.976687 Y71.074337 Z-0.249992
G01 X127.975671 Y68.252115 Z-0.249992
G01 X127.974937 Y66.191469 Z-0.249992
G01 X127.977703 Y65.541906 Z-0.249992
G01 X127.989698 Y62.719712 Z-0.249992
G01 X127.997459 Y60.896641 Z-0.249992
G01 X128.248467 Y60.660675 Z0.000000
G01 X127.997459 Y60.896641 Z-0.249992
G01 X127.220219 Y60.851881 Z-0.249992
G01 X126.209440 Y60.855776 Z-0.249992
G01 X125.324645 Y60.881260 Z-0.249992
G01 X125.183816 Y60.635191 Z0.000000
G01 X125.324645 Y60.881260 Z-0.249992
G01 X125.283469 Y60.946962 Z-0.249992
G01 X123.784728 Y63.338315 Z-0.249992
G01 X122.924063 Y64.711552 Z-0.249992
G01 X122.814645 Y64.891525 Z-0.249992
G01 X121.348670 Y67.303142 Z-0.249992
G01 X120.504967 Y68.691083 Z-0.249992
G01 X120.393856 Y68.871310 Z-0.249992
G01 X118.912754 Y71.273670 Z-0.249992
G01 X118.060076 Y72.656700 Z-0.249992
G01 X117.418246 Y73.649502 Z-0.249992
G01 X116.891534 Y74.748447 Z-0.249992
G01 X115.738882 Y76.208270 Z-0.249992
G01 X115.646257 Y75.106051 Z-0.249992
G01 X115.624159 Y74.626442 Z-0.249992
G01 X115.626163 Y74.151349 Z-0.249992
G01 X115.626897 Y74.018818 Z-0.249992
G01 X115.642899 Y71.196652 Z-0.249992
G01 X115.651648 Y69.655070 Z-0.249992
G01 X115.650434 Y69.524514 Z-0.249992
G01 X115.624611 Y66.702432 Z-0.249992
G01 X115.610443 Y65.156786 Z-0.249992
G01 X115.611572 Y65.023210 Z-0.249992
G01 X115.634940 Y62.201073 Z-0.249992
G01 X115.645777 Y60.894835 Z-0.249992
G01 X115.897717 Y60.660675 Z0.000000
G01 X115.645777 Y60.894835 Z-0.249992
G01 X115.254730 Y60.869407 Z-0.249992
G01 X114.632233 Y60.861702 Z-0.249992
G01 X114.247140 Y60.870056 Z-0.249992
G01 X113.997741 Y60.625398 Z0.000000
G01 X114.247140 Y60.870056 Z-0.249992
G01 X114.246124 Y61.285769 Z-0.249992
G01 X114.239154 Y64.107992 Z-0.249992
G01 X114.234045 Y66.178487 Z-0.249992
G01 X114.234271 Y66.837899 Z-0.249992
G01 X114.235259 Y69.660121 Z-0.249992
G01 X114.235993 Y71.730758 Z-0.249992
G01 X114.237376 Y72.389323 Z-0.249992
G00 Z5.000000

G00 Z5.000000
G00 X132.250548 Y75.732697

G01 Z-0.249992 F100.0(Penetrate)
G01 X132.692733 Y76.249954 Z-0.249992 F400.000000
G01 X133.263782 Y76.552270 Z-0.249992
G01 X133.255259 Y76.549589 Z-0.249992
G01 X134.593641 Y76.970693 Z-0.249992
G01 X135.309865 Y77.064278 Z-0.249992
G01 X135.989428 Y77.146207 Z-0.249992
G01 X136.243484 Y77.155436 Z-0.249992
G01 X137.918473 Y77.216424 Z-0.249992
G01 X138.195135 Y77.227205 Z-0.249992
G01 X139.856352 Y77.291918 Z-0.249992
G01 X140.095930 Y77.252802 Z-0.249992
G01 X141.749499 Y76.982828 Z-0.249992
G01 X142.597407 Y76.819478 Z-0.249992
G01 X143.476586 Y76.624096 Z-0.249992
G01 X143.901471 Y75.907872 Z-0.249992
G01 X144.497948 Y74.890884 Z-0.249992
G01 X144.494223 Y73.660452 Z-0.249992
G01 X144.481777 Y72.698300 Z-0.249992
G01 X144.728552 Y72.446727 Z0.000000
G01 X144.481777 Y72.698300 Z-0.249992
G01 X144.116017 Y72.700642 Z-0.249992
G01 X143.504272 Y72.702590 Z-0.249992
G01 X143.130412 Y72.704989 Z-0.249992
G01 X142.891313 Y72.456520 Z0.000000
G01 X143.130412 Y72.704989 Z-0.249992
G01 X143.119941 Y72.938358 Z-0.249992
G01 X143.138004 Y73.482398 Z-0.249992
G01 X142.987946 Y74.531728 Z-0.249992
G01 X142.799337 Y75.084376 Z-0.249992
G01 X142.354555 Y75.508471 Z-0.249992
G01 X141.148111 Y76.214874 Z-0.249992
G01 X139.735137 Y76.081580 Z-0.249992
G01 X138.506793 Y76.145729 Z-0.249992
G01 X138.427404 Y76.145108 Z-0.249992
G01 X136.956660 Y76.133989 Z-0.249992
G01 X136.835248 Y76.144939 Z-0.249992
G01 X135.222602 Y76.290509 Z-0.249992
G01 X135.069468 Y76.209737 Z-0.249992
G01 X133.721575 Y75.498650 Z-0.249992
G01 X133.222126 Y75.160802 Z-0.249992
G01 X132.963243 Y74.636630 Z-0.249992
G01 X132.700297 Y73.617780 Z-0.249992
G01 X132.667023 Y73.073684 Z-0.249992
G01 X132.604793 Y72.602542 Z-0.249992
G01 X132.585545 Y72.019979 Z-0.249992
G01 X132.519985 Y70.036634 Z-0.249992
G01 X132.513353 Y69.460082 Z-0.249992
G01 X132.490465 Y67.467678 Z-0.249992
G01 X132.518433 Y66.890449 Z-0.249992
G01 X132.614812 Y64.901629 Z-0.249992
G01 X132.672385 Y64.444062 Z-0.249992
G01 X132.758689 Y63.898555 Z-0.249992
G01 X133.158767 Y62.955594 Z-0.249992
G01 X133.519052 Y62.499212 Z-0.249992
G01 X134.071841 Y62.308232 Z-0.249992
G01 X134.345991 Y62.216651 Z-0.249992
G01 X136.004075 Y61.662818 Z-0.249992
G01 X136.360973 Y61.686666 Z-0.249992
G01 X138.070873 Y61.800994 Z-0.249992
G01 X138.338025 Y61.806357 Z-0.249992
G01 X140.034491 Y61.840336 Z-0.249992
G01 X140.517965 Y61.899151 Z-0.249992
G01 X141.106568 Y61.948907 Z-0.249992
G01 X142.149182 Y62.303039 Z-0.249992
G01 X142.663814 Y62.654378 Z-0.249992
G01 X142.880504 Y63.272614 Z-0.249992
G01 X143.260347 Y64.581927 Z-0.249992
G01 X143.282614 Y65.976190 Z-0.249992
G01 X143.186292 Y67.512636 Z-0.249992
G01 X142.784153 Y67.551075 Z-0.249992
G01 X141.167980 Y67.705591 Z-0.249992
G01 X140.951628 Y67.688573 Z-0.249992
G01 X139.362745 Y67.563690 Z-0.249992
G01 X139.185594 Y67.567585 Z-0.249992
G01 X137.830617 Y67.597246 Z-0.249992
G01 X137.579637 Y67.352701 Z0.000000
G01 X137.830617 Y67.597246 Z-0.249992
G01 X137.831633 Y67.850710 Z-0.249992
G01 X137.829658 Y68.351711 Z-0.249992
G01 X137.828557 Y68.629643 Z-0.249992
G01 X137.577661 Y68.848732 Z0.000000
G01 X137.828557 Y68.629643 Z-0.249992
G01 X138.670511 Y68.740585 Z-0.249992
G01 X139.752184 Y68.655438 Z-0.249992
G01 X140.853020 Y68.673218 Z-0.249992
G01 X142.157818 Y68.661450 Z-0.249992
G01 X143.456068 Y68.712193 Z-0.249992
G01 X144.516010 Y68.654733 Z-0.249992
G01 X144.759878 Y68.891884 Z0.000000
G01 X144.516010 Y68.654733 Z-0.249992
G01 X144.516038 Y68.653406 Z-0.249992
G01 X144.558908 Y67.013752 Z-0.249992
G01 X144.559642 Y66.777108 Z-0.249992
G01 X144.564722 Y65.150238 Z-0.249992
G01 X144.525493 Y64.942438 Z-0.249992
G01 X144.220947 Y63.329058 Z-0.249992
G01 X144.092536 Y62.761763 Z-0.249992
G01 X143.929919 Y62.224441 Z-0.249992
G01 X143.572908 Y61.807006 Z-0.249992
G01 X143.211833 Y61.414858 Z-0.249992
G01 X142.680267 Y61.250351 Z-0.249992
G01 X142.119210 Y61.107207 Z-0.249992
G01 X141.916207 Y61.058016 Z-0.249992
G01 X140.377870 Y60.685285 Z-0.249992
G01 X140.196768 Y60.697788 Z-0.249992
G01 X138.559964 Y60.810733 Z-0.249992
G01 X138.349229 Y60.809350 Z-0.249992
G01 X136.741804 Y60.798936 Z-0.249992
G01 X136.009607 Y60.823207 Z-0.249992
G01 X135.258585 Y60.860432 Z-0.249992
G01 X135.227992 Y60.866444 Z-0.249992
G01 X133.813043 Y61.143614 Z-0.249992
G01 X133.154675 Y61.377153 Z-0.249992
G01 X132.574849 Y61.801446 Z-0.249992
G01 X131.785869 Y62.484621 Z-0.249992
G01 X131.576968 Y63.599992 Z-0.249992
G01 X131.402103 Y64.662728 Z-0.249992
G01 X131.361576 Y65.045111 Z-0.249992
G01 X131.173277 Y66.821191 Z-0.249992
G01 X131.184058 Y67.200103 Z-0.249992
G01 X131.235620 Y69.009543 Z-0.249992
G01 X131.236693 Y69.403271 Z-0.249992
G01 X131.241519 Y71.201986 Z-0.249992
G01 X131.262036 Y71.996216 Z-0.249992
G01 X131.282638 Y72.813418 Z-0.249992
G01 X131.298189 Y72.903814 Z-0.249992
G01 X131.552866 Y74.384408 Z-0.249992
G01 X131.790102 Y75.101563 Z-0.249992
G01 X132.250548 Y75.732697 Z-0.249992
G00 Z5.000000

G00 Z5.000000
G00 X146.944956 Y72.389408

G01 Z-0.249992 F100.0(Penetrate)
G01 X146.960930 Y75.211574 Z-0.249992 F400.000000
G01 X146.971231 Y77.033149 Z-0.249992
G01 X146.722621 Y77.281928 Z0.000000
G01 X146.971231 Y77.033149 Z-0.249992
G01 X147.087252 Y77.033713 Z-0.249992
G01 X148.498335 Y77.040740 Z-0.249992
G01 X150.272186 Y77.049574 Z-0.249992
G01 X150.635914 Y77.049574 Z-0.249992
G01 X152.047026 Y77.049574 Z-0.249992
G01 X153.823191 Y77.049574 Z-0.249992
G01 X154.185480 Y77.047570 Z-0.249992
G01 X155.596563 Y77.039753 Z-0.249992
G01 X157.135379 Y77.031258 Z-0.249992
G01 X157.373406 Y77.279952 Z0.000000
G01 X157.135379 Y77.031258 Z-0.249992
G01 X157.148870 Y76.758575 Z-0.249992
G01 X157.146950 Y76.255231 Z-0.249992
G01 X157.133234 Y75.976565 Z-0.249992
G01 X157.371430 Y75.730947 Z0.000000
G01 X157.133234 Y75.976565 Z-0.249992
G01 X157.312530 Y75.791681 Z-0.061807
G01 X155.898145 Y75.953479 Z-0.249992
G01 X154.436291 Y75.926132 Z-0.249992
G01 X154.382725 Y75.928023 Z-0.249992
G01 X152.972489 Y75.977863 Z-0.249992
G01 X151.493334 Y76.030131 Z-0.249992
G01 X151.426475 Y76.027901 Z-0.249992
G01 X150.016154 Y75.980827 Z-0.249992
G01 X148.302332 Y75.923620 Z-0.249992
G01 X148.309303 Y75.449459 Z-0.249992
G01 X148.333376 Y73.811526 Z-0.249992
G01 X148.333376 Y73.583631 Z-0.249992
G01 X148.333376 Y71.944626 Z-0.249992
G01 X148.330018 Y71.717662 Z-0.249992
G01 X148.302360 Y69.834337 Z-0.249992
G01 X148.553397 Y69.824092 Z-0.249992
G01 X149.963322 Y69.766576 Z-0.249992
G01 X151.392863 Y69.708240 Z-0.249992
G01 X151.417275 Y69.709567 Z-0.249992
G01 X152.826298 Y69.786331 Z-0.249992
G01 X154.235856 Y69.863152 Z-0.249992
G01 X154.231595 Y69.863321 Z-0.249992
G01 X155.641492 Y69.804817 Z-0.249992
G01 X156.817569 Y69.756020 Z-0.249992
G01 X157.069480 Y69.995768 Z0.000000
G01 X156.817569 Y69.756020 Z-0.249992
G01 X156.815537 Y69.500694 Z-0.249992
G01 X156.815537 Y69.000681 Z-0.249992
G01 X156.817569 Y68.745213 Z-0.249992
G01 X157.069480 Y68.505607 Z0.000000
G01 X156.817569 Y68.745213 Z-0.249992
G01 X157.060336 Y68.514299 Z-0.009059
G01 X155.640335 Y68.695599 Z-0.249992
G01 X154.233909 Y68.636304 Z-0.249992
G01 X154.234445 Y68.636276 Z-0.249992
G01 X152.825479 Y68.714056 Z-0.249992
G01 X151.392947 Y68.793135 Z-0.249992
G01 X151.372289 Y68.792316 Z-0.249992
G01 X149.962363 Y68.734828 Z-0.249992
G01 X148.300272 Y68.667038 Z-0.249992
G01 X148.308908 Y68.098473 Z-0.249992
G01 X148.335324 Y66.364895 Z-0.249992
G01 X148.334392 Y66.041355 Z-0.249992
G01 X148.329425 Y64.305378 Z-0.249992
G01 X148.326038 Y63.981500 Z-0.249992
G01 X148.305295 Y61.998493 Z-0.249992
G01 X148.610180 Y61.991777 Z-0.249992
G01 X150.020952 Y61.960704 Z-0.249992
G01 X151.496325 Y61.928192 Z-0.249992
G01 X151.562252 Y61.930309 Z-0.249992
G01 X152.972658 Y61.975464 Z-0.249992
G01 X154.434964 Y62.022285 Z-0.249992
G01 X154.485680 Y62.020958 Z-0.249992
G01 X155.896311 Y61.984241 Z-0.249992
G01 X157.133093 Y61.952040 Z-0.249992
G01 X157.371430 Y62.195936 Z0.000000
G01 X157.133093 Y61.952040 Z-0.249992
G01 X157.146922 Y61.669733 Z-0.249992
G01 X157.148870 Y61.160435 Z-0.249992
G01 X157.135295 Y60.883744 Z-0.249992
G01 X157.373406 Y60.635163 Z0.000000
G01 X157.135295 Y60.883744 Z-0.249992
G01 X157.007504 Y60.882954 Z-0.249992
G01 X155.596422 Y60.874374 Z-0.249992
G01 X153.823050 Y60.863621 Z-0.249992
G01 X153.459548 Y60.864214 Z-0.249992
G01 X152.048437 Y60.866557 Z-0.249992
G01 X150.274162 Y60.869492 Z-0.249992
G01 X149.910011 Y60.870677 Z-0.249992
G01 X148.498900 Y60.875362 Z-0.249992
G01 X146.971146 Y60.880414 Z-0.249992
G01 X146.722621 Y60.631240 Z0.000000
G01 X146.971146 Y60.880414 Z-0.249992
G01 X146.968662 Y61.291555 Z-0.249992
G01 X146.951729 Y64.113721 Z-0.249992
G01 X146.939283 Y66.182833 Z-0.249992
G01 X146.939537 Y66.840806 Z-0.249992
G01 X146.940525 Y69.663028 Z-0.249992
G01 X146.941259 Y71.732253 Z-0.249992
G01 X146.944956 Y72.389408 Z-0.249992
G00 Z5.000000

G00 Z5.000000
G00 X160.314697 Y72.390367

G01 Z-0.249992 F100.0(Penetrate)
G01 X160.319693 Y75.212590 Z-0.249992 F400.000000
G01 X160.322910 Y77.035717 Z-0.249992
G01 X160.073341 Y77.283903 Z0.000000
G01 X160.322910 Y77.035717 Z-0.249992
G01 X160.708821 Y77.038539 Z-0.249992
G01 X162.751827 Y77.053497 Z-0.249992
G01 X163.382763 Y77.049348 Z-0.249992
G01 X165.428705 Y77.035858 Z-0.249992
G01 X166.062322 Y77.037241 Z-0.249992
G01 X168.107756 Y77.041728 Z-0.249992
G01 X168.752803 Y77.033967 Z-0.249992
G01 X169.421190 Y76.995895 Z-0.249992
G01 X170.684784 Y76.685084 Z-0.249992
G01 X171.233847 Y76.431874 Z-0.249992
G01 X171.684697 Y75.973743 Z-0.249992
G01 X172.094597 Y75.533843 Z-0.249992
G01 X172.316677 Y75.011986 Z-0.249992
G01 X172.588768 Y73.818101 Z-0.249992
G01 X172.621280 Y73.189423 Z-0.249992
G01 X172.634826 Y72.581714 Z-0.249992
G01 X172.613321 Y71.498884 Z-0.249992
G01 X172.607761 Y70.403071 Z-0.249992
G01 X172.079526 Y69.495670 Z-0.249992
G01 X171.670558 Y68.815769 Z-0.249992
G01 X170.831906 Y68.623576 Z-0.249992
G01 X169.088224 Y68.207608 Z-0.249992
G01 X170.694041 Y67.749477 Z-0.249992
G01 X171.372475 Y67.598714 Z-0.249992
G01 X171.781527 Y67.074768 Z-0.249992
G01 X172.361551 Y66.397773 Z-0.249992
G01 X172.393724 Y65.461388 Z-0.249992
G01 X172.399566 Y64.541146 Z-0.249992
G01 X172.389773 Y63.235219 Z-0.249992
G01 X172.419096 Y61.934316 Z-0.249992
G01 X172.385624 Y60.873894 Z-0.249992
G01 X172.628025 Y60.629292 Z0.000000
G01 X172.385624 Y60.873894 Z-0.249992
G01 X172.017381 Y60.865597 Z-0.249992
G01 X171.417969 Y60.865597 Z-0.249992
G01 X171.045887 Y60.876463 Z-0.249992
G01 X170.810401 Y60.633215 Z0.000000
G01 X171.045887 Y60.876463 Z-0.249992
G01 X170.976545 Y62.002191 Z-0.249992
G01 X171.056640 Y63.367582 Z-0.249992
G01 X171.028982 Y64.745532 Z-0.249992
G01 X171.014730 Y65.618840 Z-0.249992
G01 X170.708095 Y66.642375 Z-0.249992
G01 X169.937854 Y67.203913 Z-0.249992
G01 X169.260831 Y67.695093 Z-0.249992
G01 X168.402622 Y67.610793 Z-0.249992
G01 X167.714395 Y67.624311 Z-0.249992
G01 X167.460056 Y67.619372 Z-0.249992
G01 X165.807052 Y67.587114 Z-0.249992
G01 X165.564511 Y67.596569 Z-0.249992
G01 X163.894461 Y67.661734 Z-0.249992
G01 X163.635352 Y67.650812 Z-0.249992
G01 X161.744746 Y67.571141 Z-0.249992
G01 X161.723946 Y66.933714 Z-0.249992
G01 X161.664425 Y65.111263 Z-0.249992
G01 X161.672440 Y64.697469 Z-0.249992
G01 X161.707662 Y62.880974 Z-0.249992
G01 X161.710145 Y62.477396 Z-0.249992
G01 X161.719910 Y60.896049 Z-0.249992
G01 X161.971342 Y60.662651 Z0.000000
G01 X161.719910 Y60.896049 Z-0.249992
G01 X161.329540 Y60.869379 Z-0.249992
G01 X160.707833 Y60.859755 Z-0.249992
G01 X160.324716 Y60.869266 Z-0.249992
G01 X160.075316 Y60.625398 Z0.000000
G01 X160.324716 Y60.869266 Z-0.249992
G01 X160.323672 Y61.285769 Z-0.249992
G01 X160.316701 Y64.107963 Z-0.249992
G01 X160.311593 Y66.178487 Z-0.249992
G01 X160.311819 Y66.837871 Z-0.249992
G01 X160.312806 Y69.660093 Z-0.249992
G01 X160.313540 Y71.730786 Z-0.249992
G01 X160.314697 Y72.390367 Z-0.249992
G00 Z5.000000

G00 Z5.000000
G00 X163.709464 Y75.984270

G01 Z-0.249992 F100.0(Penetrate)
G01 X161.743222 Y75.955935 Z-0.249992 F400.000000
G01 X161.726655 Y75.305441 Z-0.249992
G01 X161.680173 Y73.481156 Z-0.249992
G01 X161.680512 Y73.066769 Z-0.249992
G01 X161.682120 Y71.241610 Z-0.249992
G01 X161.692309 Y70.828324 Z-0.249992
G01 X161.742855 Y68.773746 Z-0.249992
G01 X162.159584 Y68.755797 Z-0.249992
G01 X163.762776 Y68.686793 Z-0.249992
G01 X163.956973 Y68.694075 Z-0.249992
G01 X165.544614 Y68.753595 Z-0.249992
G01 X165.721737 Y68.750858 Z-0.249992
G01 X167.321739 Y68.726163 Z-0.249992
G01 X168.327777 Y68.753624 Z-0.249992
G01 X169.525245 Y68.736803 Z-0.249992
G01 X170.446052 Y69.424720 Z-0.249992
G01 X171.255211 Y70.130812 Z-0.249992
G01 X171.328899 Y71.286173 Z-0.249992
G01 X171.340837 Y72.194054 Z-0.249992
G01 X171.311430 Y73.142828 Z-0.249992
G01 X171.328194 Y74.255066 Z-0.249992
G01 X170.734709 Y75.158177 Z-0.249992
G01 X170.050066 Y75.925624 Z-0.249992
G01 X168.951967 Y75.949528 Z-0.249992
G01 X168.113118 Y75.973150 Z-0.249992
G01 X167.793727 Y75.971005 Z-0.249992
G01 X166.070253 Y75.959434 Z-0.249992
G01 X165.757805 Y75.963922 Z-0.249992
G01 X164.028149 Y75.988842 Z-0.249992
G01 X163.709464 Y75.984270 Z-0.249992
G00 Z5.000000

G00 Z5.000000
G00 X174.629065 Y77.034221

G01 Z-0.249992 F100.0(Penetrate)
G01 X174.384858 Y77.283875 Z0.000000 F400.000000
G01 X174.629065 Y77.034221 Z-0.249992
G01 X174.385789 Y77.282915 Z-0.000960
G01 X175.797239 Y77.035858 Z-0.249992
G01 X177.208350 Y77.037805 Z-0.249992
G01 X178.620929 Y77.039753 Z-0.249992
G01 X178.623413 Y77.039781 Z-0.249992
G01 X181.445578 Y77.055444 Z-0.249992
G01 X182.857818 Y77.063290 Z-0.249992
G01 X182.854742 Y77.063318 Z-0.249992
G01 X185.676823 Y77.034560 Z-0.249992
G01 X186.842994 Y77.022678 Z-0.249992
G01 X187.090474 Y77.270187 Z0.000000
G01 X186.842994 Y77.022678 Z-0.249992
G01 X186.846352 Y76.694397 Z-0.249992
G01 X186.846352 Y76.120075 Z-0.249992
G01 X186.844094 Y75.785698 Z-0.249992
G01 X187.092450 Y75.544709 Z0.000000
G01 X186.844094 Y75.785698 Z-0.249992
G01 X186.888996 Y75.742123 Z-0.204809
G01 X185.292973 Y75.728322 Z-0.249992
G01 X185.108117 Y75.738765 Z-0.249992
G01 X183.489545 Y75.830346 Z-0.249992
G01 X183.281095 Y75.820129 Z-0.249992
G01 X181.438354 Y75.729818 Z-0.249992
G01 X181.439059 Y75.131733 Z-0.249992
G01 X181.442418 Y72.309511 Z-0.249992
G01 X181.444506 Y70.537635 Z-0.249992
G01 X181.447808 Y70.175826 Z-0.249992
G01 X181.473490 Y67.353717 Z-0.249992
G01 X181.489605 Y65.584776 Z-0.249992
G01 X181.484525 Y65.227708 Z-0.249992
G01 X181.444308 Y62.405768 Z-0.249992
G01 X181.422464 Y60.875023 Z-0.249992
G01 X181.669042 Y60.631268 Z0.000000
G01 X181.422464 Y60.875023 Z-0.249992
G01 X181.054080 Y60.865569 Z-0.249992
G01 X180.448346 Y60.865569 Z-0.249992
G01 X180.084421 Y60.873781 Z-0.249992
G01 X179.837702 Y60.629292 Z0.000000
G01 X180.084421 Y60.873781 Z-0.249992
G01 X180.082812 Y60.992625 Z-0.249992
G01 X180.044825 Y63.814565 Z-0.249992
G01 X180.021033 Y65.582829 Z-0.249992
G01 X180.023884 Y65.940969 Z-0.249992
G01 X180.046208 Y68.763106 Z-0.249992
G01 X180.060234 Y70.535772 Z-0.249992
G01 X180.060799 Y70.896311 Z-0.249992
G01 X180.065258 Y73.718533 Z-0.249992
G01 X180.068447 Y75.728153 Z-0.249992
G01 X179.629845 Y75.749066 Z-0.249992
G01 X178.008450 Y75.826338 Z-0.249992
G01 X177.795627 Y75.816460 Z-0.249992
G01 X176.193592 Y75.741897 Z-0.249992
G01 X176.001766 Y75.746272 Z-0.249992
G01 X174.629178 Y75.777457 Z-0.249992
G01 X174.384858 Y75.532940 Z0.000000
G01 X174.629178 Y75.777457 Z-0.249992
G01 X174.621135 Y76.120188 Z-0.249992
G01 X174.621135 Y76.696655 Z-0.249992
G01 X174.629065 Y77.034221 Z-0.249992
G00 Z5.000000

G00 Z5.000000
G00 X188.594211 Y72.383425

G01 Z-0.249992 F100.0(Penetrate)
G01 X188.589216 Y75.205619 Z-0.249992 F400.000000
G01 X188.586026 Y77.021944 Z-0.249992
G01 X188.335582 Y77.270159 Z0.000000
G01 X188.586026 Y77.021944 Z-0.249992
G01 X188.708596 Y77.022819 Z-0.249992
G01 X190.119678 Y77.032923 Z-0.249992
G01 X191.902109 Y77.045651 Z-0.249992
G01 X192.275489 Y77.048727 Z-0.249992
G01 X193.686544 Y77.060355 Z-0.249992
G01 X195.467310 Y77.075030 Z-0.249992
G01 X195.834312 Y77.067777 Z-0.249992
G01 X197.245140 Y77.039809 Z-0.249992
G01 X198.780458 Y77.009386 Z-0.249992
G01 X199.031438 Y77.254467 Z0.000000
G01 X198.780458 Y77.009386 Z-0.249992
G01 X198.779470 Y76.756938 Z-0.249992
G01 X198.779470 Y76.255457 Z-0.249992
G01 X198.781502 Y75.998353 Z-0.249992
G01 X199.033413 Y75.756460 Z0.000000
G01 X198.781502 Y75.998353 Z-0.249992
G01 X198.974231 Y75.813300 Z-0.058730
G01 X197.557617 Y75.958277 Z-0.249992
G01 X196.098330 Y75.910525 Z-0.249992
G01 X196.049365 Y75.912190 Z-0.249992
G01 X194.639072 Y75.960224 Z-0.249992
G01 X193.165026 Y76.010460 Z-0.249992
G01 X193.101864 Y76.009359 Z-0.249992
G01 X191.690979 Y75.984862 Z-0.249992
G01 X189.985002 Y75.955229 Z-0.249992
G01 X189.970637 Y75.479064 Z-0.249992
G01 X189.920825 Y73.826794 Z-0.249992
G01 X189.921079 Y73.583377 Z-0.249992
G01 X189.922800 Y71.929244 Z-0.249992
G01 X189.929856 Y71.686900 Z-0.249992
G01 X189.984748 Y69.798326 Z-0.249992
G01 X190.924407 Y69.784581 Z-0.249992
G01 X193.040622 Y69.753593 Z-0.249992
G01 X193.746008 Y69.770809 Z-0.249992
G01 X195.851640 Y69.822202 Z-0.249992
G01 X196.546499 Y69.808147 Z-0.249992
G01 X198.413766 Y69.770386 Z-0.249992
G01 X198.662827 Y70.015383 Z0.000000
G01 X198.413766 Y69.770386 Z-0.249992
G01 X198.414810 Y69.505125 Z-0.249992
G01 X198.414810 Y68.996278 Z-0.249992
G01 X198.413766 Y68.730848 Z-0.249992
G01 X198.662827 Y68.486020 Z0.000000
G01 X198.413766 Y68.730848 Z-0.249992
G01 X197.957159 Y68.721309 Z-0.249992
G01 X195.851555 Y68.677254 Z-0.249992
G01 X195.156696 Y68.694216 Z-0.249992
G01 X193.040622 Y68.745834 Z-0.249992
G01 X192.335377 Y68.735533 Z-0.249992
G01 X189.983676 Y68.701102 Z-0.249992
G01 X189.969621 Y68.128896 Z-0.249992
G01 X189.926751 Y66.384311 Z-0.249992
G01 X189.923873 Y66.047649 Z-0.249992
G01 X189.909028 Y64.296149 Z-0.249992
G01 X189.921812 Y63.958188 Z-0.249992
G01 X189.996630 Y61.979020 Z-0.249992
G01 X190.288363 Y61.974533 Z-0.249992
G01 X191.699304 Y61.952830 Z-0.249992
G01 X193.172053 Y61.930167 Z-0.249992
G01 X193.236879 Y61.932849 Z-0.249992
G01 X194.646777 Y61.991240 Z-0.249992
G01 X196.103439 Y62.051579 Z-0.249992
G01 X196.146590 Y62.049576 Z-0.249992
G01 X197.556206 Y61.984439 Z-0.249992
G01 X198.780486 Y61.927853 Z-0.249992
G01 X199.031438 Y62.166529 Z0.000000
G01 X198.780486 Y61.927853 Z-0.249992
G01 X198.779470 Y61.665076 Z-0.249992
G01 X198.779470 Y61.161648 Z-0.249992
G01 X198.781474 Y60.903895 Z-0.249992
G01 X199.033413 Y60.658700 Z0.000000
G01 X198.781474 Y60.903895 Z-0.249992
G01 X198.657126 Y60.901524 Z-0.249992
G01 X197.246269 Y60.874346 Z-0.249992
G01 X195.467338 Y60.840112 Z-0.249992
G01 X195.097486 Y60.842935 Z-0.249992
G01 X193.686431 Y60.853800 Z-0.249992
G01 X191.902138 Y60.867516 Z-0.249992
G01 X191.530902 Y60.870395 Z-0.249992
G01 X190.119820 Y60.881260 Z-0.249992
G01 X188.585942 Y60.893057 Z-0.249992
G01 X188.335582 Y60.644984 Z0.000000
G01 X188.585942 Y60.893057 Z-0.249992
G01 X188.586506 Y61.298498 Z-0.249992
G01 X188.590486 Y64.120720 Z-0.249992
G01 X188.593421 Y66.185853 Z-0.249992
G01 X188.593646 Y66.840834 Z-0.249992
G01 X188.594634 Y69.663056 Z-0.249992
G01 X188.595368 Y71.729262 Z-0.249992
G01 X188.594211 Y72.383425 Z-0.249992
G00 Z5.000000

G00 Z5.000000
G00 X203.839771 Y76.682064

G01 Z-0.249992 F100.0(Penetrate)
G01 X203.839771 Y76.682064 Z-0.249992 F400.000000
G01 X204.156001 Y76.780898 Z-0.249992
G01 X205.776408 Y77.287290 Z-0.249992
G01 X206.077257 Y77.275465 Z-0.249992
G01 X207.835078 Y77.206490 Z-0.249992
G01 X208.156896 Y77.203696 Z-0.249992
G01 X209.879721 Y77.188851 Z-0.249992
G01 X211.039006 Y77.121117 Z-0.249992
G01 X212.253408 Y76.962000 Z-0.249992
G01 X213.085625 Y76.195062 Z-0.249992
G01 X213.264497 Y76.370180 Z0.000000
G01 X213.085625 Y76.195062 Z-0.249992
G01 X213.543135 Y75.677071 Z-0.249992
G01 X213.771905 Y75.055956 Z-0.249992
G01 X213.772836 Y75.050481 Z-0.249992
G01 X214.010862 Y73.653086 Z-0.249992
G01 X214.004710 Y72.917248 Z-0.249992
G01 X213.990401 Y72.445372 Z-0.249992
G01 X214.233112 Y72.201617 Z0.000000
G01 X213.990401 Y72.445372 Z-0.249992
G01 X213.629439 Y72.435918 Z-0.249992
G01 X213.037139 Y72.433999 Z-0.249992
G01 X212.663195 Y72.441365 Z-0.249992
G01 X212.437078 Y72.195747 Z0.000000
G01 X212.663195 Y72.441365 Z-0.249992
G01 X212.586571 Y73.188435 Z-0.249992
G01 X212.721445 Y74.371229 Z-0.249992
G01 X212.068919 Y75.332590 Z-0.249992
G01 X211.262385 Y76.163509 Z-0.249992
G01 X210.036073 Y76.116491 Z-0.249992
G01 X209.093027 Y76.159530 Z-0.249992
G01 X208.984117 Y76.157159 Z-0.249992
G01 X207.482074 Y76.124252 Z-0.249992
G01 X207.362553 Y76.130461 Z-0.249992
G01 X205.776577 Y76.212559 Z-0.249992
G01 X205.625334 Y76.160969 Z-0.249992
G01 X204.189557 Y75.671483 Z-0.249992
G01 X203.423775 Y75.450051 Z-0.249992
G01 X203.114036 Y74.625596 Z-0.249992
G01 X202.959096 Y74.015939 Z-0.249992
G01 X202.630985 Y72.622467 Z-0.249992
G01 X202.792726 Y71.200688 Z-0.249992
G01 X202.755812 Y69.840631 Z-0.249992
G01 X202.760017 Y69.533206 Z-0.249992
G01 X202.783300 Y67.824125 Z-0.249992
G01 X202.777035 Y67.513172 Z-0.249992
G01 X202.741616 Y65.757778 Z-0.249992
G01 X202.813526 Y65.427268 Z-0.249992
G01 X203.178101 Y63.751799 Z-0.249992
G01 X203.269992 Y63.223987 Z-0.249992
G01 X203.618255 Y62.671593 Z-0.249992
G01 X204.128343 Y62.419879 Z-0.249992
G01 X205.111436 Y61.910948 Z-0.249992
G01 X206.257343 Y61.792838 Z-0.249992
G01 X207.318442 Y61.806752 Z-0.249992
G01 X207.321292 Y61.806780 Z-0.249992
G01 X208.727069 Y61.820383 Z-0.249992
G01 X208.746515 Y61.819226 Z-0.249992
G01 X210.234108 Y61.731624 Z-0.249992
G01 X210.297213 Y61.754202 Z-0.249992
G01 X211.635511 Y62.233133 Z-0.249992
G01 X212.279767 Y62.430830 Z-0.249992
G01 X212.597634 Y63.116743 Z-0.249992
G01 X212.729545 Y63.654686 Z-0.249992
G01 X212.916461 Y64.494834 Z-0.249992
G01 X212.855952 Y65.350136 Z-0.249992
G01 X212.872547 Y65.926039 Z-0.249992
G01 X212.629215 Y66.160594 Z0.000000
G01 X212.872547 Y65.926039 Z-0.249992
G01 X213.233086 Y65.949774 Z-0.249992
G01 X213.816665 Y65.947855 Z-0.249992
G01 X214.186207 Y65.923612 Z-0.249992
G01 X214.423302 Y66.158618 Z0.000000
G01 X214.186207 Y65.923612 Z-0.249992
G01 X214.245812 Y64.871516 Z-0.249992
G01 X214.242059 Y63.593472 Z-0.249992
G01 X213.793241 Y62.421262 Z-0.249992
G01 X213.579514 Y61.843441 Z-0.249992
G01 X213.160639 Y61.408169 Z-0.249992
G01 X212.574238 Y61.241658 Z-0.249992
G01 X212.354500 Y61.174517 Z-0.249992
G01 X210.829907 Y60.708766 Z-0.249992
G01 X210.632549 Y60.719406 Z-0.249992
G01 X208.974183 Y60.808757 Z-0.249992
G01 X208.750353 Y60.806867 Z-0.249992
G01 X207.127152 Y60.793038 Z-0.249992
G01 X207.117810 Y60.792981 Z-0.249992
G01 X205.709070 Y60.785220 Z-0.249992
G01 X205.674723 Y60.787393 Z-0.249992
G01 X204.279727 Y60.875249 Z-0.249992
G01 X204.310856 Y60.858005 Z-0.249992
G01 X203.057451 Y61.552413 Z-0.249992
G01 X202.429760 Y61.893168 Z-0.249992
G01 X202.054969 Y62.512053 Z-0.249992
G01 X201.858119 Y63.211372 Z-0.249992
G01 X201.777291 Y63.492691 Z-0.249992
G01 X201.316253 Y65.097350 Z-0.249992
G01 X201.312866 Y65.365094 Z-0.249992
G01 X201.291191 Y67.075728 Z-0.249992
G01 X201.291473 Y67.358656 Z-0.249992
G01 X201.293167 Y69.053598 Z-0.249992
G01 X201.293985 Y69.169845 Z-0.249992
G01 X201.304964 Y70.701916 Z-0.249992
G01 X201.301803 Y70.828013 Z-0.249992
G01 X201.264098 Y72.343208 Z-0.249992
G01 X201.275754 Y72.443482 Z-0.249992
G01 X201.452368 Y73.963841 Z-0.249992
G01 X201.523178 Y74.613883 Z-0.249992
G01 X201.801618 Y75.177735 Z-0.249992
G01 X202.672133 Y76.146999 Z-0.249992
G01 X203.216991 Y76.495628 Z-0.249992
G01 X203.839771 Y76.682064 Z-0.249992
G00 Z5.000000

G00 Z5.000000
G00 X217.091064 Y72.388618

G01 Z-0.249992 F100.0(Penetrate)
G01 X217.116972 Y75.210699 Z-0.249992 F400.000000
G01 X217.133764 Y77.039047 Z-0.249992
G01 X216.885973 Y77.281928 Z0.000000
G01 X217.133764 Y77.039047 Z-0.249992
G01 X217.495516 Y77.049574 Z-0.249992
G01 X218.094505 Y77.049574 Z-0.249992
G01 X218.460829 Y77.040120 Z-0.249992
G01 X218.705572 Y77.283903 Z0.000000
G01 X218.460829 Y77.040120 Z-0.249992
G01 X218.466699 Y76.771105 Z-0.249992
G01 X218.508440 Y74.858655 Z-0.249992
G01 X218.496671 Y74.355960 Z-0.249992
G01 X218.451629 Y72.432672 Z-0.249992
G01 X218.456991 Y71.920242 Z-0.249992
G01 X218.479597 Y69.769059 Z-0.249992
G01 X218.784425 Y69.749445 Z-0.249992
G01 X220.280570 Y69.653235 Z-0.249992
G01 X220.370034 Y69.657948 Z-0.249992
G01 X221.845351 Y69.735898 Z-0.249992
G01 X221.910657 Y69.734826 Z-0.249992
G01 X223.399605 Y69.710470 Z-0.249992
G01 X223.541337 Y69.712784 Z-0.249992
G01 X225.081791 Y69.737874 Z-0.249992
G01 X225.215028 Y69.731382 Z-0.249992
G01 X226.779132 Y69.655267 Z-0.249992
G01 X226.931221 Y69.664101 Z-0.249992
G01 X228.711931 Y69.767620 Z-0.249992
G01 X228.719127 Y70.509413 Z-0.249992
G01 X228.737782 Y72.432560 Z-0.249992
G01 X228.726606 Y72.944821 Z-0.249992
G01 X228.684837 Y74.858570 Z-0.249992
G01 X228.695421 Y75.361518 Z-0.249992
G01 X228.730698 Y77.041333 Z-0.249992
G01 X228.485758 Y77.285850 Z0.000000
G01 X228.730698 Y77.041333 Z-0.249992
G01 X229.094455 Y77.049574 Z-0.249992
G01 X229.693866 Y77.049574 Z-0.249992
G01 X230.058441 Y77.038962 Z-0.249992
G01 X230.303382 Y77.281928 Z0.000000
G01 X230.058441 Y77.038962 Z-0.249992
G01 X230.062928 Y76.826731 Z-0.249992
G01 X230.092646 Y75.415931 Z-0.249992
G01 X230.131762 Y73.560037 Z-0.249992
G01 X230.123776 Y73.114070 Z-0.249992
G01 X230.098517 Y71.703184 Z-0.249992
G01 X230.065130 Y69.838486 Z-0.249992
G01 X230.067754 Y69.384898 Z-0.249992
G01 X230.075939 Y67.973815 Z-0.249992
G01 X230.086692 Y66.114281 Z-0.249992
G01 X230.084264 Y65.908259 Z-0.249992
G01 X230.065102 Y64.283026 Z-0.249992
G01 X230.072919 Y64.068368 Z-0.249992
G01 X230.131621 Y62.459503 Z-0.249992
G01 X230.123098 Y62.261609 Z-0.249992
G01 X230.063634 Y60.877112 Z-0.249992
G01 X230.303382 Y60.633243 Z0.000000
G01 X230.063634 Y60.877112 Z-0.249992
G01 X229.693866 Y60.867544 Z-0.249992
G01 X229.094088 Y60.865597 Z-0.249992
G01 X228.732533 Y60.873810 Z-0.249992
G01 X228.487733 Y60.629321 Z0.000000
G01 X228.732533 Y60.873810 Z-0.249992
G01 X228.725364 Y61.207707 Z-0.249992
G01 X228.682890 Y63.186226 Z-0.249992
G01 X228.694659 Y63.754932 Z-0.249992
G01 X228.735778 Y65.743272 Z-0.249992
G01 X228.731348 Y66.319683 Z-0.249992
G01 X228.714358 Y68.537159 Z-0.249992
G01 X228.374760 Y68.557705 Z-0.249992
G01 X226.845990 Y68.650133 Z-0.249992
G01 X226.724240 Y68.644093 Z-0.249992
G01 X225.214943 Y68.569445 Z-0.249992
G01 X225.116815 Y68.570998 Z-0.249992
G01 X223.595665 Y68.594874 Z-0.249992
G01 X223.485457 Y68.593152 Z-0.249992
G01 X221.976387 Y68.569474 Z-0.249992
G01 X221.876480 Y68.574412 Z-0.249992
G01 X220.345340 Y68.650133 Z-0.249992
G01 X220.226073 Y68.642908 Z-0.249992
G01 X218.479117 Y68.537159 Z-0.249992
G01 X218.472316 Y67.730935 Z-0.249992
G01 X218.455552 Y65.743554 Z-0.249992
G01 X218.466615 Y65.166156 Z-0.249992
G01 X218.504545 Y63.186141 Z-0.249992
G01 X218.493652 Y62.617943 Z-0.249992
G01 X218.460208 Y60.873838 Z-0.249992
G01 X218.705572 Y60.629321 Z0.000000
G01 X218.460208 Y60.873838 Z-0.249992
G01 X218.095323 Y60.865597 Z-0.249992
G01 X217.495516 Y60.867544 Z-0.249992
G01 X217.135485 Y60.876886 Z-0.249992
G01 X216.887948 Y60.633243 Z0.000000
G01 X217.135485 Y60.876886 Z-0.249992
G01 X217.131196 Y61.293700 Z-0.249992
G01 X217.102296 Y64.115781 Z-0.249992
G01 X217.081101 Y66.183341 Z-0.249992
G01 X217.081553 Y66.840749 Z-0.249992
G01 X217.083557 Y69.662972 Z-0.249992
G01 X217.085024 Y71.731774 Z-0.249992
G01 X217.091064 Y72.388618 Z-0.249992
G00 Z5.000000

G00 Z5.000000
G00 X214.477686 Y55.504645

G01 Z-0.249992 F100.0(Penetrate)
G01 X214.477686 Y55.504645 Z-0.249992 F400.000000
G01 X214.664545 Y55.593263 Z-0.249992
G01 X216.087848 Y56.268451 Z-0.249992
G01 X216.267680 Y56.290295 Z-0.249992
G01 X217.882443 Y56.486327 Z-0.249992
G01 X218.071419 Y56.499732 Z-0.249992
G01 X219.670377 Y56.613073 Z-0.249992
G01 X220.138951 Y56.631784 Z-0.249992
G01 X222.020696 Y56.706996 Z-0.249992
G01 X222.510916 Y56.723873 Z-0.249992
G01 X224.379735 Y56.788220 Z-0.249992
G01 X224.816954 Y56.688906 Z-0.249992
G01 X226.660627 Y56.270173 Z-0.249992
G01 X227.209521 Y56.139899 Z-0.249992
G01 X227.750287 Y55.955184 Z-0.249992
G01 X228.724151 Y55.390119 Z-0.249992
G01 X229.115396 Y55.041405 Z-0.249992
G01 X229.389377 Y54.550056 Z-0.249992
G01 X229.854705 Y53.728649 Z-0.249992
G01 X230.093775 Y52.848793 Z-0.249992
G01 X230.126795 Y52.612290 Z-0.249992
G01 X230.355113 Y50.977941 Z-0.249992
G01 X230.369083 Y50.018075 Z-0.249992
G01 X230.373429 Y49.317374 Z-0.249992
G01 X230.624946 Y49.070712 Z0.000000
G01 X230.373429 Y49.317374 Z-0.249992
G01 X230.594776 Y49.100289 Z-0.030000
G01 X229.150222 Y49.301062 Z-0.249992
G01 X229.118556 Y49.300413 Z-0.249992
G01 X227.685376 Y49.271795 Z-0.249992
G01 X227.663334 Y49.272868 Z-0.249992
G01 X226.464793 Y49.330385 Z-0.249992
G01 X226.211301 Y49.092274 Z0.000000
G01 X226.464793 Y49.330385 Z-0.249992
G01 X226.476900 Y50.166609 Z-0.249992
G01 X226.539582 Y51.432630 Z-0.249992
G01 X225.860273 Y52.454810 Z-0.249992
G01 X225.242347 Y53.179416 Z-0.249992
G01 X224.236056 Y53.303283 Z-0.249992
G01 X223.443632 Y53.388486 Z-0.249992
G01 X223.233997 Y53.400481 Z-0.249992
G01 X221.617824 Y53.492993 Z-0.249992
G01 X221.396646 Y53.498609 Z-0.249992
G01 X219.738986 Y53.540886 Z-0.249992
G01 X219.506491 Y53.490876 Z-0.249992
G01 X217.921898 Y53.149952 Z-0.249992
G01 X217.252890 Y52.996338 Z-0.249992
G01 X216.392451 Y52.656769 Z-0.249992
G01 X216.122110 Y51.861636 Z-0.249992
G01 X216.038742 Y51.621126 Z-0.249992
G01 X215.477345 Y50.001650 Z-0.249992
G01 X215.491174 Y49.680509 Z-0.249992
G01 X215.563367 Y48.004787 Z-0.249992
G01 X215.559246 Y47.770768 Z-0.249992
G01 X215.530093 Y46.114321 Z-0.249992
G01 X215.536922 Y45.629604 Z-0.249992
G01 X215.563423 Y43.742892 Z-0.249992
G01 X215.550582 Y43.250302 Z-0.249992
G01 X215.499979 Y41.309770 Z-0.249992
G01 X215.619331 Y40.802391 Z-0.249992
G01 X216.053615 Y38.956262 Z-0.249992
G01 X216.225545 Y38.120800 Z-0.249992
G01 X217.017347 Y37.552912 Z-0.249992
G01 X217.766845 Y37.373391 Z-0.249992
G01 X217.979556 Y37.318583 Z-0.249992
G01 X219.595363 Y36.902277 Z-0.249992
G01 X219.865986 Y36.910744 Z-0.249992
G01 X221.516252 Y36.962362 Z-0.249992
G01 X221.735934 Y36.977828 Z-0.249992
G01 X223.366924 Y37.092721 Z-0.249992
G01 X224.219574 Y37.212016 Z-0.249992
G01 X225.322837 Y37.269985 Z-0.249992
G01 X226.006040 Y38.058937 Z-0.249992
G01 X226.432591 Y38.627332 Z-0.249992
G01 X226.610363 Y39.295973 Z-0.249992
G01 X226.746196 Y40.585249 Z-0.249992
G01 X226.717325 Y41.243899 Z-0.249992
G01 X226.726159 Y41.613244 Z-0.249992
G01 X226.481895 Y41.855136 Z0.000000
G01 X226.726159 Y41.613244 Z-0.249992
G01 X226.504981 Y41.832276 Z-0.023622
G01 X227.941154 Y41.654166 Z-0.249992
G01 X227.959978 Y41.654194 Z-0.249992
G01 X229.389405 Y41.656113 Z-0.249992
G01 X229.408145 Y41.655464 Z-0.249992
G01 X230.595820 Y41.613893 Z-0.249992
G01 X230.850441 Y41.855136 Z0.000000
G01 X230.595820 Y41.613893 Z-0.249992
G01 X230.615576 Y41.632604 Z-0.230632
G01 X230.565115 Y39.991200 Z-0.249992
G01 X230.568671 Y39.720153 Z-0.249992
G01 X230.589950 Y38.096134 Z-0.249992
G01 X230.513073 Y37.920450 Z-0.249992
G01 X229.848270 Y36.401164 Z-0.249992
G01 X229.511212 Y35.605353 Z-0.249992
G01 X228.933052 Y34.965838 Z-0.249992
G01 X228.130863 Y34.662957 Z-0.249992
G01 X227.773147 Y34.521197 Z-0.249992
G01 X226.146136 Y33.876375 Z-0.249992
G01 X225.786274 Y33.865228 Z-0.249992
G01 X223.974746 Y33.809178 Z-0.249992
G01 X223.608280 Y33.805171 Z-0.249992
G01 X221.832115 Y33.785726 Z-0.249992
G01 X221.539027 Y33.786262 Z-0.249992
G01 X219.836917 Y33.789620 Z-0.249992
G01 X219.531129 Y33.793741 Z-0.249992
G01 X217.841944 Y33.816657 Z-0.249992
G01 X217.582102 Y33.881596 Z-0.249992
G01 X215.928449 Y34.295024 Z-0.249992
G01 X215.341145 Y34.459249 Z-0.249992
G01 X214.740153 Y34.656917 Z-0.249992
G01 X213.667849 Y35.252971 Z-0.249992
G01 X213.237009 Y35.619013 Z-0.249992
G01 X212.950864 Y36.153260 Z-0.249992
G01 X212.349759 Y37.336533 Z-0.249992
G01 X212.168995 Y38.678020 Z-0.249992
G01 X211.974544 Y40.023316 Z-0.249992
G01 X211.940875 Y40.243563 Z-0.249992
G01 X211.696696 Y41.840178 Z-0.249992
G01 X211.694523 Y42.046370 Z-0.249992
G01 X211.677223 Y43.684331 Z-0.249992
G01 X211.669434 Y43.907710 Z-0.249992
G01 X211.612594 Y45.533762 Z-0.249992
G01 X211.614541 Y46.821739 Z-0.249992
G01 X211.571164 Y48.129077 Z-0.249992
G01 X211.606329 Y48.711133 Z-0.249992
G01 X211.726584 Y50.701589 Z-0.249992
G01 X211.920865 Y51.943113 Z-0.249992
G01 X212.401462 Y53.140808 Z-0.249992
G01 X212.788840 Y54.170016 Z-0.249992
G01 X213.480369 Y55.050634 Z-0.249992
G01 X214.477686 Y55.504645 Z-0.249992
G00 Z5.000000

G00 Z5.000000
G00 X204.003911 Y49.353809

G01 Z-0.249992 F100.0(Penetrate)
G01 X204.022679 Y54.998225 Z-0.249992 F400.000000
G01 X204.027590 Y56.469083 Z-0.249992
G01 X203.778387 Y56.713713 Z0.000000
G01 X204.027590 Y56.469083 Z-0.249992
G01 X203.792922 Y56.699433 Z-0.014591
G01 X205.220148 Y56.495047 Z-0.249992
G01 X205.232283 Y56.495047 Z-0.249992
G01 X206.656179 Y56.493100 Z-0.249992
G01 X206.668145 Y56.492874 Z-0.249992
G01 X207.848371 Y56.470381 Z-0.249992
G01 X208.097940 Y56.715660 Z0.000000
G01 X207.848371 Y56.470381 Z-0.249992
G01 X207.848483 Y56.410719 Z-0.249992
G01 X207.858587 Y50.766275 Z-0.249992
G01 X207.861635 Y49.050843 Z-0.249992
G01 X207.861720 Y48.746551 Z-0.249992
G01 X207.863187 Y43.102107 Z-0.249992
G01 X207.863611 Y41.386760 Z-0.249992
G01 X207.862990 Y41.082553 Z-0.249992
G01 X207.851447 Y35.438108 Z-0.249992
G01 X207.848427 Y33.963949 Z-0.249992
G01 X208.097940 Y33.721972 Z0.000000
G01 X207.848427 Y33.963949 Z-0.249992
G01 X208.083038 Y33.736450 Z-0.014930
G01 X206.654655 Y33.924918 Z-0.249992
G01 X206.644693 Y33.924918 Z-0.249992
G01 X205.223647 Y33.924918 Z-0.249992
G01 X205.213318 Y33.925256 Z-0.249992
G01 X204.029368 Y33.963977 Z-0.249992
G01 X203.780363 Y33.721972 Z0.000000
G01 X204.029368 Y33.963977 Z-0.249992
G01 X204.029114 Y34.027534 Z-0.249992
G01 X204.006028 Y39.671950 Z-0.249992
G01 X203.999001 Y41.386986 Z-0.249992
G01 X203.999142 Y41.690911 Z-0.249992
G01 X204.002020 Y47.335356 Z-0.249992
G01 X204.002895 Y49.050618 Z-0.249992
G01 X204.003911 Y49.353809 Z-0.249992
G00 Z5.000000

G00 Z5.000000
G00 X183.851664 Y56.466599

G01 Z-0.249992 F100.0(Penetrate)
G01 X183.604268 Y56.715632 Z0.000000 F400.000000
G01 X183.851664 Y56.466599 Z-0.249992
G01 X183.763046 Y56.555810 Z-0.160443
G01 X185.174496 Y56.471849 Z-0.249992
G01 X187.996690 Y56.482996 Z-0.249992
G01 X189.565648 Y56.489177 Z-0.249992
G01 X189.725442 Y56.489459 Z-0.249992
G01 X193.958776 Y56.496402 Z-0.249992
G01 X195.530161 Y56.498970 Z-0.249992
G01 X195.686060 Y56.497954 Z-0.249992
G01 X199.919309 Y56.470099 Z-0.249992
G01 X201.248717 Y56.461350 Z-0.249992
G01 X201.490214 Y56.709790 Z0.000000
G01 X201.248717 Y56.461350 Z-0.249992
G01 X201.285406 Y55.406939 Z-0.249992
G01 X201.310636 Y54.119216 Z-0.249992
G01 X201.243580 Y53.062322 Z-0.249992
G01 X201.478446 Y52.815744 Z0.000000
G01 X201.243580 Y53.062322 Z-0.249992
G01 X201.039110 Y53.059359 Z-0.249992
G01 X199.200094 Y53.032491 Z-0.249992
G01 X198.769394 Y53.052444 Z-0.249992
G01 X196.909014 Y53.138607 Z-0.249992
G01 X196.461946 Y53.114731 Z-0.249992
G01 X194.381206 Y53.003704 Z-0.249992
G01 X194.381940 Y52.414170 Z-0.249992
G01 X194.387189 Y48.180837 Z-0.249992
G01 X194.389362 Y46.417004 Z-0.249992
G01 X194.391196 Y46.064227 Z-0.249992
G01 X194.413436 Y41.830950 Z-0.249992
G01 X194.422692 Y40.069375 Z-0.249992
G01 X194.419560 Y39.719786 Z-0.249992
G01 X194.381629 Y35.486622 Z-0.249992
G01 X194.367970 Y33.964062 Z-0.249992
G01 X194.615817 Y33.721972 Z0.000000
G01 X194.367970 Y33.964062 Z-0.249992
G01 X194.595864 Y33.741473 Z-0.020151
G01 X193.162768 Y33.924918 Z-0.249992
G01 X193.147895 Y33.924918 Z-0.249992
G01 X191.721741 Y33.924918 Z-0.249992
G01 X191.707320 Y33.925369 Z-0.249992
G01 X190.519841 Y33.962368 Z-0.249992
G01 X190.270808 Y33.719996 Z0.000000
G01 X190.519841 Y33.962368 Z-0.249992
G01 X190.519362 Y34.079152 Z-0.249992
G01 X190.502400 Y38.312429 Z-0.249992
G01 X190.495316 Y40.080466 Z-0.249992
G01 X190.497292 Y40.436462 Z-0.249992
G01 X190.520773 Y44.669710 Z-0.249992
G01 X190.530594 Y46.439187 Z-0.249992
G01 X190.529155 Y46.797525 Z-0.249992
G01 X190.512193 Y51.030830 Z-0.249992
G01 X190.504122 Y53.043046 Z-0.249992
G01 X189.858764 Y53.056198 Z-0.249992
G01 X188.041987 Y53.093225 Z-0.249992
G01 X187.636066 Y53.086734 Z-0.249992
G01 X185.825978 Y53.057863 Z-0.249992
G01 X185.426916 Y53.058568 Z-0.249992
G01 X183.857760 Y53.061362 Z-0.249992
G01 X183.614061 Y52.811793 Z0.000000
G01 X183.857760 Y53.061362 Z-0.249992
G01 X183.830751 Y54.115999 Z-0.249992
G01 X183.840516 Y55.411455 Z-0.249992
G01 X183.851664 Y56.466599 Z-0.249992
G00 Z5.000000

G00 Z5.000000
G00 X171.031945 Y53.492400

G01 Z-0.249992 F100.0(Penetrate)
G01 X169.328932 Y53.302437 Z-0.249992 F400.000000
G01 X168.860612 Y53.216726 Z-0.249992
G01 X168.293853 Y53.118061 Z-0.249992
G01 X167.313921 Y52.685725 Z-0.249992
G01 X166.844106 Y52.302410 Z-0.249992
G01 X166.669213 Y51.701051 Z-0.249992
G01 X166.353068 Y50.456451 Z-0.249992
G01 X166.253217 Y49.162434 Z-0.249992
G01 X166.176227 Y47.899066 Z-0.249992
G01 X166.170837 Y47.307952 Z-0.249992
G01 X166.152718 Y45.319668 Z-0.249992
G01 X166.112191 Y44.728046 Z-0.249992
G01 X165.972914 Y42.693760 Z-0.249992
G01 X166.065963 Y42.082692 Z-0.249992
G01 X166.367743 Y40.100504 Z-0.249992
G01 X166.514471 Y39.284797 Z-0.249992
G01 X166.668649 Y38.152635 Z-0.249992
G01 X167.614008 Y37.670994 Z-0.249992
G01 X168.689077 Y37.139598 Z-0.249992
G01 X169.915954 Y37.076126 Z-0.249992
G01 X171.044815 Y37.024988 Z-0.249992
G01 X171.141052 Y37.022617 Z-0.249992
G01 X172.657489 Y36.985420 Z-0.249992
G01 X172.754150 Y36.983219 Z-0.249992
G01 X174.306880 Y36.947659 Z-0.249992
G01 X174.436335 Y36.980001 Z-0.249992
G01 X175.902847 Y37.346156 Z-0.249992
G01 X176.619183 Y37.528782 Z-0.249992
G01 X177.508691 Y37.951834 Z-0.249992
G01 X177.735683 Y38.812555 Z-0.249992
G01 X177.849164 Y39.210065 Z-0.249992
G01 X178.361510 Y41.004914 Z-0.249992
G01 X178.344887 Y41.474560 Z-0.249992
G01 X178.279948 Y43.308327 Z-0.249992
G01 X178.286975 Y43.706994 Z-0.249992
G01 X178.319149 Y45.529274 Z-0.249992
G01 X178.309299 Y45.849681 Z-0.249992
G01 X178.256524 Y47.564294 Z-0.249992
G01 X178.273203 Y47.892603 Z-0.249992
G01 X178.364022 Y49.681977 Z-0.249992
G01 X178.262930 Y50.034049 Z-0.249992
G01 X177.784874 Y51.699047 Z-0.249992
G01 X177.643960 Y52.247010 Z-0.249992
G01 X177.230985 Y52.630832 Z-0.249992
G01 X176.351749 Y53.074147 Z-0.249992
G01 X175.828086 Y53.185230 Z-0.249992
G01 X175.392307 Y53.253189 Z-0.249992
G01 X175.099021 Y53.295014 Z-0.249992
G01 X173.392057 Y53.538374 Z-0.249992
G01 X173.067417 Y53.536483 Z-0.249992
G01 X171.336943 Y53.526408 Z-0.249992
G01 X171.031945 Y53.492400 Z-0.249992
G00 Z5.000000

G00 Z5.000000
G00 X167.551383 Y56.367991

G01 Z-0.249992 F100.0(Penetrate)
G01 X169.011545 Y56.529591 Z-0.249992 F400.000000
G01 X169.394012 Y56.563006 Z-0.249992
G01 X171.174806 Y56.718624 Z-0.249992
G01 X171.557895 Y56.720345 Z-0.249992
G01 X173.352461 Y56.728360 Z-0.249992
G01 X173.729115 Y56.699884 Z-0.249992
G01 X175.517585 Y56.564784 Z-0.249992
G01 X176.346218 Y56.466797 Z-0.249992
G01 X177.190006 Y56.343804 Z-0.249992
G01 X177.318389 Y56.306523 Z-0.249992
G01 X178.801608 Y55.876049 Z-0.249992
G01 X179.536176 Y55.545426 Z-0.249992
G01 X180.177215 Y55.019674 Z-0.249992
G01 X181.150684 Y54.153534 Z-0.249992
G01 X181.136968 Y54.201343 Z-0.249992
G01 X181.529511 Y52.834089 Z-0.249992
G01 X181.778826 Y51.531069 Z-0.249992
G01 X181.837049 Y51.256156 Z-0.249992
G01 X182.182263 Y49.626351 Z-0.249992
G01 X182.187400 Y49.368202 Z-0.249992
G01 X182.221012 Y47.675913 Z-0.249992
G01 X182.225669 Y47.402327 Z-0.249992
G01 X182.254286 Y45.720593 Z-0.249992
G01 X182.249122 Y45.070466 Z-0.249992
G01 X182.232753 Y43.007365 Z-0.249992
G01 X182.220786 Y42.334660 Z-0.249992
G01 X182.184323 Y40.281691 Z-0.249992
G01 X182.015357 Y39.674490 Z-0.249992
G01 X181.459661 Y37.677626 Z-0.249992
G01 X181.301955 Y37.119419 Z-0.249992
G01 X181.080778 Y36.582068 Z-0.249992
G01 X180.439146 Y35.626887 Z-0.249992
G01 X180.052642 Y35.249584 Z-0.249992
G01 X179.530898 Y34.995132 Z-0.249992
G01 X178.588558 Y34.523962 Z-0.249992
G01 X177.593273 Y34.246284 Z-0.249992
G01 X177.246902 Y34.188711 Z-0.249992
G01 X175.508413 Y33.899687 Z-0.249992
G01 X174.445282 Y33.837429 Z-0.249992
G01 X173.391408 Y33.805255 Z-0.249992
G01 X172.967961 Y33.800486 Z-0.249992
G01 X171.128889 Y33.779771 Z-0.249992
G01 X170.679026 Y33.766760 Z-0.249992
G01 X168.857395 Y33.714098 Z-0.249992
G01 X168.471371 Y33.817391 Z-0.249992
G01 X166.685836 Y34.295108 Z-0.249992
G01 X165.497116 Y34.602448 Z-0.249992
G01 X164.339412 Y35.095462 Z-0.249992
G01 X163.661938 Y36.103391 Z-0.249992
G01 X163.615512 Y36.174116 Z-0.249992
G01 X162.824076 Y37.380051 Z-0.249992
G01 X162.816315 Y37.431303 Z-0.249992
G01 X162.589663 Y38.928322 Z-0.249992
G01 X162.581619 Y38.994024 Z-0.249992
G01 X162.401759 Y40.464627 Z-0.249992
G01 X162.366679 Y40.738976 Z-0.249992
G01 X162.154871 Y42.395056 Z-0.249992
G01 X162.157975 Y42.654474 Z-0.249992
G01 X162.178182 Y44.341909 Z-0.249992
G01 X162.182303 Y44.615467 Z-0.249992
G01 X162.207562 Y46.297624 Z-0.249992
G01 X162.223705 Y46.736847 Z-0.249992
G01 X162.291749 Y48.587999 Z-0.249992
G01 X162.312266 Y49.048811 Z-0.249992
G01 X162.394111 Y50.886614 Z-0.249992
G01 X162.522409 Y51.283165 Z-0.249992
G01 X163.095687 Y53.055097 Z-0.249992
G01 X163.390440 Y53.983382 Z-0.249992
G01 X163.864037 Y54.844809 Z-0.249992
G01 X164.697101 Y55.316149 Z-0.249992
G01 X164.756621 Y55.350354 Z-0.249992
G01 X166.003253 Y56.066606 Z-0.249992
G01 X166.045163 Y56.074875 Z-0.249992
G01 X167.501430 Y56.362459 Z-0.249992
G01 X167.551383 Y56.367991 Z-0.249992
G00 Z5.000000

G00 Z5.000000
G00 X147.191082 Y53.339464

G01 Z-0.249992 F100.0(Penetrate)
G01 X145.262855 Y53.268711 Z-0.249992 F400.000000
G01 X145.249957 Y52.747842 Z-0.249992
G01 X145.207934 Y51.048497 Z-0.249992
G01 X145.207370 Y50.759078 Z-0.249992
G01 X145.203983 Y49.057673 Z-0.249992
G01 X145.212027 Y48.768085 Z-0.249992
G01 X145.265621 Y46.832831 Z-0.249992
G01 X145.852953 Y46.822445 Z-0.249992
G01 X147.614274 Y46.791316 Z-0.249992
G01 X147.966572 Y46.790667 Z-0.249992
G01 X149.731590 Y46.787393 Z-0.249992
G01 X150.084763 Y46.796904 Z-0.249992
G01 X151.848652 Y46.844458 Z-0.249992
G01 X152.646889 Y46.889557 Z-0.249992
G01 X153.613726 Y46.917384 Z-0.249992
G01 X154.339488 Y47.501472 Z-0.249992
G01 X154.946040 Y48.069839 Z-0.249992
G01 X155.018402 Y48.944784 Z-0.249992
G01 X155.093022 Y49.624291 Z-0.249992
G01 X155.163210 Y50.572670 Z-0.249992
G01 X155.093643 Y51.761475 Z-0.249992
G01 X154.298764 Y52.504792 Z-0.249992
G01 X153.537102 Y53.275061 Z-0.249992
G01 X152.373585 Y53.324591 Z-0.249992
G01 X151.443606 Y53.314798 Z-0.249992
G01 X151.152240 Y53.309944 Z-0.249992
G01 X149.464015 Y53.281496 Z-0.249992
G01 X149.186393 Y53.291119 Z-0.249992
G01 X147.483662 Y53.350189 Z-0.249992
G01 X147.191082 Y53.339464 Z-0.249992
G00 Z5.000000

G00 Z5.000000
G00 X141.375836 Y49.334759

G01 Z-0.249992 F100.0(Penetrate)
G01 X141.359891 Y54.979175 Z-0.249992 F400.000000
G01 X141.355742 Y56.439760 Z-0.249992
G01 X141.105072 Y56.682330 Z0.000000
G01 X141.355742 Y56.439760 Z-0.249992
G01 X141.586431 Y56.446731 Z-0.249992
G01 X142.996893 Y56.489290 Z-0.249992
G01 X144.874235 Y56.545932 Z-0.249992
G01 X145.343853 Y56.533994 Z-0.249992
G01 X146.754484 Y56.498067 Z-0.249992
G01 X148.645937 Y56.449920 Z-0.249992
G01 X149.124360 Y56.453899 Z-0.249992
G01 X150.535415 Y56.465668 Z-0.249992
G01 X152.415664 Y56.481303 Z-0.249992
G01 X153.274382 Y56.453956 Z-0.249992
G01 X154.157370 Y56.439957 Z-0.249992
G01 X154.313326 Y56.417323 Z-0.249992
G01 X155.865379 Y56.192166 Z-0.249992
G01 X156.657888 Y55.968251 Z-0.249992
G01 X157.377780 Y55.514212 Z-0.249992
G01 X157.993984 Y55.097031 Z-0.249992
G01 X158.372134 Y54.511533 Z-0.249992
G01 X158.385906 Y54.473687 Z-0.249992
G01 X158.883182 Y53.108860 Z-0.249992
G01 X158.986955 Y52.343671 Z-0.249992
G01 X159.023700 Y51.604729 Z-0.249992
G01 X159.066513 Y50.816369 Z-0.249992
G01 X159.069364 Y50.007266 Z-0.249992
G01 X159.054773 Y49.924321 Z-0.249992
G01 X158.795834 Y48.452307 Z-0.249992
G01 X158.534298 Y47.751549 Z-0.249992
G01 X158.026637 Y47.138054 Z-0.249992
G01 X157.506078 Y46.455528 Z-0.249992
G01 X156.692319 Y46.145874 Z-0.249992
G01 X155.197811 Y45.661524 Z-0.249992
G01 X156.662431 Y45.068547 Z-0.249992
G01 X157.517254 Y44.914623 Z-0.249992
G01 X158.114493 Y44.339087 Z-0.249992
G01 X158.694685 Y43.836590 Z-0.249992
G01 X159.049552 Y43.209154 Z-0.249992
G01 X159.066146 Y43.157620 Z-0.249992
G01 X159.515021 Y41.762003 Z-0.249992
G01 X159.603046 Y40.990520 Z-0.249992
G01 X159.617467 Y40.237100 Z-0.249992
G01 X159.617467 Y40.177410 Z-0.249992
G01 X159.617467 Y38.715470 Z-0.249992
G01 X159.608210 Y38.612713 Z-0.249992
G01 X159.476977 Y37.154979 Z-0.249992
G01 X159.466055 Y37.138159 Z-0.249992
G01 X158.654412 Y35.886306 Z-0.249992
G01 X158.261756 Y35.292284 Z-0.249992
G01 X157.716729 Y34.900757 Z-0.249992
G01 X157.709448 Y34.897596 Z-0.249992
G01 X156.408149 Y34.329455 Z-0.249992
G01 X155.692151 Y34.178805 Z-0.249992
G01 X154.989220 Y34.097920 Z-0.249992
G01 X154.413741 Y34.037468 Z-0.249992
G01 X152.454188 Y33.831587 Z-0.249992
G01 X151.891832 Y33.865425 Z-0.249992
G01 X149.890820 Y33.985821 Z-0.249992
G01 X149.305406 Y33.976395 Z-0.249992
G01 X147.323218 Y33.944560 Z-0.249992
G01 X146.996969 Y33.951362 Z-0.249992
G01 X145.244906 Y33.987825 Z-0.249992
G01 X144.900538 Y33.966348 Z-0.249992
G01 X143.175116 Y33.858821 Z-0.249992
G01 X142.862442 Y33.881963 Z-0.249992
G01 X141.357577 Y33.993328 Z-0.249992
G01 X141.107048 Y33.761172 Z0.000000
G01 X141.357577 Y33.993328 Z-0.249992
G01 X141.357718 Y34.052369 Z-0.249992
G01 X141.370756 Y39.696814 Z-0.249992
G01 X141.374679 Y41.399940 Z-0.249992
G01 X141.374764 Y41.692915 Z-0.249992
G01 X141.376203 Y47.337359 Z-0.249992
G01 X141.376655 Y49.041615 Z-0.249992
G01 X141.375836 Y49.334759 Z-0.249992
G00 Z5.000000

G00 Z5.000000
G00 X147.059792 Y44.124288

G01 Z-0.249992 F100.0(Penetrate)
G01 X145.262657 Y44.052406 Z-0.249992 F400.000000
G01 X145.248490 Y43.461573 Z-0.249992
G01 X145.205987 Y41.691504 Z-0.249992
G01 X145.205987 Y41.329356 Z-0.249992
G01 X145.205987 Y39.556126 Z-0.249992
G01 X145.214623 Y39.195756 Z-0.249992
G01 X145.262629 Y37.194152 Z-0.249992
G01 X145.550919 Y37.181508 Z-0.249992
G01 X147.025417 Y37.116823 Z-0.249992
G01 X147.090865 Y37.119080 Z-0.249992
G01 X148.551139 Y37.169909 Z-0.249992
G01 X148.599766 Y37.169401 Z-0.249992
G01 X150.067773 Y37.154245 Z-0.249992
G01 X151.270660 Y37.167877 Z-0.249992
G01 X152.520199 Y37.085919 Z-0.249992
G01 X153.744310 Y37.337577 Z-0.249992
G01 X154.344653 Y37.455574 Z-0.249992
G01 X155.050293 Y37.804909 Z-0.249992
G01 X155.313240 Y38.459975 Z-0.249992
G01 X155.744137 Y39.529004 Z-0.249992
G01 X155.717269 Y40.736266 Z-0.249992
G01 X155.598171 Y41.825870 Z-0.249992
G01 X155.509271 Y42.516891 Z-0.249992
G01 X155.237999 Y43.483700 Z-0.249992
G01 X154.385829 Y43.743965 Z-0.249992
G01 X153.171258 Y44.160327 Z-0.249992
G01 X151.869084 Y44.089461 Z-0.249992
G01 X150.657053 Y44.093356 Z-0.249992
G01 X150.500420 Y44.091409 Z-0.249992
G01 X148.942948 Y44.071851 Z-0.249992
G01 X148.795120 Y44.076902 Z-0.249992
G01 X147.221900 Y44.130779 Z-0.249992
G01 X147.059792 Y44.124288 Z-0.249992
G00 Z5.000000

G00 Z5.000000
G00 X126.716085 Y53.494432

G01 Z-0.249992 F100.0(Penetrate)
G01 X125.011830 Y53.304130 Z-0.249992 F400.000000
G01 X124.544244 Y53.209839 Z-0.249992
G01 X123.973816 Y53.118597 Z-0.249992
G01 X122.979576 Y52.699130 Z-0.249992
G01 X122.499516 Y52.320501 Z-0.249992
G01 X122.327727 Y51.709715 Z-0.249992
G01 X122.246983 Y51.429638 Z-0.249992
G01 X121.763988 Y49.754565 Z-0.249992
G01 X121.776434 Y49.407064 Z-0.249992
G01 X121.837676 Y47.697418 Z-0.249992
G01 X121.829492 Y47.422647 Z-0.249992
G01 X121.778946 Y45.724600 Z-0.249992
G01 X121.781909 Y45.299094 Z-0.249992
G01 X121.794609 Y43.474781 Z-0.249992
G01 X121.770620 Y43.034035 Z-0.249992
G01 X121.667299 Y41.135611 Z-0.249992
G01 X121.794271 Y40.678806 Z-0.249992
G01 X122.286410 Y38.908031 Z-0.249992
G01 X122.446402 Y38.195786 Z-0.249992
G01 X123.080527 Y37.653242 Z-0.249992
G01 X123.741322 Y37.465339 Z-0.249992
G01 X123.787352 Y37.449930 Z-0.249992
G01 X125.219517 Y36.970603 Z-0.249992
G01 X125.331616 Y36.974159 Z-0.249992
G01 X126.803941 Y37.020867 Z-0.249992
G01 X126.843960 Y37.020416 Z-0.249992
G01 X128.304771 Y37.003228 Z-0.249992
G01 X129.673972 Y37.034640 Z-0.249992
G01 X129.690199 Y37.034527 Z-0.249992
G01 X131.184792 Y37.024423 Z-0.249992
G01 X132.478019 Y37.716037 Z-0.249992
G01 X133.348759 Y38.161553 Z-0.249992
G01 X133.508215 Y39.206848 Z-0.249992
G01 X133.665215 Y39.958434 Z-0.249992
G01 X133.741020 Y40.473658 Z-0.249992
G01 X134.024653 Y42.401152 Z-0.249992
G01 X134.000777 Y42.942623 Z-0.249992
G01 X133.916026 Y44.864020 Z-0.249992
G01 X133.918058 Y45.366150 Z-0.249992
G01 X133.925847 Y47.291526 Z-0.249992
G01 X133.923843 Y47.335892 Z-0.249992
G01 X133.859045 Y48.780531 Z-0.249992
G01 X133.858114 Y48.832516 Z-0.249992
G01 X133.831020 Y50.333910 Z-0.249992
G01 X133.808076 Y50.408699 Z-0.249992
G01 X133.381525 Y51.798728 Z-0.249992
G01 X133.224384 Y52.313163 Z-0.249992
G01 X132.820072 Y52.665038 Z-0.249992
G01 X131.979360 Y53.070901 Z-0.249992
G01 X131.487616 Y53.173038 Z-0.249992
G01 X131.078733 Y53.244863 Z-0.249992
G01 X130.784206 Y53.288918 Z-0.249992
G01 X129.077862 Y53.544301 Z-0.249992
G01 X128.751077 Y53.541761 Z-0.249992
G01 X127.019869 Y53.528355 Z-0.249992
G01 X126.716085 Y53.494432 Z-0.249992
G00 Z5.000000

G00 Z5.000000
G00 X123.218674 Y56.357520

G01 Z-0.249992 F100.0(Penetrate)
G01 X124.699128 Y56.533768 Z-0.249992 F400.000000
G01 X124.759156 Y56.539695 Z-0.249992
G01 X126.214068 Y56.683318 Z-0.249992
G01 X126.268086 Y56.683459 Z-0.249992
G01 X127.742951 Y56.687212 Z-0.249992
G01 X127.802867 Y56.686281 Z-0.249992
G01 X129.283489 Y56.663590 Z-0.249992
G01 X129.481609 Y56.660853 Z-0.249992
G01 X131.087228 Y56.638388 Z-0.249992
G01 X131.302958 Y56.616967 Z-0.249992
G01 X132.897006 Y56.458725 Z-0.249992
G01 X133.059566 Y56.391923 Z-0.249992
G01 X134.561045 Y55.774675 Z-0.249992
G01 X135.446206 Y55.409959 Z-0.249992
G01 X136.223841 Y54.836117 Z-0.249992
G01 X136.630806 Y53.977992 Z-0.249992
G01 X137.132682 Y52.947373 Z-0.249992
G01 X137.404716 Y51.860648 Z-0.249992
G01 X137.469316 Y51.422865 Z-0.249992
G01 X137.739855 Y49.588928 Z-0.249992
G01 X137.796666 Y48.428148 Z-0.249992
G01 X137.861182 Y47.282665 Z-0.249992
G01 X137.863157 Y47.187161 Z-0.249992
G01 X137.892452 Y45.776360 Z-0.249992
G01 X137.923751 Y44.268588 Z-0.249992
G01 X137.923384 Y44.155276 Z-0.249992
G01 X137.918868 Y42.744164 Z-0.249992
G01 X137.914042 Y41.243222 Z-0.249992
G01 X137.896968 Y41.164651 Z-0.249992
G01 X137.597135 Y39.785770 Z-0.249992
G01 X137.275712 Y38.307659 Z-0.249992
G01 X137.120066 Y37.715077 Z-0.249992
G01 X136.942887 Y37.106719 Z-0.249992
G01 X136.396759 Y36.005008 Z-0.249992
G01 X136.055835 Y35.550264 Z-0.249992
G01 X135.541626 Y35.221136 Z-0.249992
G01 X134.736305 Y34.712459 Z-0.249992
G01 X133.859327 Y34.408759 Z-0.249992
G01 X133.613427 Y34.355814 Z-0.249992
G01 X131.987855 Y34.005802 Z-0.249992
G01 X131.022768 Y33.916225 Z-0.249992
G01 X130.071566 Y33.846121 Z-0.249992
G01 X129.535796 Y33.825039 Z-0.249992
G01 X127.588378 Y33.748359 Z-0.249992
G01 X127.034771 Y33.738453 Z-0.249992
G01 X125.095537 Y33.703796 Z-0.249992
G01 X124.587283 Y33.809432 Z-0.249992
G01 X122.672010 Y34.207507 Z-0.249992
G01 X121.938740 Y34.372268 Z-0.249992
G01 X121.196976 Y34.609702 Z-0.249992
G01 X121.153711 Y34.634706 Z-0.249992
G01 X119.889553 Y35.365098 Z-0.249992
G01 X119.369135 Y35.846625 Z-0.249992
G01 X119.045906 Y36.539114 Z-0.249992
G01 X119.043281 Y36.544786 Z-0.249992
G01 X118.458319 Y37.806630 Z-0.249992
G01 X118.464077 Y37.780976 Z-0.249992
G01 X118.158317 Y39.145182 Z-0.249992
G01 X118.159587 Y39.133893 Z-0.249992
G01 X118.001486 Y40.536114 Z-0.249992
G01 X117.844655 Y41.927244 Z-0.249992
G01 X117.844684 Y41.923744 Z-0.249992
G01 X117.836894 Y43.343774 Z-0.249992
G01 X117.839858 Y44.742919 Z-0.249992
G01 X117.831419 Y45.325764 Z-0.249992
G01 X117.802689 Y47.308883 Z-0.249992
G01 X117.834467 Y47.892801 Z-0.249992
G01 X117.942191 Y49.872167 Z-0.249992
G01 X118.071139 Y50.418718 Z-0.249992
G01 X118.528649 Y52.357895 Z-0.249992
G01 X118.675235 Y52.928746 Z-0.249992
G01 X118.858567 Y53.500246 Z-0.249992
G01 X119.415307 Y54.533546 Z-0.249992
G01 X119.759533 Y54.955977 Z-0.249992
G01 X120.260167 Y55.261651 Z-0.249992
G01 X120.341306 Y55.312113 Z-0.249992
G01 X121.578201 Y56.081394 Z-0.249992
G01 X121.644157 Y56.092655 Z-0.249992
G01 X123.143208 Y56.348546 Z-0.249992
G01 X123.218674 Y56.357520 Z-0.249992
G00 Z5.000000

G00 Z5.000000
G00 X102.584984 Y53.337178

G01 Z-0.249992 F100.0(Penetrate)
G01 X100.556371 Y53.269445 Z-0.249992 F400.000000
G01 X100.540595 Y52.423879 Z-0.249992
G01 X100.502890 Y50.402519 Z-0.249992
G01 X100.502438 Y49.791141 Z-0.249992
G01 X100.500943 Y47.768397 Z-0.249992
G01 X100.512796 Y47.156624 Z-0.249992
G01 X100.556681 Y44.893117 Z-0.249992
G01 X101.182791 Y44.888630 Z-0.249992
G01 X102.978797 Y44.875676 Z-0.249992
G01 X103.360926 Y44.877059 Z-0.249992
G01 X105.153489 Y44.883522 Z-0.249992
G01 X105.535928 Y44.884199 Z-0.249992
G01 X107.333740 Y44.887445 Z-0.249992
G01 X108.318724 Y44.921142 Z-0.249992
G01 X109.567614 Y45.028612 Z-0.249992
G01 X110.317281 Y45.920350 Z-0.249992
G01 X111.040729 Y47.050904 Z-0.249992
G01 X110.988998 Y48.441413 Z-0.249992
G01 X110.994896 Y49.646022 Z-0.249992
G01 X110.940004 Y50.582943 Z-0.249992
G01 X110.948442 Y51.719198 Z-0.249992
G01 X110.269303 Y52.581782 Z-0.249992
G01 X109.425007 Y53.305456 Z-0.249992
G01 X108.263945 Y53.299078 Z-0.249992
G01 X107.323524 Y53.314770 Z-0.249992
G01 X106.937754 Y53.308871 Z-0.249992
G01 X105.150921 Y53.281467 Z-0.249992
G01 X104.774747 Y53.293349 Z-0.249992
G01 X102.974649 Y53.350160 Z-0.249992
G01 X102.584984 Y53.337178 Z-0.249992
G00 Z5.000000

G00 Z5.000000
G00 X96.632184 Y49.345991

G01 Z-0.249992 F100.0(Penetrate)
G01 X96.627838 Y54.990436 Z-0.249992 F400.000000
G01 X96.626709 Y56.456044 Z-0.249992
G01 X96.376519 Y56.701944 Z0.000000
G01 X96.626709 Y56.456044 Z-0.249992
G01 X96.923607 Y56.460955 Z-0.249992
G01 X98.334548 Y56.484323 Z-0.249992
G01 X100.284845 Y56.516609 Z-0.249992
G01 X100.825131 Y56.510090 Z-0.249992
G01 X102.236129 Y56.493128 Z-0.249992
G01 X104.195344 Y56.469534 Z-0.249992
G01 X104.737183 Y56.470381 Z-0.249992
G01 X106.148266 Y56.472526 Z-0.249992
G01 X108.097462 Y56.475461 Z-0.249992
G01 X109.069492 Y56.440353 Z-0.249992
G01 X110.091672 Y56.397652 Z-0.249992
G01 X110.367149 Y56.337483 Z-0.249992
G01 X112.020379 Y55.976266 Z-0.249992
G01 X112.883076 Y55.616038 Z-0.249992
G01 X113.585188 Y54.933371 Z-0.249992
G01 X114.317301 Y54.102649 Z-0.249992
G01 X114.655572 Y53.106123 Z-0.249992
G01 X114.713484 Y52.707032 Z-0.249992
G01 X114.974117 Y50.910434 Z-0.249992
G01 X114.938020 Y49.756935 Z-0.249992
G01 X114.912620 Y48.667953 Z-0.249992
G01 X114.862978 Y47.897825 Z-0.249992
G01 X114.807436 Y47.059907 Z-0.249992
G01 X114.783701 Y46.978062 Z-0.249992
G01 X114.367678 Y45.542793 Z-0.249992
G01 X114.015182 Y44.917699 Z-0.249992
G01 X113.326193 Y44.487310 Z-0.249992
G01 X112.668784 Y43.968190 Z-0.249992
G01 X111.720998 Y43.993139 Z-0.249992
G01 X110.276895 Y43.171618 Z-0.249992
G01 X111.924056 Y42.902209 Z-0.249992
G01 X112.868344 Y42.762650 Z-0.249992
G01 X113.539101 Y42.117292 Z-0.249992
G01 X114.381704 Y41.357663 Z-0.249992
G01 X114.671518 Y40.205547 Z-0.249992
G01 X114.681085 Y39.067204 Z-0.249992
G01 X114.682073 Y38.883901 Z-0.249992
G01 X114.690850 Y37.290530 Z-0.249992
G01 X114.689862 Y37.108271 Z-0.249992
G01 X114.681057 Y35.512559 Z-0.249992
G01 X114.681480 Y35.327929 Z-0.249992
G01 X114.684472 Y33.975520 Z-0.249992
G01 X114.935001 Y33.733740 Z0.000000
G01 X114.684472 Y33.975520 Z-0.249992
G01 X114.905875 Y33.761850 Z-0.029069
G01 X113.459374 Y33.934570 Z-0.249992
G01 X113.424576 Y33.933215 Z-0.249992
G01 X111.997180 Y33.878323 Z-0.249992
G01 X111.983888 Y33.879593 Z-0.249992
G01 X110.779024 Y33.995727 Z-0.249992
G01 X110.525278 Y33.769046 Z0.000000
G01 X110.779024 Y33.995727 Z-0.249992
G01 X110.538656 Y33.780984 Z-0.013180
G01 X110.798808 Y35.202594 Z-0.249992
G01 X110.798780 Y35.216084 Z-0.249992
G01 X110.794885 Y36.637779 Z-0.249992
G01 X110.794914 Y36.648362 Z-0.249992
G01 X110.796833 Y38.069718 Z-0.249992
G01 X110.804904 Y39.053573 Z-0.249992
G01 X110.538430 Y40.195303 Z-0.249992
G01 X109.728537 Y40.893125 Z-0.249992
G01 X108.908653 Y41.643272 Z-0.249992
G01 X107.726960 Y41.754383 Z-0.249992
G01 X106.739493 Y41.736659 Z-0.249992
G01 X106.447196 Y41.731720 Z-0.249992
G01 X104.758745 Y41.703272 Z-0.249992
G01 X104.480897 Y41.712360 Z-0.249992
G01 X102.778617 Y41.768042 Z-0.249992
G01 X102.486602 Y41.757939 Z-0.249992
G01 X100.557951 Y41.690968 Z-0.249992
G01 X100.537490 Y40.881554 Z-0.249992
G01 X100.487170 Y38.891746 Z-0.249992
G01 X100.496060 Y38.310820 Z-0.249992
G01 X100.526455 Y36.325330 Z-0.249992
G01 X100.529080 Y35.751855 Z-0.249992
G01 X100.537152 Y33.994937 Z-0.249992
G01 X100.788217 Y33.767071 Z0.000000
G01 X100.537152 Y33.994937 Z-0.249992
G01 X100.755422 Y33.796817 Z-0.032653
G01 X99.316315 Y33.882189 Z-0.249992
G01 X99.299071 Y33.882782 Z-0.249992
G01 X97.855730 Y33.932622 Z-0.249992
G01 X97.826577 Y33.933638 Z-0.249992
G01 X96.628543 Y33.975210 Z-0.249992
G01 X96.378494 Y33.733740 Z0.000000
G01 X96.628543 Y33.975210 Z-0.249992
G01 X96.628571 Y34.034250 Z-0.249992
G01 X96.630011 Y39.678695 Z-0.249992
G01 X96.630462 Y41.390401 Z-0.249992
G01 X96.630547 Y41.690008 Z-0.249992
G01 X96.631958 Y47.334452 Z-0.249992
G01 X96.632410 Y49.045284 Z-0.249992
G01 X96.632184 Y49.345991 Z-0.249992
G00 Z5.000000

G00 Z5.000000
G00 X237.185342 Y56.417662

G01 Z-0.249992 F100.0(Penetrate)
G01 X235.826809 Y56.235262 Z0.000000 F400.000000
G01 X237.185342 Y56.417662 Z-0.249992
G01 X236.199964 Y56.094517 Z-0.249992
G01 X237.801462 Y56.619677 Z-0.249992
G01 X238.088200 Y56.627607 Z-0.249992
G01 X239.818673 Y56.675444 Z-0.249992
G01 X240.116757 Y56.676036 Z-0.249992
G01 X241.828773 Y56.679367 Z-0.249992
G01 X242.130694 Y56.679084 Z-0.249992
G01 X243.841215 Y56.677391 Z-0.249992
G01 X244.162412 Y56.669743 Z-0.249992
G01 X245.859245 Y56.629357 Z-0.249992
G01 X246.118353 Y56.542122 Z-0.249992
G01 X247.751263 Y55.992268 Z-0.249992
G01 X248.572501 Y55.719783 Z-0.249992
G01 X249.274416 Y55.215875 Z-0.249992
G01 X249.691710 Y54.464402 Z-0.249992
G01 X249.736724 Y54.387525 Z-0.249992
G01 X250.458649 Y53.154213 Z-0.249992
G01 X250.458479 Y53.107477 Z-0.249992
G01 X250.453004 Y51.583449 Z-0.249992
G01 X250.451763 Y51.523336 Z-0.249992
G01 X250.426617 Y50.291831 Z-0.249992
G01 X250.671642 Y50.045197 Z0.000000
G01 X250.426617 Y50.291831 Z-0.249992
G01 X250.667267 Y50.049571 Z-0.004459
G01 X249.254999 Y50.275631 Z-0.249992
G01 X249.246363 Y50.275519 Z-0.249992
G01 X247.837538 Y50.261887 Z-0.249992
G01 X247.839401 Y50.261831 Z-0.249992
G01 X246.641142 Y50.303261 Z-0.249992
G01 X246.416803 Y50.060889 Z0.000000
G01 X246.641142 Y50.303261 Z-0.249992
G01 X246.568921 Y50.946135 Z-0.249992
G01 X246.579363 Y51.962079 Z-0.249992
G01 X246.022680 Y52.781144 Z-0.249992
G01 X245.590682 Y53.399295 Z-0.249992
G01 X244.793856 Y53.510209 Z-0.249992
G01 X244.203560 Y53.599052 Z-0.249992
G01 X244.151744 Y53.604555 Z-0.249992
G01 X242.686700 Y53.760060 Z-0.249992
G01 X242.619757 Y53.758846 Z-0.249992
G01 X241.146811 Y53.732148 Z-0.249992
G01 X241.090988 Y53.726363 Z-0.249992
G01 X239.639124 Y53.575825 Z-0.249992
G01 X238.815797 Y53.470161 Z-0.249992
G01 X237.712534 Y53.232163 Z-0.249992
G01 X237.273537 Y52.307152 Z-0.249992
G01 X236.814954 Y51.245375 Z-0.249992
G01 X236.839959 Y50.019430 Z-0.249992
G01 X237.025153 Y48.938293 Z-0.249992
G01 X237.129604 Y48.264685 Z-0.249992
G01 X237.630604 Y47.531133 Z-0.249992
G01 X238.381626 Y47.398065 Z-0.249992
G01 X238.505832 Y47.370351 Z-0.249992
G01 X239.883077 Y47.063011 Z-0.249992
G01 X241.431376 Y46.717486 Z-0.249992
G01 X241.647558 Y46.742915 Z-0.249992
G01 X243.049017 Y46.907732 Z-0.249992
G01 X244.578633 Y47.087621 Z-0.249992
G01 X244.666941 Y47.065241 Z-0.249992
G01 X246.034815 Y46.718587 Z-0.249992
G01 X247.535476 Y46.338293 Z-0.249992
G01 X248.508606 Y46.089147 Z-0.249992
G01 X249.489639 Y45.777178 Z-0.249992
G01 X250.060095 Y44.984642 Z-0.249992
G01 X250.687531 Y44.092538 Z-0.249992
G01 X250.819978 Y42.960460 Z-0.249992
G01 X250.992218 Y41.861176 Z-0.249992
G01 X251.242211 Y41.880649 Z0.000000
G01 X250.992218 Y41.861176 Z-0.249992
G01 X250.992218 Y41.428360 Z-0.249992
G01 X250.992218 Y39.581046 Z-0.249992
G01 X251.242211 Y39.564988 Z0.000000
G01 X250.992218 Y39.581046 Z-0.249992
G01 X250.890929 Y38.795847 Z-0.249992
G01 X250.804032 Y37.957563 Z-0.249992
G01 X250.776149 Y37.856527 Z-0.249992
G01 X250.373164 Y36.396055 Z-0.249992
G01 X250.049963 Y35.713360 Z-0.249992
G01 X249.461445 Y35.174118 Z-0.249992
G01 X248.863980 Y34.712402 Z-0.249992
G01 X248.176882 Y34.444799 Z-0.249992
G01 X248.108613 Y34.428204 Z-0.249992
G01 X246.668743 Y34.078559 Z-0.249992
G01 X245.879791 Y33.992933 Z-0.249992
G01 X245.115646 Y33.902396 Z-0.249992
G01 X244.500006 Y33.862800 Z-0.249992
G01 X242.475034 Y33.732583 Z-0.249992
G01 X241.843872 Y33.720137 Z-0.249992
G01 X239.818137 Y33.680203 Z-0.249992
G01 X239.220221 Y33.773251 Z-0.249992
G01 X237.208372 Y34.086320 Z-0.249992
G01 X236.551754 Y34.199294 Z-0.249992
G01 X235.882012 Y34.360189 Z-0.249992
G01 X234.669331 Y34.923081 Z-0.249992
G01 X234.171350 Y35.294824 Z-0.249992
G01 X233.820068 Y35.862909 Z-0.249992
G01 X233.358070 Y36.614721 Z-0.249992
G01 X233.140308 Y37.433137 Z-0.249992
G01 X233.116912 Y37.612631 Z-0.249992
G01 X232.911143 Y39.191777 Z-0.249992
G01 X232.909224 Y40.099799 Z-0.249992
G01 X232.893109 Y40.732626 Z-0.249992
G01 X232.636682 Y40.982618 Z0.000000
G01 X232.893109 Y40.732626 Z-0.249992
G01 X232.637980 Y40.981348 Z-0.001270
G01 X234.050898 Y40.732626 Z-0.249992
G01 X234.052704 Y40.732626 Z-0.249992
G01 X235.464775 Y40.738496 Z-0.249992
G01 X235.462968 Y40.738468 Z-0.249992
G01 X236.648048 Y40.726981 Z-0.249992
G01 X236.877777 Y40.974772 Z0.000000
G01 X236.648048 Y40.726981 Z-0.249992
G01 X236.716995 Y39.920531 Z-0.249992
G01 X236.605319 Y38.688067 Z-0.249992
G01 X237.265296 Y37.665773 Z-0.249992
G01 X237.966082 Y36.940293 Z-0.249992
G01 X239.020859 Y36.923105 Z-0.249992
G01 X239.838485 Y36.833330 Z-0.249992
G01 X239.984564 Y36.826360 Z-0.249992
G01 X241.556513 Y36.751430 Z-0.249992
G01 X241.681227 Y36.745221 Z-0.249992
G01 X243.265482 Y36.667017 Z-0.249992
G01 X243.432049 Y36.693122 Z-0.249992
G01 X244.965475 Y36.933435 Z-0.249992
G01 X245.772575 Y37.047565 Z-0.249992
G01 X246.688865 Y37.559686 Z-0.249992
G01 X246.920880 Y38.454612 Z-0.249992
G01 X247.257741 Y39.649682 Z-0.249992
G01 X247.305380 Y41.012026 Z-0.249992
G01 X246.933693 Y42.218836 Z-0.249992
G01 X246.764191 Y42.739846 Z-0.249992
G01 X246.347743 Y43.078400 Z-0.249992
G01 X245.493033 Y43.452006 Z-0.249992
G01 X244.998495 Y43.534358 Z-0.249992
G01 X244.586790 Y43.597153 Z-0.249992
G01 X244.572509 Y43.598733 Z-0.249992
G01 X243.169921 Y43.753589 Z-0.249992
G01 X241.738829 Y43.911605 Z-0.249992
G01 X241.682017 Y43.909037 Z-0.249992
G01 X240.272374 Y43.845057 Z-0.249992
G01 X238.864452 Y43.781134 Z-0.249992
G01 X238.881639 Y43.776449 Z-0.249992
G01 X237.519889 Y44.146357 Z-0.249992
G01 X236.138552 Y44.521572 Z-0.249992
G01 X235.233945 Y44.775318 Z-0.249992
G01 X234.334842 Y45.110711 Z-0.249992
G01 X233.850830 Y45.881516 Z-0.249992
G01 X233.163196 Y46.990762 Z-0.249992
G01 X233.168078 Y46.932935 Z-0.249992
G01 X233.048981 Y48.336934 Z-0.249992
G01 X232.978820 Y49.658101 Z-0.249992
G01 X232.976562 Y49.776832 Z-0.249992
G01 X232.947663 Y51.303146 Z-0.249992
G01 X232.954493 Y51.468105 Z-0.249992
G01 X233.017428 Y52.990412 Z-0.249992
G01 X233.058125 Y53.062604 Z-0.249992
G01 X233.822157 Y54.418117 Z-0.249992
G01 X234.255057 Y55.214210 Z-0.249992
G01 X235.033003 Y55.711514 Z-0.249992
G01 X235.958551 Y56.252957 Z-0.024243
G01 X237.185342 Y56.417662 Z-0.249992
G00 Z5.000000


(Footer)
M5
G00 X0.0000 Y0.0000
M2
(Using default footer. To add your own footer create file "footer" in the output dir.)
(end)
%