%
(Header)
(Generated by gcodetools from Inkscape.)
(Using default header. To add your own header create file "header" in the output dir.)
M3
(Header end.)
G21 (All units in mm)
(Tool diameter should be at least 5.74447972909 mm)
(Depth, as a function of radius w, must be 10)
(Rapid feeds use safe Z=5.0 mm)
(Material surface at Z=0.0 mm)
(Change tool to Cylindrical cutter)

G00 Z5.000000
G00 X357.962879 Y134.778817

G01 Z-1.283603 F100.0(Penetrate)
G01 X357.962879 Y134.778817 Z-1.283603 F400.000000
G01 X357.959606 Y134.775797 Z-1.280329
G01 X356.385088 Y134.915525 Z-1.280329
G01 X354.980553 Y135.052121 Z-1.292239
G01 X353.578924 Y135.221483 Z-1.337056
G01 X351.834650 Y135.432246 Z-1.392823
G01 X351.673247 Y135.459311 Z-1.390509
G01 X350.285983 Y135.717686 Z-1.395871
G01 X348.904788 Y136.009447 Z-1.435185
G01 X347.377712 Y136.332027 Z-1.478675
G01 X347.341926 Y136.341594 Z-1.477744
G01 X344.614615 Y137.070800 Z-1.406596
G01 X343.250945 Y137.435403 Z-1.371007
G01 X341.899694 Y137.842085 Z-1.379305
G01 X340.555780 Y138.273688 Z-1.413595
G01 X339.186381 Y138.713503 Z-1.448562
G01 X338.696669 Y138.924125 Z-1.447066
G01 X337.413658 Y139.512389 Z-1.476671
G01 X335.661877 Y140.315594 Z-1.517086
G01 X335.312345 Y140.506461 Z-1.497584
G01 X334.072373 Y141.183625 Z-1.428440
G01 X332.391288 Y142.105616 Z-1.338044
G01 X331.221167 Y142.846704 Z-1.359831
G01 X330.261526 Y143.403077 Z-1.420707
G01 X329.941853 Y143.544385 Z-1.477800
G01 X328.296441 Y144.355069 Z-1.852366
G01 X327.099678 Y143.867050 Z-1.314704
G01 X325.672932 Y143.218955 Z-0.709704
G01 X325.217735 Y143.228240 Z-0.732621
G01 X323.400365 Y143.269106 Z-0.827984
G01 X322.880484 Y143.337883 Z-0.848812
G01 X320.952003 Y143.592984 Z-0.926084
G01 X320.455631 Y143.681574 Z-0.923375
G01 X319.066448 Y143.929562 Z-0.915783
G01 X317.677435 Y144.178398 Z-0.909066
G01 X315.800685 Y144.574045 Z-0.958427
G01 X315.173249 Y144.733726 Z-0.948238
G01 X313.188775 Y145.293006 Z-0.968276
G01 X312.620888 Y145.493299 Z-0.967486
G01 X311.290153 Y145.962719 Z-0.965623
G01 X309.959391 Y146.432140 Z-0.963732
G01 X308.066696 Y147.115936 Z-0.976320
G01 X307.490850 Y147.365815 Z-0.971494
G01 X305.637609 Y148.202435 Z-0.985548
G01 X305.274192 Y148.405014 Z-0.987326
G01 X302.809037 Y149.779098 Z-0.999377
G01 X301.316843 Y150.824336 Z-1.193574
G01 X301.026832 Y151.199945 Z-1.338665
G01 X299.482060 Y152.189021 Z-1.278213
G01 X299.103346 Y152.196641 Z-1.028333
G01 X297.723308 Y153.331231 Z-0.934805
G01 X297.257754 Y153.797575 Z-0.964974
G01 X296.259760 Y154.797263 Z-1.029631
G01 X294.589230 Y156.746007 Z-1.341148
G01 X294.589230 Y156.746007 Z-1.341148
G01 X293.461611 Y157.470330 Z-2.002254
G01 X292.025749 Y157.060403 Z-1.513840
G01 X290.601712 Y156.865020 Z-1.240310
G01 X289.190093 Y156.894795 Z-1.192276
G01 X287.097415 Y157.057326 Z-1.239294
G01 X286.579679 Y157.097092 Z-1.250470
G01 X285.172293 Y157.203913 Z-1.279624
G01 X283.274151 Y157.347987 Z-1.318909
G01 X283.019756 Y157.372569 Z-1.318937
G01 X280.210600 Y157.643812 Z-1.319304
G01 X278.580965 Y157.834905 Z-1.353086
G01 X278.337068 Y157.880315 Z-1.355400
G01 X276.653471 Y158.193779 Z-1.371261
G01 X276.211765 Y158.276018 Z-1.375410
G01 X274.824417 Y158.534308 Z-1.388477
G01 X273.048336 Y158.903483 Z-1.443115
G01 X272.549988 Y159.033446 Z-1.450820
G01 X271.184400 Y159.389554 Z-1.471874
G01 X269.313803 Y159.877347 Z-1.500745
G01 X268.891796 Y159.999606 Z-1.495524
G01 X266.180797 Y160.784805 Z-1.461939
G01 X264.825284 Y161.177432 Z-1.445147
G01 X263.472141 Y161.577793 Z-1.436455
G01 X261.712768 Y162.158747 Z-1.482965
G01 X261.157383 Y162.358278 Z-1.482457
G01 X259.829358 Y162.835375 Z-1.481272
G01 X257.951677 Y163.530883 Z-1.499306
G01 X257.568955 Y163.695080 Z-1.503257
G01 X254.975192 Y164.807770 Z-1.530124
G01 X252.381429 Y165.920459 Z-1.556964
G01 X250.705283 Y166.639505 Z-1.574320
G01 X250.255759 Y166.846458 Z-1.566079
G01 X248.973765 Y167.436613 Z-1.542542
G01 X247.274364 Y168.286921 Z-1.572655
G01 X247.218455 Y168.317372 Z-1.572062
G01 X244.740065 Y169.667608 Z-1.546211
G01 X243.516208 Y170.370285 Z-1.564838
G01 X242.307394 Y171.099971 Z-1.614368
G01 X241.052718 Y171.857370 Z-1.665817
G01 X240.859537 Y171.983241 Z-1.665986
G01 X239.677224 Y172.753539 Z-1.667058
G01 X238.319622 Y173.638023 Z-1.668300
G01 X238.310760 Y173.644430 Z-1.667792
G01 X237.164768 Y174.470381 Z-1.602401
G01 X235.953386 Y175.357970 Z-1.544574
G01 X235.465396 Y175.749920 Z-1.548243
G01 X233.932901 Y176.980804 Z-1.559729
G01 X233.983870 Y176.935875 Z-1.562439
G01 X232.924436 Y177.869691 Z-1.506079
G01 X231.957712 Y178.822135 Z-1.527217
G01 X231.941117 Y178.840536 Z-1.527189
G01 X230.050200 Y180.935613 Z-1.523182
G01 X229.104728 Y181.983165 Z-1.521178
G01 X228.140318 Y183.051715 Z-1.519146
G01 X228.119349 Y183.076692 Z-1.517932
G01 X227.211270 Y184.158054 Z-1.465524
G01 X226.316965 Y185.298317 Z-1.460190
G01 X226.249880 Y185.394470 Z-1.458496
G01 X224.635033 Y187.709398 Z-1.417320
G01 X223.828047 Y188.867158 Z-1.397310
G01 X223.016009 Y190.163376 Z-1.450622
G01 X222.997213 Y190.195691 Z-1.450679
G01 X222.288468 Y191.415907 Z-1.452654
G01 X221.562706 Y192.665389 Z-1.454686
G01 X221.550062 Y192.689124 Z-1.453783
G01 X220.885005 Y193.934627 Z-1.405269
G01 X220.227682 Y195.183912 Z-1.365363
G01 X219.598862 Y196.447223 Z-1.357235
G01 X218.985537 Y197.747703 Z-1.379389
G01 X219.005067 Y197.700092 Z-1.379841
G01 X218.469381 Y199.005624 Z-1.366943
G01 X217.957006 Y200.254316 Z-1.354582
G01 X217.771614 Y200.783511 Z-1.327263
G01 X217.179456 Y202.728954 Z-1.312644
G01 X217.063716 Y203.203426 Z-1.336548
G01 X216.601860 Y205.096375 Z-1.431911
G01 X216.462414 Y205.593030 Z-1.473369
G01 X215.852955 Y207.642048 Z-1.612477
G01 X215.512538 Y208.347462 Z-1.782177
G01 X215.159817 Y209.060214 Z-1.946797
G01 X214.864359 Y209.495345 Z-2.124936
G01 X213.676034 Y210.260562 Z-2.045010
G01 X212.085006 Y210.911536 Z-1.635816
G01 X211.723169 Y211.051377 Z-1.550896
G01 X210.512040 Y211.778805 Z-1.482259
G01 X209.047617 Y212.750609 Z-1.475966
G01 X208.745978 Y212.955361 Z-1.478478
G01 X207.578453 Y213.747982 Z-1.488271
G01 X206.135818 Y214.727321 Z-1.500350
G01 X205.895506 Y214.898066 Z-1.496088
G01 X204.751405 Y215.724130 Z-1.486380
G01 X203.400802 Y216.764119 Z-1.527274
G01 X202.991862 Y217.117969 Z-1.547170
G01 X201.924046 Y218.041937 Z-1.599156
G01 X200.906381 Y219.028360 Z-1.731264
G01 X199.986450 Y220.136505 Z-2.019441
G01 X198.093867 Y220.897602 Z-1.428073
G01 X197.876923 Y220.980858 Z-1.347047
G01 X196.809022 Y221.903386 Z-1.332540
G01 X195.575316 Y222.969142 Z-1.315805
G01 X195.290046 Y223.241204 Z-1.312136
G01 X193.270887 Y225.213006 Z-1.319276
G01 X192.261322 Y226.198921 Z-1.322832
G01 X190.970945 Y227.459015 Z-1.327404
G01 X190.869374 Y227.563324 Z-1.324102
G01 X189.905895 Y228.594310 Z-1.320998
G01 X188.848465 Y229.734686 Z-1.323650
G01 X188.681333 Y229.924762 Z-1.317385
G01 X187.759313 Y230.993199 Z-1.295626
G01 X185.977164 Y233.181889 Z-1.332766
G01 X184.927806 Y234.470628 Z-1.354667
G01 X184.881352 Y234.530996 Z-1.353566
G01 X184.020772 Y235.649499 Z-1.333274
G01 X183.163324 Y236.862405 Z-1.371995
G01 X183.139815 Y236.898219 Z-1.372108
G01 X182.365425 Y238.077852 Z-1.375749
G01 X181.551863 Y239.330608 Z-1.387009
G01 X181.451025 Y239.495708 Z-1.393783
G01 X180.714905 Y240.700628 Z-1.443313
G01 X179.846592 Y242.121927 Z-1.501704
G01 X179.752725 Y242.262587 Z-1.514404
G01 X178.181876 Y244.616800 Z-1.726636
G01 X177.425182 Y245.816413 Z-1.869271
G01 X176.595646 Y247.181071 Z-2.056158
G01 X176.240610 Y247.724800 Z-2.152932
G01 X175.354828 Y248.825580 Z-2.224165
G01 X173.496451 Y249.830686 Z-1.505712
G01 X172.957943 Y250.121939 Z-1.297545
G01 X171.933448 Y251.099077 Z-1.182963
G01 X170.574661 Y252.549135 Z-1.133546
G01 X170.104394 Y253.057841 Z-1.120676
G01 X168.188161 Y255.130481 Z-1.068155
G01 X166.786589 Y256.699269 Z-1.064853
G01 X166.763757 Y256.726645 Z-1.065982
G01 X165.859038 Y257.810463 Z-1.110290
G01 X164.931260 Y258.921910 Z-1.155756
G01 X164.908203 Y258.949512 Z-1.156885
G01 X164.003483 Y260.033330 Z-1.201222
G01 X163.092187 Y261.125022 Z-1.245870
G01 X163.020193 Y261.214994 Z-1.247112
G01 X161.256642 Y263.418585 Z-1.277479
G01 X160.305158 Y264.607475 Z-1.293876
G01 X159.953199 Y265.068344 Z-1.286933
G01 X158.769305 Y266.705797 Z-1.315692
G01 X158.432275 Y267.214474 Z-1.349276
G01 X157.280159 Y268.953302 Z-1.464112
G01 X157.123159 Y269.169682 Z-1.490162
G01 X156.276351 Y270.304751 Z-1.609429
G01 X155.342732 Y271.362859 Z-1.612674
G01 X154.196628 Y272.581268 Z-1.563257
G01 X154.065846 Y272.699407 Z-1.556625
G01 X153.018068 Y273.646093 Z-1.503398
G01 X151.881926 Y274.672592 Z-1.445683
G01 X151.793590 Y274.752404 Z-1.441196
G01 X150.781823 Y275.736061 Z-1.439587
G01 X149.769125 Y276.801845 Z-1.496145
G01 X149.637892 Y276.951734 Z-1.495721
G01 X148.833502 Y278.122504 Z-1.658535
G01 X148.014409 Y279.336370 Z-1.838593
G01 X147.626664 Y280.089255 Z-1.843052
G01 X147.190150 Y280.995131 Z-1.875000
G01 X146.265167 Y281.971310 Z-1.889901
G01 X145.488322 Y282.397607 Z-1.793776
G01 X143.566699 Y283.452186 Z-1.556032
G01 X143.266556 Y283.600297 Z-1.534245
G01 X141.760703 Y284.397179 Z-1.471450
G01 X141.127848 Y284.731556 Z-1.469136
G01 X139.269584 Y285.713407 Z-1.462363
G01 X138.667491 Y286.031528 Z-1.460161
G01 X137.419815 Y286.690743 Z-1.455618
G01 X135.598578 Y287.653036 Z-1.448985
G01 X135.609246 Y287.647081 Z-1.449296
G01 X134.390385 Y288.358196 Z-1.441281
G01 X133.173584 Y289.072811 Z-1.437330
G01 X131.966576 Y289.786438 Z-1.437527
G01 X131.982154 Y289.776419 Z-1.437555
G01 X129.609032 Y291.303919 Z-1.431572
G01 X127.235910 Y292.831419 Z-1.425561
G01 X126.049363 Y293.595168 Z-1.422569
G01 X124.890785 Y294.367272 Z-1.441789
G01 X124.342907 Y294.752929 Z-1.440801
G01 X123.188985 Y295.565164 Z-1.438769
G01 X121.504174 Y296.785888 Z-1.464282
G01 X121.091424 Y297.102259 Z-1.463294
G01 X118.851455 Y298.819045 Z-1.457875
G01 X117.731456 Y299.677452 Z-1.455166
G01 X116.613743 Y300.538851 Z-1.456238
G01 X115.107608 Y301.743658 Z-1.492560
G01 X114.703296 Y302.081929 Z-1.490895
G01 X113.625998 Y302.993338 Z-1.494169
G01 X112.169449 Y304.264241 Z-1.528149
G01 X112.079787 Y304.346509 Z-1.527217
G01 X110.000430 Y306.254811 Z-1.506022
G01 X108.960751 Y307.208948 Z-1.495411
G01 X107.935833 Y308.178945 Z-1.506446
G01 X106.833445 Y309.236150 Z-1.528516
G01 X106.646106 Y309.426424 Z-1.524677
G01 X105.667895 Y310.443440 Z-1.520952
G01 X104.527859 Y311.656375 Z-1.535740
G01 X104.477962 Y311.713609 Z-1.533567
G01 X103.550297 Y312.777728 Z-1.493294
G01 X102.534946 Y313.942431 Z-1.449211
G01 X102.238952 Y314.281973 Z-1.436342
G01 X101.323846 Y315.356393 Z-1.412296
G01 X100.152455 Y316.770439 Z-1.406144
G01 X100.039876 Y316.911409 Z-1.402306
G01 X99.178223 Y318.028924 Z-1.396407
G01 X98.229110 Y319.288651 Z-1.407386
G01 X98.221603 Y319.299207 Z-1.407104
G01 X96.586831 Y321.600531 Z-1.347583
G01 X95.786674 Y322.762892 Z-1.338636
G01 X95.004100 Y323.941819 Z-1.353510
G01 X94.737570 Y324.376384 Z-1.340584
G01 X93.792859 Y326.031561 Z-1.352240
G01 X93.728089 Y326.160509 Z-1.347244
G01 X92.460657 Y328.684027 Z-1.249426
G01 X91.795826 Y330.085091 Z-1.230404
G01 X91.688582 Y330.364604 Z-1.216547
G01 X91.088577 Y331.969545 Z-1.151918
G01 X91.104100 Y331.909714 Z-1.154910
G01 X90.394706 Y334.644758 Z-1.017919
G01 X90.052765 Y335.963074 Z-0.951907
G01 X90.002756 Y336.261496 Z-0.928737
G01 X89.778050 Y337.977943 Z-0.858125
G01 X89.752001 Y338.369837 Z-0.832076
G01 X89.752001 Y340.211196 Z-0.832076
G01 X89.752001 Y340.433531 Z-0.832076
G01 X89.752001 Y342.077532 Z-0.832076
G01 X89.832096 Y343.232978 Z-0.941465
G01 X89.820666 Y343.455594 Z-0.997910
G01 X89.795859 Y345.373464 Z-1.554367
G01 X89.040321 Y346.112576 Z-1.495778
G01 X88.086495 Y346.894839 Z-1.393642
G01 X87.680518 Y347.266469 Z-1.377950
G01 X85.471819 Y349.415789 Z-1.384074
G01 X85.471819 Y349.415789 Z-1.384074
G01 X85.452092 Y349.195289 Z-1.212032
G01 X84.588633 Y348.615379 Z-1.212032
G01 X83.502754 Y347.701261 Z-1.058587
G01 X82.282708 Y346.881377 Z-1.058164
G01 X81.358232 Y346.289501 Z-1.082266
G01 X80.728284 Y345.966413 Z-1.095389
G01 X80.700598 Y345.958793 Z-1.096320
G01 X79.318810 Y345.579063 Z-1.143621
G01 X78.651439 Y345.507717 Z-1.142548
G01 X77.604197 Y345.481922 Z-1.115963
G01 X76.733739 Y345.460473 Z-1.093893
G01 X76.108617 Y345.471056 Z-1.065248
G01 X76.158711 Y345.459739 Z-1.066094
G01 X74.828683 Y345.760334 Z-1.043601
G01 X74.283316 Y345.993732 Z-1.039424
G01 X74.318876 Y345.950044 Z-1.021898
G01 X73.186686 Y346.798376 Z-1.123244
G01 X72.124994 Y347.609680 Z-1.231533
G01 X71.700898 Y347.997566 Z-1.227384
G01 X70.166202 Y349.401339 Z-1.212342
G01 X69.942005 Y349.611595 Z-1.206302
G01 X68.912486 Y350.577077 Z-1.178504
G01 X67.882996 Y351.542559 Z-1.150733
G01 X66.618302 Y352.728626 Z-1.116612
G01 X66.581105 Y352.763509 Z-1.115596
G01 X65.551615 Y353.728991 Z-1.087826
G01 X64.518907 Y354.728651 Z-1.082266
G01 X64.107032 Y355.170357 Z-1.083169
G01 X62.736617 Y356.640085 Z-1.086189
G01 X62.550661 Y356.851018 Z-1.078738
G01 X61.630476 Y357.921036 Z-1.058700
G01 X60.747882 Y359.022436 Z-1.087628
G01 X59.694290 Y360.337197 Z-1.122144
G01 X59.481974 Y360.621423 Z-1.117346
G01 X58.429539 Y362.030248 Z-1.093639
G01 X58.130045 Y362.468115 Z-1.064373
G01 X57.332175 Y363.634625 Z-0.986423
G01 X56.323371 Y365.287374 Z-0.980017
G01 X56.257275 Y365.411863 Z-0.973554
G01 X55.531512 Y366.778693 Z-0.902857
G01 X55.463525 Y366.928497 Z-0.885162
G01 X55.009175 Y368.264537 Z-0.871728
G01 X54.506368 Y369.748574 Z-0.858605
G01 X54.511392 Y369.729129 Z-0.860242
G01 X54.162763 Y371.081368 Z-0.744869
G01 X54.173290 Y371.019054 Z-0.755396
G01 X54.086055 Y372.431124 Z-0.668161
G01 X54.393338 Y373.482826 Z-0.975445
G01 X54.653491 Y374.513614 Z-1.364911
G01 X54.670283 Y374.795582 Z-1.475514
G01 X53.725996 Y376.181688 Z-1.052153
G01 X53.127177 Y377.029061 Z-0.964551
G01 X52.359476 Y378.016076 Z-0.916234
G01 X51.530025 Y379.108756 Z-0.879348
G01 X51.185967 Y379.709946 Z-0.905792
G01 X51.154754 Y379.788968 Z-0.896874
G01 X50.695352 Y381.247662 Z-0.845086
G01 X50.601429 Y382.183708 Z-0.789206
G01 X50.587289 Y382.360690 Z-0.775067
G01 X50.590027 Y383.964813 Z-0.777804
G01 X50.603799 Y384.148822 Z-0.791577
G01 X50.808523 Y385.721449 Z-0.996301
G01 X50.969729 Y386.638643 Z-1.115935
G01 X51.012655 Y386.785934 Z-1.118870
G01 X51.483853 Y388.253095 Z-1.190244
G01 X51.830563 Y388.938302 Z-1.156857
G01 X51.845888 Y388.966468 Z-1.154543
G01 X52.601820 Y390.236383 Z-1.104844
G01 X52.759893 Y390.496423 Z-1.097421
G01 X53.618695 Y391.909171 Z-1.057176
G01 X53.693314 Y392.017008 Z-1.046254
G01 X54.624365 Y393.232850 Z-0.992322
G01 X54.647451 Y393.258701 Z-0.988568
G01 X55.647760 Y394.256611 Z-0.916799
G01 X56.670335 Y395.257907 Z-0.857363
G01 X57.558771 Y395.868551 Z-0.774587
G01 X58.446191 Y396.188365 Z-0.643297
G01 X59.687206 Y396.473805 Z-0.618067
G01 X60.693300 Y396.606139 Z-0.816977
G01 X60.893198 Y396.658040 Z-0.908953
G01 X62.442570 Y397.465562 Z-1.315974
G01 X62.727050 Y398.568628 Z-1.080939
G01 X63.107796 Y399.788110 Z-1.041795
G01 X63.114569 Y399.808289 Z-1.041598
G01 X63.631629 Y401.012390 Z-1.136255
G01 X63.590086 Y400.942907 Z-1.137412
G01 X64.280147 Y402.097083 Z-1.118193
G01 X64.267673 Y402.080234 Z-1.120563
G01 X65.200051 Y403.140261 Z-1.078738
G01 X66.212410 Y404.096825 Z-1.166001
G01 X66.183059 Y404.074614 Z-1.166650
G01 X67.278589 Y404.902964 Z-1.142125
G01 X67.248702 Y404.884648 Z-1.146189
G01 X68.579069 Y405.554192 Z-1.097562
G01 X69.671184 Y405.971063 Z-1.178080
G01 X70.601361 Y406.246370 Z-1.172295
G01 X70.953856 Y406.315261 Z-1.136198
G01 X72.722515 Y406.454255 Z-1.160865
G01 X73.729794 Y406.329513 Z-1.194957
G01 X74.275894 Y406.215777 Z-1.167892
G01 X76.213970 Y405.750647 Z-1.131401
G01 X76.201948 Y405.755501 Z-1.131429
G01 X77.518063 Y405.226447 Z-1.128607
G01 X77.809514 Y405.092928 Z-1.112774
G01 X79.081772 Y404.480957 Z-1.069538
G01 X80.631426 Y403.674620 Z-1.070949
G01 X80.876028 Y403.536134 Z-1.061212
G01 X82.362436 Y402.694491 Z-1.002058
G01 X82.758760 Y402.457960 Z-0.975558
G01 X84.368471 Y401.455846 Z-0.902236
G01 X84.832275 Y401.145486 Z-0.898991
G01 X86.474921 Y400.016569 Z-0.912199
G01 X86.645101 Y399.876276 Z-0.944400
G01 X87.954246 Y398.796804 Z-1.192191
G01 X88.064990 Y398.716371 Z-1.220442
G01 X89.223314 Y397.849723 Z-1.539155
G01 X90.558141 Y397.378045 Z-1.425279
G01 X92.077061 Y397.054110 Z-1.101372
G01 X92.697611 Y396.918700 Z-1.025483
G01 X94.606534 Y396.301508 Z-0.981541
G01 X95.216585 Y396.111883 Z-0.974796
G01 X96.564168 Y395.693009 Z-0.959922
G01 X98.511191 Y395.087840 Z-0.938445
G01 X98.621004 Y395.053691 Z-0.937232
G01 X99.968615 Y394.634817 Z-0.922330
G01 X101.411871 Y394.186225 Z-0.906413
G01 X101.945187 Y394.010823 Z-0.891314
G01 X103.809857 Y393.397611 Z-0.838510
G01 X103.857440 Y393.380395 Z-0.835632
G01 X105.178804 Y392.881427 Z-0.774728
G01 X106.456396 Y392.280180 Z-0.825133
G01 X107.769266 Y391.662339 Z-0.876893
G01 X107.923387 Y391.581793 Z-0.875848
G01 X109.311638 Y390.852503 Z-0.869865
G01 X109.425854 Y390.766764 Z-0.874663
G01 X110.554912 Y389.918996 Z-0.922359
G01 X111.777301 Y388.998303 Z-0.976320
G01 X111.721618 Y389.050542 Z-0.977533
G01 X112.657383 Y388.110714 Z-1.001409
G01 X113.032682 Y387.660485 Z-0.962632
G01 X114.312249 Y386.107952 Z-0.840712
G01 X114.961417 Y385.018913 Z-0.732508
G01 X114.965848 Y385.009007 Z-0.731520
G01 X115.544883 Y383.657050 Z-0.622018
G01 X115.662062 Y382.363851 Z-0.930402
G01 X115.407441 Y381.060379 Z-1.672054
G01 X115.671996 Y380.803980 Z-1.681565
G01 X117.146184 Y379.964736 Z-1.300762
G01 X118.178411 Y379.583623 Z-1.266980
G01 X118.236775 Y379.561356 Z-1.268786
G01 X119.585092 Y379.047147 Z-1.310753
G01 X119.604734 Y379.039668 Z-1.311374
G01 X120.928780 Y378.370322 Z-1.507829
G01 X121.916642 Y377.672753 Z-1.900315
G01 X122.384680 Y377.752396 Z-1.799138
G01 X124.189858 Y378.036114 Z-1.432278
G01 X125.373187 Y378.344611 Z-1.306520
G01 X125.581862 Y378.398346 Z-1.292380
G01 X127.149099 Y378.741246 Z-1.245926
G01 X127.817655 Y378.879451 Z-1.234017
G01 X129.796851 Y379.216311 Z-1.269831
G01 X129.747857 Y379.211344 Z-1.272314
G01 X131.153578 Y379.353386 Z-1.201618
G01 X132.560315 Y379.475222 Z-1.151156
G01 X133.969733 Y379.558393 Z-1.139416
G01 X134.075453 Y379.561243 Z-1.135154
G01 X135.486705 Y379.563501 Z-1.114072
G01 X138.308871 Y379.539710 Z-1.100187
G01 X139.719813 Y379.517612 Z-1.103461
G01 X141.130275 Y379.460405 Z-1.141815
G01 X142.645498 Y379.381185 Z-1.200799
G01 X142.721669 Y379.373565 Z-1.202690
G01 X145.530712 Y379.092416 Z-1.272145
G01 X146.971315 Y378.948200 Z-1.307790
G01 X147.020845 Y378.940270 Z-1.306040
G01 X148.409633 Y378.689374 Z-1.285438
G01 X149.922033 Y378.406192 Z-1.272709
G01 X150.466214 Y378.295815 Z-1.276435
G01 X153.227194 Y377.709329 Z-1.321477
G01 X155.082354 Y377.315234 Z-1.351732
G01 X155.309966 Y377.254415 Z-1.343293
G01 X158.038293 Y376.525407 Z-1.242116
G01 X159.390137 Y376.120672 Z-1.233593
G01 X160.981701 Y375.618712 Z-1.247930
G01 X161.499720 Y375.433207 Z-1.231561
G01 X164.157915 Y374.481412 Z-1.147600
G01 X165.466833 Y373.954052 Z-1.160921
G01 X168.080606 Y372.888889 Z-1.198739
G01 X170.694379 Y371.823726 Z-1.236557
G01 X172.510169 Y371.083767 Z-1.262832
G01 X172.749211 Y370.975507 Z-1.256312
G01 X175.320905 Y369.810917 Z-1.186152
G01 X176.588167 Y369.190197 Z-1.193744
G01 X178.069918 Y368.443973 Z-1.221034
G01 X178.506742 Y368.195025 Z-1.203396
G01 X180.960156 Y366.796671 Z-1.104392
G01 X182.638927 Y365.753408 Z-1.110234
G01 X182.942231 Y365.561299 Z-1.114354
G01 X185.326586 Y364.051072 Z-1.146838
G01 X186.518777 Y363.295958 Z-1.163094
G01 X187.972842 Y362.374982 Z-1.182906
G01 X188.021441 Y362.341313 Z-1.181128
G01 X189.181798 Y361.537205 Z-1.138964
G01 X190.332276 Y360.719692 Z-1.113423
G01 X192.614410 Y359.059238 Z-1.094006
G01 X193.754729 Y358.227981 Z-1.085568
G01 X194.883307 Y357.380834 Z-1.096885
G01 X196.053965 Y356.502107 Z-1.108625
G01 X196.409622 Y356.206225 Z-1.089208
G01 X198.581124 Y354.399693 Z-0.970619
G01 X200.059856 Y353.159072 Z-0.897580
G01 X200.393640 Y352.867480 Z-0.889649
G01 X201.833820 Y351.609333 Z-0.855500
G01 X202.200370 Y351.330328 Z-0.878332
G01 X203.944475 Y350.198674 Z-0.825415
G01 X204.737858 Y350.324262 Z-0.715885
G01 X204.746777 Y350.325307 Z-0.715010
G01 X206.226496 Y350.499748 Z-0.570484
G01 X206.378388 Y350.517105 Z-0.589647
G01 X207.937637 Y350.080733 Z-1.383651
G01 X209.334355 Y350.309615 Z-1.492843
G01 X210.660630 Y350.826646 Z-1.305391
G01 X212.105185 Y351.389792 Z-1.101203
G01 X212.325516 Y351.484337 Z-1.077637
G01 X213.642703 Y351.999026 Z-0.984758
G01 X214.976090 Y352.462491 Z-0.945614
G01 X216.516572 Y352.939954 Z-0.955689
G01 X216.687683 Y352.992984 Z-0.956790
G01 X218.174656 Y353.441604 Z-0.978182
G01 X219.406245 Y353.706555 Z-1.001804
G01 X220.027304 Y353.790516 Z-0.975558
G01 X221.430597 Y353.940235 Z-0.956084
G01 X223.495194 Y354.160509 Z-0.927439
G01 X223.486756 Y354.159888 Z-0.927834
G01 X224.896032 Y354.247857 Z-0.877655
G01 X226.322186 Y354.313643 Z-0.850053
G01 X226.578613 Y354.323747 Z-0.843393
G01 X227.989301 Y354.365431 Z-0.820476
G01 X229.400045 Y354.403390 Z-0.801314
G01 X231.072974 Y354.448376 Z-0.778595
G01 X231.570701 Y354.461753 Z-0.771821
G01 X234.392161 Y354.537643 Z-0.733524
G01 X236.302918 Y354.568320 Z-0.728274
G01 X236.984993 Y354.578988 Z-0.730504
G01 X239.150315 Y354.002973 Z-1.347385
G01 X239.647223 Y353.834458 Z-1.570426
G01 X241.099878 Y353.544531 Z-2.021022
G01 X243.077663 Y354.243652 Z-1.547566
G01 X244.141358 Y354.774173 Z-1.467189
G01 X244.238415 Y354.826074 Z-1.462871
G01 X245.543946 Y355.524263 Z-1.404761
G01 X245.652094 Y355.582091 Z-1.399963
G01 X246.997504 Y356.256602 Z-1.380575
G01 X246.974954 Y356.246329 Z-1.380998
G01 X248.208801 Y356.795505 Z-1.369512
G01 X248.813914 Y357.000314 Z-1.362908
G01 X250.756647 Y357.657835 Z-1.341684
G01 X250.695574 Y357.640366 Z-1.345353
G01 X252.000937 Y357.993482 Z-1.287328
G01 X252.302294 Y358.046907 Z-1.272709
G01 X253.694016 Y358.287925 Z-1.210931
G01 X255.093725 Y358.467079 Z-1.211524
G01 X256.783079 Y358.683318 Z-1.212229
G01 X256.763211 Y358.681991 Z-1.213443
G01 X258.173927 Y358.752829 Z-1.150987
G01 X259.584841 Y358.788982 Z-1.123160
G01 X261.035943 Y358.798944 Z-1.121805
G01 X261.101023 Y358.798323 Z-1.121184
G01 X262.512134 Y358.784890 Z-1.107750
G01 X265.334356 Y358.758022 Z-1.080883
G01 X266.744762 Y358.708407 Z-1.103658
G01 X268.233823 Y358.635820 Z-1.147882
G01 X268.483533 Y358.623628 Z-1.155305
G01 X269.888915 Y358.309289 Z-1.442833
G01 X271.298248 Y358.202270 Z-1.523012
G01 X272.713621 Y358.412469 Z-1.285889
G01 X274.127131 Y358.525302 Z-1.146189
G01 X275.537424 Y358.469563 Z-1.175060
G01 X276.947321 Y358.391528 Z-1.226227
G01 X278.356908 Y358.297689 Z-1.293199
G01 X279.765141 Y358.133662 Z-1.430415
G01 X282.131969 Y358.159372 Z-1.359634
G01 X282.130417 Y358.162533 Z-1.356501
G01 X282.651569 Y358.872520 Z-1.356501
G01 X283.482544 Y360.013008 Z-1.351478
G01 X284.417997 Y361.296893 Z-1.345833
G01 X284.589024 Y361.531617 Z-1.344789
G01 X285.419999 Y362.672106 Z-1.339765
G01 X286.371935 Y363.950544 Z-1.350631
G01 X286.325791 Y363.898023 Z-1.355598
G01 X287.259665 Y364.960702 Z-1.254845
G01 X288.204093 Y366.012657 Z-1.169134
G01 X290.127607 Y368.081459 Z-1.047016
G01 X291.023550 Y369.045107 Z-0.990148
G01 X291.157549 Y369.155004 Z-0.959414
G01 X292.579779 Y370.128219 Z-0.801991
G01 X293.223641 Y370.295605 Z-0.969349
G01 X294.339548 Y370.638279 Z-1.312051
G01 X294.725289 Y371.432283 Z-1.755309
G01 X294.407930 Y372.994694 Z-1.554057
G01 X293.966365 Y374.388872 Z-1.524508
G01 X293.795565 Y374.923485 Z-1.514574
G01 X293.208401 Y376.802436 Z-1.492278
G01 X293.155231 Y376.983425 Z-1.493407
G01 X292.360126 Y379.691376 Z-1.510228
G01 X291.962588 Y381.045365 Z-1.518666
G01 X291.530308 Y382.517577 Z-1.527810
G01 X291.535021 Y382.498499 Z-1.528544
G01 X291.205724 Y383.871284 Z-1.486944
G01 X290.643566 Y386.636978 Z-1.502382
G01 X290.362501 Y388.019838 Z-1.510086
G01 X290.081689 Y389.401457 Z-1.517791
G01 X289.979892 Y389.996071 Z-1.502410
G01 X289.503557 Y392.778726 Z-1.430359
G01 X289.270526 Y394.170815 Z-1.399568
G01 X288.907617 Y396.969923 Z-1.442156
G01 X288.645940 Y398.988207 Z-1.472861
G01 X288.633325 Y399.101153 Z-1.472551
G01 X288.512139 Y400.507410 Z-1.504103
G01 X288.397641 Y402.019556 Z-1.553803
G01 X288.367189 Y402.595459 Z-1.559560
G01 X288.218176 Y405.413871 Z-1.587839
G01 X288.113895 Y407.386294 Z-1.607622
G01 X288.104102 Y407.814002 Z-1.599099
G01 X288.082935 Y409.614523 Z-1.583464
G01 X288.090894 Y409.717139 Z-1.580529
G01 X288.214846 Y411.313332 Z-1.535063
G01 X288.239343 Y411.629026 Z-1.526088
G01 X288.367839 Y413.283694 Z-1.478957
G01 X288.406785 Y413.582342 Z-1.458214
G01 X288.789591 Y415.260210 Z-1.502354
G01 X288.798623 Y415.293625 Z-1.501874
G01 X289.167007 Y416.655940 Z-1.481921
G01 X289.535420 Y418.018254 Z-1.461968
G01 X289.948847 Y419.408396 Z-1.477659
G01 X290.076892 Y419.768512 Z-1.473285
G01 X290.708900 Y421.450528 Z-1.484715
G01 X290.767574 Y421.581790 Z-1.484348
G01 X291.919125 Y424.158394 Z-1.477292
G01 X292.577832 Y425.568038 Z-1.499588
G01 X292.777137 Y425.935745 Z-1.502156
G01 X293.663851 Y427.533913 Z-1.531225
G01 X293.754388 Y427.674572 Z-1.533313
G01 X295.281944 Y430.047892 Z-1.568224
G01 X296.136598 Y431.372248 Z-1.589617
G01 X296.380692 Y431.697904 Z-1.595459
G01 X297.467163 Y433.147398 Z-1.621536
G01 X297.703947 Y433.439413 Z-1.612590
G01 X298.912564 Y434.838558 Z-1.626221
G01 X299.211691 Y435.184647 Z-1.629692
G01 X300.381248 Y436.537931 Z-1.643267
G01 X300.600648 Y436.768168 Z-1.630228
G01 X301.578802 Y437.786595 Z-1.577848
G01 X302.579506 Y438.781682 Z-1.557951
G01 X303.851594 Y440.035991 Z-1.540284
G01 X303.900814 Y440.081569 Z-1.539776
G01 X305.971732 Y441.999072 Z-1.518214
G01 X307.007177 Y442.957809 Z-1.507462
G01 X309.078067 Y444.875311 Z-1.485928
G01 X310.118226 Y445.828912 Z-1.482118
G01 X311.208648 Y446.828317 Z-1.478336
G01 X311.491039 Y447.079665 Z-1.471845
G01 X312.560633 Y448.000104 Z-1.471309
G01 X313.632231 Y448.918201 Z-1.473849
G01 X314.952918 Y450.049658 Z-1.476982
G01 X315.260907 Y450.288701 Z-1.458807
G01 X316.754625 Y451.419142 Z-1.394178
G01 X317.204628 Y451.749568 Z-1.383002
G01 X318.764414 Y452.853367 Z-1.378204
G01 X318.793483 Y452.871260 Z-1.377442
G01 X321.198355 Y454.349596 Z-1.313632
G01 X322.447922 Y455.096159 Z-1.299097
G01 X322.435165 Y455.089668 Z-1.299351
G01 X323.692437 Y455.730848 Z-1.275136
G01 X324.993002 Y456.360571 Z-1.280216
G01 X325.212373 Y456.463808 Z-1.283744
G01 X326.489316 Y457.064743 Z-1.304346
G01 X327.941857 Y457.748342 Z-1.327743
G01 X328.484232 Y457.979877 Z-1.314902
G01 X329.791344 Y458.511584 Z-1.308326
G01 X331.102295 Y459.033780 Z-1.312023
G01 X332.990446 Y459.775008 Z-1.327404
G01 X333.296205 Y459.888941 Z-1.325428
G01 X334.618530 Y460.381645 Z-1.316764
G01 X335.940854 Y460.874348 Z-1.308100
G01 X338.585502 Y461.859784 Z-1.290800
G01 X339.907826 Y462.352515 Z-1.282136
G01 X341.235399 Y462.830826 Z-1.288796
G01 X342.873981 Y463.404216 Z-1.313011
G01 X343.249083 Y463.528394 Z-1.311825
G01 X344.588707 Y463.971850 Z-1.307620
G01 X345.946365 Y464.360301 Z-1.361299
G01 X347.632361 Y464.839260 Z-1.431205
G01 X348.054368 Y464.934933 Z-1.425166
G01 X349.927984 Y465.359706 Z-1.398326
G01 X350.447217 Y465.477421 Z-1.390904
G01 X352.257418 Y465.853284 Z-1.398722
G01 X352.430138 Y465.869258 Z-1.395532
G01 X353.835492 Y465.999222 Z-1.369512
G01 X355.457057 Y466.112195 Z-1.376370
G01 X355.836448 Y466.111433 Z-1.375495
G01 X357.247559 Y466.108583 Z-1.372249
G01 X358.658670 Y466.105704 Z-1.369032
G01 X360.069781 Y466.102854 Z-1.365786
G01 X361.856897 Y466.080219 Z-1.380688
G01 X361.974979 Y466.070229 Z-1.380377
G01 X363.381038 Y465.951103 Z-1.376878
G01 X364.830673 Y465.732268 Z-1.468967
G01 X365.050439 Y465.671195 Z-1.472636
G01 X366.749078 Y465.199319 Z-1.501140
G01 X367.015947 Y465.125179 Z-1.505627
G01 X368.546890 Y464.699870 Z-1.531281
G01 X368.626900 Y464.671959 Z-1.527161
G01 X369.949111 Y464.177562 Z-1.489654
G01 X371.374418 Y463.563728 Z-1.524198
G01 X371.854478 Y463.340491 Z-1.520839
G01 X373.130659 Y462.738313 Z-1.519767
G01 X375.668345 Y461.502970 Z-1.551912
G01 X377.416683 Y460.651901 Z-1.574066
G01 X377.731135 Y460.488861 Z-1.569127
G01 X378.984004 Y459.839298 Z-1.549513
G01 X380.532219 Y459.036602 Z-1.525270
G01 X381.081085 Y458.723448 Z-1.491121
G01 X382.899979 Y457.662829 Z-1.397141
G01 X383.447490 Y457.324077 Z-1.385231
G01 X385.309140 Y456.172187 Z-1.344789
G01 X387.320200 Y455.188925 Z-1.525580
G01 X388.663154 Y455.821639 Z-1.787088
G01 X389.006788 Y456.264502 Z-1.624923
G01 X389.060805 Y456.337541 Z-1.600652
G01 X389.972439 Y457.462479 Z-1.276181
G01 X391.083181 Y458.332796 Z-1.274911
G01 X392.235636 Y459.235822 Z-1.273612
G01 X392.459777 Y459.412324 Z-1.274036
G01 X394.677084 Y461.158320 Z-1.278297
G01 X396.007451 Y462.205929 Z-1.280866
G01 X396.229193 Y462.380540 Z-1.281289
G01 X398.446500 Y464.126564 Z-1.285579
G01 X399.739106 Y465.144427 Z-1.288062
G01 X399.942871 Y465.292904 Z-1.279031
G01 X401.111214 Y466.084283 Z-1.277084
G01 X403.486961 Y467.609074 Z-1.343011
G01 X404.854723 Y468.486926 Z-1.380970
G01 X404.800113 Y468.456502 Z-1.383425
G01 X406.033847 Y469.143657 Z-1.328251
G01 X407.303565 Y469.812637 Z-1.305504
G01 X407.744086 Y470.032657 Z-1.308382
G01 X409.008328 Y470.659614 Z-1.320659
G01 X410.298423 Y471.235545 Z-1.390142
G01 X411.713485 Y471.867271 Z-1.466370
G01 X411.367904 Y473.336068 Z0.000000
G01 X411.713485 Y471.867271 Z-1.466370
G01 X411.894446 Y471.900545 Z-1.431826
G01 X413.307250 Y472.142466 Z-1.180140
G01 X414.719631 Y472.317274 Z-0.995539
G01 X416.130996 Y472.348798 Z-0.954250
G01 X418.078245 Y472.297603 Z-0.991926
G01 X418.135282 Y472.294217 Z-0.994946
G01 X419.545829 Y472.210143 Z-1.069227
G01 X420.956376 Y472.123557 Z-1.146020
G01 X422.358484 Y472.017357 Z-1.242512
G01 X422.554854 Y471.992041 Z-1.245729
G01 X423.954563 Y471.811701 Z-1.268504
G01 X425.354301 Y471.631361 Z-1.291280
G01 X426.957972 Y471.424746 Z-1.317385
G01 X426.953767 Y471.425452 Z-1.317498
G01 X428.343401 Y471.177971 Z-1.284676
G01 X431.106583 Y470.603508 Z-1.300141
G01 X432.488173 Y470.316290 Z-1.307846
G01 X433.867478 Y470.017812 Z-1.327037
G01 X436.619935 Y469.390263 Z-1.396633
G01 X438.004658 Y469.074569 Z-1.431657
G01 X438.456129 Y468.956685 Z-1.428581
G01 X441.186883 Y468.243763 Z-1.410067
G01 X442.552246 Y467.887288 Z-1.400782
G01 X444.385477 Y467.408668 Z-1.388364
G01 X444.876205 Y467.263605 Z-1.380885
G01 X447.579950 Y466.453853 Z-1.349897
G01 X450.283696 Y465.644101 Z-1.318937
G01 X452.146221 Y465.064699 Z-1.318204
G01 X452.597777 Y464.923080 Z-1.319135
G01 X455.290656 Y464.078502 Z-1.324610
G01 X457.983564 Y463.233924 Z-1.330085
G01 X459.329990 Y462.811663 Z-1.332823
G01 X461.094077 Y462.258394 Z-1.336435
G01 X461.263071 Y462.200398 Z-1.332032
G01 X462.598208 Y461.742323 Z-1.297234
G01 X463.928660 Y461.271576 Z-1.275927
G01 X466.586601 Y460.322152 Z-1.241806
G01 X467.915585 Y459.847426 Z-1.224732
G01 X469.243780 Y459.370584 Z-1.209943
G01 X470.565737 Y458.876949 Z-1.213048
G01 X472.068034 Y458.316004 Z-1.216575
G01 X472.314357 Y458.218976 Z-1.212455
G01 X474.940576 Y457.184631 Z-1.168372
G01 X477.566795 Y456.150287 Z-1.124260
G01 X480.193014 Y455.115942 Z-1.080177
G01 X481.499477 Y454.582655 Z-1.075549
G01 X484.108085 Y453.505554 Z-1.077694
G01 X485.665303 Y452.862596 Z-1.078964
G01 X485.737467 Y452.831805 Z-1.078117
G01 X487.021804 Y452.246956 Z-1.096208
G01 X488.305182 Y451.659962 Z-1.116697
G01 X489.652031 Y451.043956 Z-1.138174
G01 X490.161639 Y450.799184 Z-1.135747
G01 X491.433615 Y450.188201 Z-1.129651
G01 X493.977622 Y448.966207 Z-1.117459
G01 X495.759884 Y448.147735 Z-1.075126
G01 X496.175033 Y447.941176 Z-1.047581
G01 X497.490442 Y446.841328 Z-1.346595
G01 X497.936128 Y446.272368 Z-1.388025
G01 X498.342528 Y446.177287 Z-1.145822
G01 X498.342528 Y446.177287 Z-1.145822
G01 X498.160240 Y445.857727 Z-1.384272
G01 X498.157446 Y445.693953 Z-1.370979
G01 X498.122423 Y445.353368 Z-1.314168
G01 X497.759287 Y443.590890 Z-1.195606
G01 X497.569944 Y443.009399 Z-1.151467
G01 X496.818217 Y441.060598 Z-1.112125
G01 X496.631951 Y440.569927 Z-1.096433
G01 X495.629892 Y437.930246 Z-1.012049
G01 X494.941496 Y436.116771 Z-0.954052
G01 X494.575172 Y435.151825 Z-0.923177
G01 X494.266392 Y434.357595 Z-0.890919
G01 X493.884489 Y433.012891 Z-0.969405
G01 X493.793755 Y431.983203 Z-1.220160
G01 X495.554539 Y430.847795 Z-0.863515
G01 X496.009425 Y430.782573 Z-0.845397
G01 X497.609568 Y430.553183 Z-0.781643
G01 X498.063692 Y430.484603 Z-0.760109
G01 X499.460523 Y430.273698 Z-0.693843
G01 X501.311957 Y429.966725 Z-0.632912
G01 X501.775507 Y429.885247 Z-0.622187
G01 X503.165677 Y429.640899 Z-0.590042
G01 X504.513260 Y429.182966 Z-0.775660
G01 X506.717698 Y428.168744 Z-1.339314
G01 X506.717698 Y428.168744 Z-1.339314
G01 X506.709344 Y428.225498 Z-1.285325
G01 X507.492370 Y428.642679 Z-1.285325
G01 X508.724834 Y429.330398 Z-1.257893
G01 X510.331130 Y430.226736 Z-1.222107
G01 X510.596532 Y430.374818 Z-1.216208
G01 X512.083251 Y431.123074 Z-1.254901
G01 X512.396517 Y431.246941 Z-1.265626
G01 X514.030697 Y431.893089 Z-1.321421
G01 X514.183153 Y431.947784 Z-1.321364
G01 X516.839570 Y432.900820 Z-1.320490
G01 X518.324764 Y433.433684 Z-1.320010
G01 X518.789613 Y433.585661 Z-1.305927
G01 X520.603596 Y434.178779 Z-1.251035
G01 X520.885169 Y434.263445 Z-1.235569
G01 X522.278331 Y434.506749 Z-1.329690
G01 X523.837467 Y434.070293 Z-2.123581
G01 X525.318937 Y433.952070 Z-2.589869
G01 X526.646200 Y434.465150 Z-2.406283
G01 X528.190689 Y435.062219 Z-2.192669
G01 X528.749009 Y435.251393 Z-2.092029
G01 X530.105567 Y435.710004 Z-1.848527
G01 X531.462943 Y436.163168 Z-1.610586
G01 X533.450126 Y436.604705 Z-1.481384
G01 X533.434886 Y436.601882 Z-1.482908
G01 X534.829318 Y436.859805 Z-1.342418
G01 X536.234784 Y436.986128 Z-1.333980
G01 X537.640815 Y437.105621 Z-1.332399
G01 X539.046959 Y437.224041 Z-1.331891
G01 X540.453103 Y437.342433 Z-1.331412
G01 X543.265363 Y437.579218 Z-1.330452
G01 X544.664819 Y437.668203 Z-1.358702
G01 X544.701846 Y437.668739 Z-1.358759
G01 X547.523786 Y437.707968 Z-1.361920
G01 X548.934925 Y437.717140 Z-1.373971
G01 X550.377589 Y437.700573 Z-1.412212
G01 X550.979738 Y437.671251 Z-1.405805
G01 X553.798771 Y437.533978 Z-1.375720
G01 X556.617805 Y437.396733 Z-1.345664
G01 X558.026601 Y437.315707 Z-1.343039
G01 X559.433903 Y437.209902 Z-1.365250
G01 X561.439148 Y437.059111 Z-1.396915
G01 X561.968286 Y436.998009 Z-1.384018
G01 X563.362887 Y436.781799 Z-1.404676
G01 X564.757094 Y436.562625 Z-1.428298
G01 X566.654417 Y436.264401 Z-1.460444
G01 X566.905510 Y436.210892 Z-1.450848
G01 X568.286565 Y435.916506 Z-1.398101
G01 X569.663753 Y435.606654 Z-1.361299
G01 X571.350482 Y435.151825 Z-1.389239
G01 X571.424537 Y435.131843 Z-1.390452
G01 X574.149788 Y434.397021 Z-1.435636
G01 X575.507390 Y434.009699 Z-1.478732
G01 X576.874954 Y433.598812 Z-1.542203
G01 X577.095510 Y433.522894 Z-1.543332
G01 X579.764091 Y432.604233 Z-1.556822
G01 X581.289135 Y432.079243 Z-1.564555
G01 X581.736627 Y431.888687 Z-1.543840
G01 X583.031829 Y431.326387 Z-1.493633
G01 X584.313683 Y430.736063 Z-1.474470
G01 X585.589327 Y430.132756 Z-1.469700
G01 X586.849026 Y429.496035 Z-1.501958
G01 X588.084256 Y428.808033 Z-1.591028
G01 X589.710985 Y427.837556 Z-1.766485
G01 X589.922652 Y427.771967 Z-1.709110
G01 X591.188221 Y427.133440 Z-1.574461
G01 X592.441259 Y426.475043 Z-1.463294
G01 X593.853076 Y425.579270 Z-1.468289
G01 X593.907206 Y425.541876 Z-1.465975
G01 X595.051137 Y424.715416 Z-1.445994
G01 X597.320091 Y423.037040 Z-1.437781
G01 X598.549479 Y422.120100 Z-1.439390
G01 X598.647947 Y422.043703 Z-1.441902
G01 X599.763063 Y421.178522 Z-1.470208
G01 X600.875499 Y420.309730 Z-1.503003
G01 X601.976222 Y419.425217 Z-1.555411
G01 X603.117867 Y418.507825 Z-1.609767
G01 X603.533383 Y418.142122 Z-1.605506
G01 X605.652025 Y416.277480 Z-1.583859
G01 X607.120314 Y414.985240 Z-1.568845
G01 X607.315386 Y414.794853 Z-1.552730
G01 X608.298141 Y413.781224 Z-1.508139
G01 X610.254590 Y411.745753 Z-1.431205
G01 X611.232828 Y410.728031 Z-1.392767
G01 X612.379497 Y409.439715 Z-1.411845
G01 X612.695219 Y409.032242 Z-1.423783
G01 X613.873356 Y407.511742 Z-1.468374
G01 X614.055418 Y407.261975 Z-1.466483
G01 X614.886703 Y406.121685 Z-1.457904
G01 X615.717989 Y404.981394 Z-1.449324
G01 X616.673734 Y403.553434 Z-1.507772
G01 X616.916361 Y403.161117 Z-1.511977
G01 X617.213992 Y401.166145 Z-2.325060
G01 X617.297107 Y400.732059 Z-2.460583
G01 X618.636336 Y399.294334 Z-1.976064
G01 X619.529597 Y398.195671 Z-1.719947
G01 X620.394439 Y397.259737 Z-1.569156
G01 X621.020549 Y396.760345 Z-1.545675
G01 X622.729151 Y395.502650 Z-1.401431
G01 X622.941269 Y395.381323 Z-1.389747
G01 X624.316227 Y394.594911 Z-1.314111
G01 X624.921143 Y394.262227 Z-1.292662
G01 X626.722793 Y393.224073 Z-1.269407
G01 X626.723724 Y393.223452 Z-1.269436
G01 X629.101108 Y391.699169 Z-1.371628
G01 X630.289799 Y390.937028 Z-1.422710
G01 X631.426647 Y390.208105 Z-1.471563
G01 X631.941195 Y389.846409 Z-1.467584
G01 X634.250111 Y388.223405 Z-1.449634
G01 X635.404597 Y387.411903 Z-1.440660
G01 X637.062032 Y386.186890 Z-1.476615
G01 X637.143397 Y386.121499 Z-1.476728
G01 X639.343319 Y384.353630 Z-1.479578
G01 X640.443280 Y383.469710 Z-1.481018
G01 X641.543241 Y382.585790 Z-1.482429
G01 X642.643202 Y381.701842 Z-1.483868
G01 X643.741865 Y380.816314 Z-1.487368
G01 X645.892060 Y378.986441 Z-1.569692
G01 X647.036076 Y378.009698 Z-1.615976
G01 X647.122323 Y377.928051 Z-1.617782
G01 X649.172075 Y375.987632 Z-1.661104
G01 X650.196965 Y375.017409 Z-1.682750
G01 X651.249823 Y374.020685 Z-1.704989
G01 X651.420878 Y373.831172 Z-1.688874
G01 X652.352042 Y372.768690 Z-1.620322
G01 X653.516688 Y371.394945 Z-1.562467
G01 X653.561900 Y371.341634 Z-1.560237
G01 X654.307334 Y370.027325 Z-1.793720
G01 X654.317325 Y369.999272 Z-1.803710
G01 X654.948317 Y368.533410 Z-2.241437
G01 X655.283202 Y368.411772 Z-2.088924
G01 X656.147028 Y368.098025 Z-1.695535
G01 X656.773166 Y368.098082 Z-1.636861
G01 X658.187664 Y368.068025 Z-1.534301
G01 X659.637327 Y368.007686 Z-1.458581
G01 X659.909586 Y368.002042 Z-1.450058
G01 X661.321093 Y367.972719 Z-1.405777
G01 X662.969976 Y367.853085 Z-1.439362
G01 X663.582257 Y367.805248 Z-1.455251
G01 X665.579487 Y367.649179 Z-1.507067
G01 X665.658848 Y367.641785 Z-1.507942
G01 X667.062650 Y367.490824 Z-1.543558
G01 X667.620913 Y367.380278 Z-1.533285
G01 X669.508049 Y366.934959 Z-1.568535
G01 X670.435657 Y366.610940 Z-1.509917
G01 X670.553880 Y366.565502 Z-1.498459
G01 X672.003006 Y365.923080 Z-1.434790
G01 X672.197260 Y365.825939 Z-1.436116
G01 X673.519668 Y365.066507 Z-1.533398
G01 X673.621155 Y364.998463 Z-1.532721
G01 X674.899763 Y364.141298 Z-1.524339
G01 X675.220650 Y363.894128 Z-1.495524
G01 X676.341411 Y363.030867 Z-1.394855
G01 X676.998255 Y361.110006 Z-2.392567
G01 X676.900437 Y360.832779 Z-2.648910
G01 X678.000087 Y359.723561 Z-2.553688
G01 X678.357014 Y359.320068 Z-2.491119
G01 X679.265120 Y358.232835 Z-2.366546
G01 X680.538422 Y356.708383 Z-2.191851
G01 X680.713287 Y356.476058 Z-2.151634
G01 X681.758130 Y355.085126 Z-1.912761
G01 X681.833963 Y354.970854 Z-1.889478
G01 X682.618174 Y353.774514 Z-1.654979
G01 X683.268442 Y352.519076 Z-1.566926
G01 X683.976623 Y351.112029 Z-1.487057
G01 X684.124930 Y350.658414 Z-1.495975
G01 X684.695217 Y348.853631 Z-1.550303
G01 X684.839461 Y348.316110 Z-1.550247
G01 X685.364055 Y346.361270 Z-1.549936
G01 X685.754933 Y344.904693 Z-1.549710
G01 X685.838245 Y344.693139 Z-1.579118
G01 X686.331795 Y343.353599 Z-1.795272
G01 X686.798280 Y341.786278 Z-2.145284
G01 X687.248086 Y341.393284 Z-2.021868
G01 X688.738756 Y340.204987 Z-1.544348
G01 X689.189295 Y339.665858 Z-1.508139
G01 X690.409652 Y338.007266 Z-1.529249
G01 X690.496125 Y337.877613 Z-1.527076
G01 X691.279179 Y336.662223 Z-1.529927
G01 X691.468183 Y336.237761 Z-1.496399
G01 X691.992947 Y334.926980 Z-1.448195
G01 X692.567975 Y333.099422 Z-1.528262
G01 X692.630177 Y332.769814 Z-1.522758
G01 X692.942936 Y330.945163 Z-1.523464
G01 X693.014761 Y330.469139 Z-1.514009
G01 X693.208366 Y329.071349 Z-1.503398
G01 X693.452629 Y327.164006 Z-1.508704
G01 X693.504868 Y326.755913 Z-1.509861
G01 X693.684108 Y325.356203 Z-1.513755
G01 X693.926508 Y323.543801 Z-1.508591
G01 X693.945784 Y323.406951 Z-1.508337
G01 X694.339286 Y320.612302 Z-1.503228
G01 X694.558827 Y319.072836 Z-1.497669
G01 X694.594331 Y318.843164 Z-1.497753
G01 X694.843674 Y317.230574 Z-1.498318
G01 X694.885020 Y316.963084 Z-1.498402
G01 X695.100637 Y315.568539 Z-1.498882
G01 X695.351335 Y313.947060 Z-1.499447
G01 X695.369341 Y313.804904 Z-1.495580
G01 X695.546802 Y312.404461 Z-1.457424
G01 X695.726663 Y310.862794 Z-1.430867
G01 X695.766964 Y310.358717 Z-1.409869
G01 X695.877228 Y308.950795 Z-1.353510
G01 X695.933616 Y307.540784 Z-1.351082
G01 X696.009478 Y305.643207 Z-1.347809
G01 X696.007897 Y305.331831 Z-1.333274
G01 X695.905958 Y303.692713 Z-1.350208
G01 X695.596784 Y302.553325 Z-1.356699
G01 X695.329886 Y301.724100 Z-1.401911
G01 X695.071710 Y301.106626 Z-1.380038
G01 X694.918463 Y300.820114 Z-1.338608
G01 X693.857392 Y299.389106 Z-1.372475
G01 X693.906499 Y299.447357 Z-1.375579
G01 X692.982616 Y298.419419 Z-1.362992
G01 X692.806933 Y298.243002 Z-1.360001
G01 X691.609351 Y297.040537 Z-1.339540
G01 X691.133129 Y296.562340 Z-1.331412
G01 X689.687333 Y295.192941 Z-1.365476
G01 X689.402684 Y294.969308 Z-1.354864
G01 X687.986295 Y293.975350 Z-1.397706
G01 X687.481823 Y293.728067 Z-1.388759
G01 X686.214617 Y293.106839 Z-1.366266
G01 X684.405629 Y292.399308 Z-1.496342
G01 X684.289833 Y292.372017 Z-1.493802
G01 X682.775146 Y292.080312 Z-1.524169
G01 X682.573837 Y292.069165 Z-1.513022
G01 X680.800832 Y291.970979 Z-1.414808
G01 X679.574408 Y291.952833 Z-1.396690
G01 X678.229308 Y291.861195 Z-1.607284
G01 X677.496292 Y289.927606 Z-0.760786
G01 X677.415464 Y288.920439 Z-0.616119
G01 X677.169564 Y287.779754 Z-0.862020
G01 X677.096383 Y287.440297 Z-0.935200
G01 X676.592081 Y286.611579 Z-1.012500
G01 X675.816252 Y285.947765 Z-1.184092
G01 X674.696337 Y285.185877 Z-1.557330
G01 X674.557061 Y284.548648 Z-1.396605
G01 X674.171602 Y282.587091 Z-0.863092
G01 X674.102711 Y282.361510 Z-0.858012
G01 X673.546733 Y280.877219 Z-0.922105
G01 X673.405143 Y280.522353 Z-0.945698
G01 X672.792353 Y278.986782 Z-1.047694
G01 X672.571712 Y278.630561 Z-1.033724
G01 X671.550773 Y277.058414 Z-1.011259
G01 X671.351327 Y276.844574 Z-1.002482
G01 X670.388441 Y275.812177 Z-0.960064
G01 X669.167068 Y274.554933 Z-0.943102
G01 X668.311935 Y273.895239 Z-0.976150
G01 X668.027878 Y273.701804 Z-0.966329
G01 X666.481131 Y272.896172 Z-1.121466
G01 X665.677503 Y272.586885 Z-1.179520
G01 X664.881128 Y272.363647 Z-1.157506
G01 X664.639687 Y272.295970 Z-1.150846
G01 X663.053119 Y271.928178 Z-1.181580
G01 X662.167759 Y271.776286 Z-1.199755
G01 X661.981831 Y271.773859 Z-1.174440
G01 X660.406269 Y272.026815 Z-1.231251
G01 X659.520430 Y272.315076 Z-1.123724
G01 X659.292056 Y272.406291 Z-1.098127
G01 X657.801048 Y273.193380 Z-1.100610
G01 X657.505279 Y273.367398 Z-1.116894
G01 X656.313087 Y274.132080 Z-1.238645
G01 X653.266160 Y275.811415 Z-1.306378
G01 X653.266160 Y275.811415 Z-1.306378
G01 X653.398240 Y275.529559 Z-1.118418
G01 X653.078200 Y274.028476 Z-1.118418
G01 X652.805742 Y272.583978 Z-1.083649
G01 X652.793155 Y272.531484 Z-1.085032
G01 X652.463915 Y271.158586 Z-1.120761
G01 X652.473652 Y271.192001 Z-1.121551
G01 X652.007844 Y269.901117 Z-1.177177
G01 X651.762706 Y269.351715 Z-1.185757
G01 X650.946152 Y267.521701 Z-1.214318
G01 X650.415179 Y266.490094 Z-1.166283
G01 X650.157736 Y266.129302 Z-1.157930
G01 X649.063589 Y264.641200 Z-1.149350
G01 X648.327976 Y263.975946 Z-1.209520
G01 X648.077815 Y263.806838 Z-1.223687
G01 X646.670796 Y262.855665 Z-1.303274
G01 X645.915851 Y262.504891 Z-1.335052
G01 X645.035120 Y262.244259 Z-1.331383
G01 X643.835591 Y262.011341 Z-1.443538
G01 X642.813016 Y261.768263 Z-1.583436
G01 X641.769725 Y260.363953 Z-1.182822
G01 X641.660110 Y259.445546 Z-0.901531
G01 X641.619216 Y258.513620 Z-0.685151
G01 X641.598021 Y258.423393 Z-0.680776
G01 X640.993614 Y257.211531 Z-0.929442
G01 X640.885466 Y257.068105 Z-0.929640
G01 X639.794084 Y255.818595 Z-1.050600
G01 X639.577817 Y255.628857 Z-1.050488
G01 X637.456438 Y253.767488 Z-1.049330
G01 X636.096945 Y252.703003 Z-1.145088
G01 X636.097848 Y252.703595 Z-1.145088
G01 X634.916861 Y251.931238 Z-1.138343
G01 X633.684566 Y251.227968 Z-1.217478
G01 X633.570971 Y251.172314 Z-1.216575
G01 X632.303765 Y250.551397 Z-1.206444
G01 X630.853990 Y249.841043 Z-1.194816
G01 X630.380054 Y249.608831 Z-1.191034
G01 X629.095012 Y249.024998 Z-1.222050
G01 X627.805059 Y248.451409 Z-1.264440
G01 X626.077181 Y247.703013 Z-1.339144
G01 X625.800067 Y247.601441 Z-1.342503
G01 X623.150085 Y246.629975 Z-1.374733
G01 X621.558239 Y246.046425 Z-1.394121
G01 X621.361079 Y245.984900 Z-1.386360
G01 X620.012621 Y245.565913 Z-1.335109
G01 X617.298236 Y244.792370 Z-1.299351
G01 X615.933240 Y244.434343 Z-1.311261
G01 X614.561019 Y244.103042 Z-1.350857
G01 X613.001261 Y243.726417 Z-1.395815
G01 X612.438200 Y243.624930 Z-1.378373
G01 X611.041708 Y243.422238 Z-1.383623
G01 X609.096604 Y243.178369 Z-1.428948
G01 X608.762086 Y243.161154 Z-1.412155
G01 X607.350946 Y243.166262 Z-1.418957
G01 X605.500302 Y243.182716 Z-1.437668
G01 X605.252483 Y243.184917 Z-1.440152
G01 X603.534314 Y243.229790 Z-1.487057
G01 X603.397521 Y243.231314 Z-1.499616
G01 X600.219021 Y243.291738 Z-1.816044
G01 X600.501893 Y241.464801 Z-1.533172
G01 X600.736391 Y240.929425 Z-1.298674
G01 X601.034079 Y240.576027 Z-1.240734
G01 X602.014858 Y239.411662 Z-1.049838
G01 X602.154502 Y239.253477 Z-1.028248
G01 X603.121621 Y237.982094 Z-0.980835
G01 X603.224265 Y237.827408 Z-0.987298
G01 X604.066416 Y236.558254 Z-1.040243
G01 X604.304724 Y236.136586 Z-1.022463
G01 X605.137280 Y234.462275 Z-1.052858
G01 X605.458251 Y233.253743 Z-1.088898
G01 X605.716767 Y232.255833 Z-1.124938
G01 X605.796664 Y231.792904 Z-1.144665
G01 X605.757830 Y230.812492 Z-1.115596
G01 X605.622618 Y230.349027 Z-1.084044
G01 X605.221947 Y229.386762 Z-1.053705
G01 X604.780071 Y228.403302 Z-1.052266
G01 X604.387754 Y227.623325 Z-1.159058
G01 X604.073613 Y226.106211 Z-1.334516
G01 X604.392383 Y225.317513 Z-1.195268
G01 X604.773100 Y224.524779 Z-1.106791
G01 X604.864992 Y224.333432 Z-1.085427
G01 X605.340367 Y222.869771 Z-1.136114
G01 X605.352898 Y222.797974 Z-1.138033
G01 X605.605882 Y221.347718 Z-1.176782
G01 X605.636700 Y221.001093 Z-1.158240
G01 X605.670765 Y219.590321 Z-1.174101
G01 X605.693484 Y217.819433 Z-1.214035
G01 X605.680784 Y217.595828 Z-1.203537
G01 X605.581921 Y215.931451 Z-1.129623
G01 X605.522485 Y215.482012 Z-1.099199
G01 X605.219463 Y213.587369 Z-1.022237
G01 X605.141739 Y213.177187 Z-1.017468
G01 X604.878990 Y211.790658 Z-1.001324
G01 X604.572638 Y210.412905 Z-1.029716
G01 X604.138665 Y208.698688 Z-1.116753
G01 X603.981185 Y208.213802 Z-1.118616
G01 X603.545321 Y206.871666 Z-1.123781
G01 X603.109457 Y205.529558 Z-1.128945
G01 X602.513996 Y203.696468 Z-1.136142
G01 X602.440872 Y203.518725 Z-1.132614
G01 X601.366706 Y200.908395 Z-1.080742
G01 X600.803024 Y199.614773 Z-1.083790
G01 X600.225513 Y198.327106 Z-1.101908
G01 X599.558904 Y196.840782 Z-1.122793
G01 X599.348592 Y196.403930 Z-1.115907
G01 X598.527127 Y194.698603 Z-1.089434
G01 X598.460523 Y194.581593 Z-1.088446
G01 X597.762559 Y193.355140 Z-1.078174
G01 X597.062930 Y192.129647 Z-1.069848
G01 X596.239857 Y190.827191 Z-1.129792
G01 X596.057344 Y190.559786 Z-1.130977
G01 X595.086669 Y189.137414 Z-1.137299
G01 X594.965793 Y188.976829 Z-1.128720
G01 X593.949652 Y187.657243 Z-1.076029
G01 X593.527420 Y187.159346 Z-1.086132
G01 X592.194964 Y185.655158 Z-1.160611
G01 X592.034803 Y185.507641 Z-1.169896
G01 X590.891436 Y184.454529 Z-1.236190
G01 X590.691707 Y184.306306 Z-1.220470
G01 X589.556327 Y183.463646 Z-1.131175
G01 X588.152385 Y182.598720 Z-1.169331
G01 X588.142337 Y182.594204 Z-1.168372
G01 X586.741076 Y182.093994 Z-1.154261
G01 X586.406558 Y182.014266 Z-1.143028
G01 X584.623675 Y181.592372 Z-1.085991
G01 X584.384831 Y181.551817 Z-1.094006
G01 X582.715486 Y181.268353 Z-1.149886
G01 X582.587950 Y181.242219 Z-1.158607
G01 X580.111394 Y180.900222 Z-1.487368
G01 X579.671776 Y179.834212 Z-1.774077
G01 X579.671776 Y179.834212 Z-1.774077
G01 X579.806452 Y179.814936 Z-1.638046
G01 X579.744759 Y179.375488 Z-1.638046
G01 X580.279231 Y177.869776 Z-1.456436
G01 X580.774729 Y176.518891 Z-1.329238
G01 X581.044561 Y175.357744 Z-1.370584
G01 X581.032285 Y175.509608 Z-1.378091
G01 X581.131768 Y174.211358 Z-1.319502
G01 X581.137751 Y174.277426 Z-1.323199
G01 X580.903563 Y172.885591 Z-1.351957
G01 X580.660344 Y171.559513 Z-1.399201
G01 X580.673213 Y171.607265 Z-1.401516
G01 X580.313380 Y170.273313 Z-1.336548
G01 X580.299438 Y170.233351 Z-1.331524
G01 X579.767590 Y168.922598 Z-1.233114
G01 X579.140549 Y167.598919 Z-1.214543
G01 X579.138489 Y167.596012 Z-1.214600
G01 X578.327185 Y166.446606 Z-1.241721
G01 X578.296987 Y166.409973 Z-1.239068
G01 X577.397686 Y165.319693 Z-1.160244
G01 X576.378102 Y164.274793 Z-1.200602
G01 X576.395740 Y164.288848 Z-1.200658
G01 X575.299618 Y163.480563 Z-1.249793
G01 X575.369468 Y163.513668 Z-1.246914
G01 X574.054679 Y162.890578 Z-1.301298
G01 X573.242697 Y162.505739 Z-1.334911
G01 X572.586841 Y162.252417 Z-1.318175
G01 X572.321976 Y162.191513 Z-1.306745
G01 X570.641258 Y161.831482 Z-1.260066
G01 X569.463685 Y161.698160 Z-1.211354
G01 X569.325989 Y161.686279 Z-1.202013
G01 X567.746504 Y161.577454 Z-1.122370
G01 X567.567660 Y161.573051 Z-1.121269
G01 X566.156295 Y161.574208 Z-1.148503
G01 X564.743886 Y161.630596 Z-1.230940
G01 X562.306163 Y161.919733 Z-1.565035
G01 X562.306163 Y161.919733 Z-1.565035
G01 X562.585055 Y161.423530 Z-1.063752
G01 X562.244130 Y160.885953 Z-1.063752
G01 X561.674380 Y159.576329 Z-0.843534
G01 X560.884694 Y158.330064 Z-0.842998
G01 X560.822916 Y158.243902 Z-0.849009
G01 X559.959993 Y157.088766 Z-0.959076
G01 X559.958892 Y157.087524 Z-0.959076
G01 X559.014012 Y156.039464 Z-0.963930
G01 X558.012547 Y155.023266 Z-1.032143
G01 X557.815753 Y154.854384 Z-1.032623
G01 X556.455809 Y153.770990 Z-1.099086
G01 X556.152166 Y153.554300 Z-1.133038
G01 X554.558965 Y152.480924 Z-1.359352
G01 X554.184202 Y152.280151 Z-1.525947
G01 X553.170150 Y150.430269 Z-1.158889
G01 X553.114608 Y149.393667 Z-1.202746
G01 X553.071569 Y148.590152 Z-1.236754
G01 X553.111899 Y148.768798 Z-1.259812
G01 X552.710015 Y147.490445 Z-1.201222
G01 X552.674539 Y147.415232 Z-1.194957
G01 X552.038213 Y146.153840 Z-1.125756
G01 X551.223155 Y144.879466 Z-1.205653
G01 X551.169646 Y144.807471 Z-1.204101
G01 X550.287871 Y143.620670 Z-1.178786
G01 X550.311069 Y143.646578 Z-1.182539
G01 X549.213705 Y142.648273 Z-1.175879
G01 X549.047222 Y142.504199 Z-1.180338
G01 X547.857316 Y141.626657 Z-1.325400
G01 X547.674803 Y141.536261 Z-1.332258
G01 X546.193532 Y140.802399 Z-1.387969
G01 X545.717395 Y140.616584 Z-1.360255
G01 X544.359623 Y140.228274 Z-1.415768
G01 X542.509120 Y139.783125 Z-1.571272
G01 X542.352769 Y139.772513 Z-1.581235
G01 X540.883379 Y139.672776 Z-1.674961
G01 X541.018253 Y139.662334 Z-1.685967
G01 X539.497019 Y139.781008 Z-1.562947
G01 X539.474216 Y139.782871 Z-1.561197
G01 X537.841927 Y140.118828 Z-1.635252
G01 X537.476534 Y140.191444 Z-1.751782
G01 X535.956457 Y139.159216 Z-0.912283
G01 X535.677819 Y138.977635 Z-0.834475
G01 X534.137676 Y138.431676 Z-0.835604
G01 X532.808042 Y138.127468 Z-0.993958
G01 X532.291604 Y138.046329 Z-1.077637
G01 X532.349008 Y138.044805 Z-1.078907
G01 X530.928357 Y138.082821 Z-1.047609
G01 X530.048727 Y138.318251 Z-1.013093
G01 X529.773024 Y138.410763 Z-1.016790
G01 X528.161479 Y138.977889 Z-1.063357
G01 X527.551681 Y139.212895 Z-1.100413
G01 X526.232829 Y139.721121 Z-1.180536
G01 X523.857731 Y140.646189 Z-1.334177
G01 X523.857731 Y140.646189 Z-1.334177
G01 X522.765559 Y140.699980 Z-1.789797
G01 X521.541364 Y139.960953 Z-1.558346
G01 X519.835020 Y139.045114 Z-1.341854
G01 X519.688716 Y138.992621 Z-1.347442
G01 X518.359675 Y138.515637 Z-1.398270
G01 X516.925789 Y138.021550 Z-1.472128
G01 X516.426763 Y137.878323 Z-1.488242
G01 X514.603269 Y137.355026 Z-1.547114
G01 X514.353023 Y137.297933 Z-1.540933
G01 X511.600707 Y136.670016 Z-1.472805
G01 X509.962125 Y136.376054 Z-1.510510
G01 X509.560184 Y136.330870 Z-1.498656
G01 X507.724893 Y136.162637 Z-1.482542
G01 X507.783821 Y136.163061 Z-1.482965
G01 X506.372710 Y136.153013 Z-1.472918
G01 X504.959228 Y136.142966 Z-1.462871
G01 X504.596205 Y136.140370 Z-1.460302
G01 X502.878403 Y136.128150 Z-1.448082
G01 X502.603378 Y136.136899 Z-1.435410
G01 X500.929433 Y136.295620 Z-1.463576
G01 X500.368770 Y136.375207 Z-1.452090
G01 X498.977866 Y136.613459 Z-1.463887
G01 X497.047523 Y137.025165 Z-1.560294
G01 X496.818612 Y137.084347 Z-1.561705
G01 X495.224847 Y137.496476 Z-1.571526
G01 X494.699998 Y137.656806 Z-1.550952
G01 X493.362068 Y138.105596 Z-1.536361
G01 X491.528667 Y138.800258 Z-1.591649
G01 X491.296229 Y138.899882 Z-1.587980
G01 X489.798024 Y139.628270 Z-1.643126
G01 X489.246731 Y139.932195 Z-1.644960
G01 X488.010965 Y140.613479 Z-1.649024
G01 X486.220970 Y141.600297 Z-1.654951
G01 X485.947920 Y141.764833 Z-1.643606
G01 X484.490751 Y142.708838 Z-1.638328
G01 X484.189224 Y142.927673 Z-1.630906
G01 X482.699119 Y144.009036 Z-1.594302
G01 X482.621226 Y144.065565 Z-1.592382
G01 X481.511754 Y144.937914 Z-1.618714
G01 X480.403778 Y145.812210 Z-1.647472
G01 X478.524996 Y147.294724 Z-1.696268
G01 X478.524996 Y147.294724 Z-1.696268
G01 X477.245203 Y147.536842 Z-2.322407
G01 X476.108553 Y146.469336 Z-1.658874
G01 X474.926747 Y145.540684 Z-1.141335
G01 X473.347065 Y145.005309 Z-1.120902
G01 X473.342013 Y145.003587 Z-1.120817
G01 X472.005465 Y144.550649 Z-1.103517
G01 X470.661975 Y144.119018 Z-1.108654
G01 X469.332962 Y143.718516 Z-1.138908
G01 X468.682665 Y143.540321 Z-1.136622
G01 X465.960773 Y142.794408 Z-1.126970
G01 X463.938256 Y142.240152 Z-1.119801
G01 X463.503041 Y142.127968 Z-1.111448
G01 X462.136380 Y141.775670 Z-1.085173
G01 X460.764752 Y141.444087 Z-1.080177
G01 X458.017996 Y140.795823 Z-1.085568
G01 X456.644618 Y140.471691 Z-1.088277
G01 X455.267853 Y140.161726 Z-1.105493
G01 X453.446645 Y139.788120 Z-1.163772
G01 X453.002004 Y139.704554 Z-1.170460
G01 X451.615022 Y139.443866 Z-1.191316
G01 X450.228041 Y139.183205 Z-1.212201
G01 X448.420239 Y138.843438 Z-1.239407
G01 X448.216164 Y138.812450 Z-1.235202
G01 X446.810697 Y138.677124 Z-1.283688
G01 X445.155859 Y138.521422 Z-1.344394
G01 X444.955791 Y138.502598 Z-1.351760
G01 X443.549958 Y138.370321 Z-1.403322
G01 X441.986390 Y138.223198 Z-1.460698
G01 X441.613829 Y138.199068 Z-1.463463
G01 X440.204609 Y138.122219 Z-1.488384
G01 X438.410832 Y138.029819 Z-1.525524
G01 X438.157877 Y138.021974 Z-1.525580
G01 X435.337009 Y137.934400 Z-1.526286
G01 X432.516141 Y137.846827 Z-1.526992
G01 X430.850268 Y137.795123 Z-1.527387
G01 X430.301995 Y137.788378 Z-1.517227
G01 X428.890771 Y137.771078 Z-1.491093
G01 X426.927916 Y137.756261 Z-1.463971
G01 X426.618177 Y137.761906 Z-1.456972
G01 X423.795700 Y137.813242 Z-1.393162
G01 X420.973224 Y137.864578 Z-1.329351
G01 X419.255281 Y137.976056 Z-1.370669
G01 X418.816059 Y138.016499 Z-1.377019
G01 X417.410733 Y138.145841 Z-1.397367
G01 X415.573128 Y138.314977 Z-1.424009
G01 X415.060810 Y138.373792 Z-1.419832
G01 X413.658956 Y138.535646 Z-1.409418
G01 X410.871729 Y138.993016 Z-1.523182
G01 X408.981799 Y139.303121 Z-1.600341
G01 X408.941809 Y139.310854 Z-1.600849
G01 X407.557706 Y139.586783 Z-1.626249
G01 X406.175353 Y139.894377 Z-1.683117
G01 X405.799321 Y139.997473 Z-1.679815
G01 X403.983277 Y140.495426 Z-1.663813
G01 X402.614527 Y140.870725 Z-1.651762
G01 X401.616251 Y141.125092 Z-1.661640
G01 X399.799558 Y141.355272 Z-1.904633
G01 X399.017831 Y140.680733 Z-1.674086
G01 X398.618374 Y139.895195 Z-1.274628
G01 X398.527809 Y139.717057 Z-1.184063
G01 X397.353623 Y138.641818 Z-1.006800
G01 X396.248328 Y137.914757 Z-1.051673
G01 X395.825474 Y137.667926 Z-1.049359
G01 X394.168830 Y136.762783 Z-1.093809
G01 X393.252059 Y136.408481 Z-1.134674
G01 X392.832564 Y136.284021 Z-1.127534
G01 X391.456138 Y135.966521 Z-1.191655
G01 X389.693152 Y135.559895 Z-1.273782
G01 X389.565249 Y135.542793 Z-1.267545
G01 X388.164834 Y135.357119 Z-1.200799
G01 X386.519930 Y135.204973 Z-1.188071
G01 X386.249420 Y135.181774 Z-1.184176
G01 X384.842909 Y135.067107 Z-1.169839
G01 X382.026670 Y134.882534 Z-1.186011
G01 X380.339772 Y134.771987 Z-1.195691
G01 X380.265688 Y134.767133 Z-1.196114
G01 X377.449477 Y134.582531 Z-1.212314
G01 X375.987623 Y134.493377 Z-1.227328
G01 X375.351945 Y134.465579 Z-1.223208
G01 X373.931267 Y134.696577 Z-1.506869
G01 X371.889333 Y134.836673 Z-1.722797
G01 X371.507571 Y134.725844 Z-1.611574
G01 X370.096036 Y134.316085 Z-1.200348
G01 X368.684756 Y134.157872 Z-1.040694
G01 X367.273701 Y134.197298 Z-1.078653
G01 X365.862646 Y134.257553 Z-1.137468
G01 X364.062577 Y134.334458 Z-1.212483
G01 X363.622761 Y134.362511 Z-1.221571
G01 X362.214219 Y134.452427 Z-1.250668
G01 X360.369529 Y134.570170 Z-1.288740
G01 X360.001399 Y134.602061 Z-1.287978
G01 X358.595537 Y134.723840 Z-1.285071
G01 X357.963049 Y134.778619 Z-1.283772
G01 X356.679276 Y133.603672 Z0.000000
G01 X357.963049 Y134.778619 Z-1.283772
G01 X357.962879 Y134.778817 Z-1.283603
G00 Z5.000000

G00 Z5.000000
G00 X370.749381 Y134.505739

G01 Z-1.390678 F100.0(Penetrate)
G01 X372.438565 Y135.084266 Z-1.808424 F400.000000
G01 X371.602595 Y137.090810 Z-1.197836
G01 X371.314164 Y137.683392 Z-1.120253
G01 X370.600819 Y139.478946 Z-1.036941
G01 X370.579201 Y139.533669 Z-1.034514
G01 X370.060250 Y140.847159 Z-0.976263
G01 X369.541272 Y142.160678 Z-0.918012
G01 X369.060958 Y143.487630 Z-0.900656
G01 X368.595461 Y144.872749 Z-0.916460
G01 X368.522958 Y145.095479 Z-0.916742
G01 X368.141337 Y146.455338 Z-0.976545
G01 X367.743432 Y147.993054 Z-1.076113
G01 X367.729490 Y148.065783 Z-1.076029
G01 X367.198348 Y150.837572 Z-1.072755
G01 X366.948468 Y152.226444 Z-1.087092
G01 X366.743236 Y153.676191 Z-1.156660
G01 X366.709652 Y154.219554 Z-1.139585
G01 X366.603649 Y156.247546 Z-1.095192
G01 X366.601335 Y156.371950 Z-1.092877
G01 X366.548418 Y159.194144 Z-1.040892
G01 X366.519293 Y160.746168 Z-1.012275
G01 X366.517571 Y160.746168 Z-1.010553
G01 X366.517543 Y160.840402 Z-1.010553
G01 X366.464401 Y163.662597 Z-0.958794
G01 X366.437815 Y165.073708 Z-0.932886
G01 X366.410073 Y166.547049 Z-0.905877
G01 X366.411569 Y166.638545 Z-0.900966
G01 X366.480798 Y168.048245 Z-0.871559
G01 X366.561203 Y169.457183 Z-0.853299
G01 X366.698278 Y170.935717 Z-0.886742
G01 X366.760339 Y171.285588 Z-0.884372
G01 X367.006832 Y172.675025 Z-0.874861
G01 X367.324134 Y174.463439 Z-0.862612
G01 X367.432931 Y175.076707 Z-0.858435
G01 X367.679424 Y176.466172 Z-0.848924
G01 X368.027714 Y178.429225 Z-0.835491
G01 X368.154488 Y178.887723 Z-0.831257
G01 X368.916686 Y181.605128 Z-0.816554
G01 X369.435636 Y183.435565 Z-0.811953
G01 X369.471619 Y183.538181 Z-0.811784
G01 X370.405973 Y186.201258 Z-0.807438
G01 X371.340297 Y188.864336 Z-0.803063
G01 X372.274622 Y191.527413 Z-0.798717
G01 X372.741785 Y192.858937 Z-0.796516
G01 X373.263501 Y194.290848 Z-0.812405
G01 X373.381865 Y194.578602 Z-0.812687
G01 X374.455466 Y197.188649 Z-0.815340
G01 X374.992253 Y198.493673 Z-0.816666
G01 X375.667159 Y200.076291 Z-0.840401
G01 X375.763595 Y200.279462 Z-0.840542
G01 X376.973735 Y202.829058 Z-0.842264
G01 X377.578820 Y204.103856 Z-0.843139
G01 X378.289907 Y205.602061 Z-0.844155
G01 X378.331055 Y205.688731 Z-0.844211
G01 X379.541196 Y208.238327 Z-0.845961
G01 X380.146252 Y209.513125 Z-0.846836
G01 X380.789549 Y210.888196 Z-0.839301
G01 X380.888214 Y211.115441 Z-0.837664
G01 X382.012164 Y213.704266 Z-0.818783
G01 X382.675273 Y215.231681 Z-0.807664
G01 X382.925943 Y215.884009 Z-0.803035
G01 X383.921002 Y218.525270 Z-0.765838
G01 X384.418532 Y219.845873 Z-0.747212
G01 X385.167437 Y221.833677 Z-0.719215
G01 X385.317861 Y222.292570 Z-0.733891
G01 X385.859361 Y224.182782 Z-0.719441
G01 X385.982551 Y225.390157 Z-0.842631
G01 X385.913152 Y225.951694 Z-0.773232
G01 X385.814629 Y226.627645 Z-0.704229
G01 X384.885186 Y227.586212 Z-0.641576
G01 X384.087372 Y227.940458 Z-0.604661
G01 X383.603954 Y228.101663 Z-0.632037
G01 X382.243078 Y228.474789 Z-0.631303
G01 X380.402510 Y228.922732 Z-0.575649
G01 X380.103862 Y228.969835 Z-0.575197
G01 X377.316099 Y229.409537 Z-0.571105
G01 X375.654431 Y229.671637 Z-0.568678
G01 X375.192716 Y229.744027 Z-0.568396
G01 X373.796365 Y229.948243 Z-0.552986
G01 X372.397163 Y230.134171 Z-0.519063
G01 X370.997849 Y230.319535 Z-0.484576
G01 X369.591169 Y230.458078 Z-0.402703
G01 X368.184489 Y230.596620 Z-0.320802
G01 X366.312396 Y230.781024 Z-0.211808
G01 X366.130955 Y230.798889 Z-0.201253
G01 X364.542919 Y230.954252 Z-0.107781
G01 X364.166858 Y230.991844 Z-0.084554
G01 X364.166858 Y230.991844 Z-0.084554
G01 X365.529709 Y230.858128 Z-0.166257
G01 X366.158923 Y230.796123 Z-0.202890
G01 X368.208026 Y230.594306 Z-0.322185
G01 X368.212795 Y230.593855 Z-0.322439
G01 X369.619476 Y230.455312 Z-0.404340
G01 X371.014472 Y230.317898 Z-0.485535
G01 X371.313430 Y230.278189 Z-0.492788
G01 X372.712660 Y230.092233 Z-0.526711
G01 X374.413980 Y229.866173 Z-0.567944
G01 X374.687764 Y229.823219 Z-0.568113
G01 X376.081772 Y229.604214 Z-0.569299
G01 X378.869535 Y229.164512 Z-0.573391
G01 X380.532360 Y228.894849 Z-0.583156
G01 X381.178677 Y228.736127 Z-0.601331
G01 X383.160611 Y228.249491 Z-0.657126
G01 X383.143678 Y228.255136 Z-0.658086
G01 X384.502098 Y227.756336 Z-0.623852
G01 X385.207682 Y227.360011 Z-0.733721
G01 X385.730809 Y226.786931 Z-0.746760
G01 X385.882560 Y226.161639 Z-0.751812
G01 X385.993106 Y225.304672 Z-0.853186
G01 X385.939851 Y224.857998 Z-0.799931
G01 X385.509405 Y222.876968 Z-0.752574
G01 X385.366827 Y222.442007 Z-0.738660
G01 X384.895516 Y221.111922 Z-0.729375
G01 X383.900428 Y218.470660 Z-0.766600
G01 X383.402899 Y217.150058 Z-0.785199
G01 X382.737447 Y215.383714 Z-0.810091
G01 X382.526712 Y214.889514 Z-0.810175
G01 X381.402790 Y212.300690 Z-0.829028
G01 X380.619736 Y210.510724 Z-0.847513
G01 X380.510826 Y210.281249 Z-0.847344
G01 X379.300686 Y207.731625 Z-0.845622
G01 X378.695601 Y206.456827 Z-0.844748
G01 X377.974213 Y204.936919 Z-0.843703
G01 X377.855144 Y204.686080 Z-0.843534
G01 X376.645003 Y202.136485 Z-0.841784
G01 X376.039947 Y200.861687 Z-0.840938
G01 X375.326828 Y199.307038 Z-0.817485
G01 X375.243459 Y199.104346 Z-0.817287
G01 X374.169858 Y196.494326 Z-0.814634
G01 X373.633071 Y195.189302 Z-0.813308
G01 X373.028043 Y193.674813 Z-0.795189
G01 X372.841833 Y193.144066 Z-0.796064
G01 X371.907508 Y190.480989 Z-0.800410
G01 X370.973155 Y187.817912 Z-0.804785
G01 X370.038830 Y185.154835 Z-0.809131
G01 X369.388166 Y183.285931 Z-0.807466
G01 X369.285409 Y182.919663 Z-0.809442
G01 X368.523212 Y180.202258 Z-0.824145
G01 X368.035532 Y178.463656 Z-0.833543
G01 X367.922417 Y177.835825 Z-0.839526
G01 X367.675924 Y176.446388 Z-0.849037
G01 X367.325235 Y174.469676 Z-0.862584
G01 X367.312450 Y174.397624 Z-0.863064
G01 X366.819464 Y171.618751 Z-0.882086
G01 X366.597694 Y170.097291 Z-0.845002
G01 X366.586800 Y169.906029 Z-0.847485
G01 X366.506423 Y168.497091 Z-0.865745
G01 X366.416084 Y166.913627 Z-0.886234
G01 X366.413967 Y166.340321 Z-0.909659
G01 X366.467110 Y163.518127 Z-0.961446
G01 X366.493667 Y162.107016 Z-0.987326
G01 X366.530299 Y160.159118 Z-1.023112
G01 X366.533489 Y159.989869 Z-1.026216
G01 X366.586405 Y157.167675 Z-1.078230
G01 X366.626989 Y155.557005 Z-1.097534
G01 X366.652586 Y155.142731 Z-1.110544
G01 X366.739680 Y153.733624 Z-1.154853
G01 X366.994414 Y151.901888 Z-1.071513
G01 X367.075242 Y151.480136 Z-1.071993
G01 X367.606356 Y148.708346 Z-1.075267
G01 X367.914797 Y147.330707 Z-1.033216
G01 X368.377867 Y145.541249 Z-0.917335
G01 X368.399147 Y145.475886 Z-0.917250
G01 X368.842941 Y144.136346 Z-0.908050
G01 X369.311233 Y142.742931 Z-0.892189
G01 X369.379671 Y142.569731 Z-0.899866
G01 X369.898622 Y141.256212 Z-0.958116
G01 X370.468936 Y139.812758 Z-1.022124
G01 X370.932740 Y138.638883 Z-1.074194
G01 X371.317776 Y137.674332 Z-1.120704
G01 X371.382349 Y137.542027 Z-1.138202
G01 X371.997029 Y135.981394 Z-1.468064
G01 X372.551624 Y134.958931 Z-1.820333
G01 X373.175419 Y134.840313 Z-1.678601
G01 X375.184531 Y134.458269 Z-1.222107
G01 X375.715673 Y134.481468 Z-1.225578
G01 X377.373277 Y134.577536 Z-1.212737
G01 X377.829433 Y134.607452 Z-1.210112
G01 X379.237553 Y134.699738 Z-1.202041
G01 X381.096042 Y134.821545 Z-1.191345
G01 X381.697148 Y134.860944 Z-1.187902
G01 X383.105267 Y134.953230 Z-1.179802
G01 X385.137916 Y135.086439 Z-1.168146
G01 X385.252273 Y135.096261 Z-1.169783
G01 X386.658276 Y135.217785 Z-1.189143
G01 X388.202991 Y135.360646 Z-1.201081
G01 X388.461365 Y135.395190 Z-1.213697
G01 X389.858817 Y135.598108 Z-1.266077
G01 X391.235243 Y135.915580 Z-1.201956
G01 X392.898124 Y136.299120 Z-1.124486
G01 X393.104852 Y136.362987 Z-1.130441
G01 X394.641947 Y136.977159 Z-1.042868
G01 X394.737649 Y137.033011 Z-1.043404
G01 X395.959050 Y137.745904 Z-1.050092
G01 X397.016734 Y138.412061 Z-1.013827
G01 X398.321899 Y139.312209 Z-0.978154
G01 X398.626248 Y139.910661 Z-1.282502
G01 X399.124596 Y140.858053 Z-1.780850
G01 X398.564582 Y141.575659 Z-2.008039
G01 X397.262296 Y142.252428 Z-1.750201
G01 X397.109501 Y142.331874 Z-1.725620
G01 X395.717637 Y143.055520 Z-1.501507
G01 X395.511079 Y143.162934 Z-1.468233
G01 X394.114813 Y143.888866 Z-1.243443
G01 X393.333819 Y144.575033 Z-1.205117
G01 X393.328937 Y144.581608 Z-1.204016
G01 X392.483483 Y145.728052 Z-1.009340
G01 X391.815802 Y147.074223 Z-1.066320
G01 X391.748661 Y147.254507 Z-1.054495
G01 X391.220200 Y148.856259 Z-1.014278
G01 X391.170049 Y149.029120 Z-1.007364
G01 X390.776490 Y150.385311 Z-0.953121
G01 X390.398962 Y151.957430 Z-0.966555
G01 X390.337042 Y152.318053 Z-0.993620
G01 X390.115470 Y153.717057 Z-1.116556
G01 X389.852580 Y155.376778 Z-1.262408
G01 X389.829663 Y155.675736 Z-1.264327
G01 X389.744009 Y157.084589 Z-1.295541
G01 X389.675824 Y158.494910 Z-1.344281
G01 X389.597620 Y160.246212 Z-1.411280
G01 X389.598015 Y160.449750 Z-1.410914
G01 X389.603264 Y163.271973 Z-1.405664
G01 X389.605889 Y164.683084 Z-1.403040
G01 X389.611138 Y167.505306 Z-1.397818
G01 X389.613763 Y168.916417 Z-1.395194
G01 X389.621157 Y170.535837 Z-1.396577
G01 X389.645711 Y171.065935 Z-1.376370
G01 X389.711017 Y172.476566 Z-1.322634
G01 X389.834800 Y173.882258 Z-1.327545
G01 X390.002835 Y175.789431 Z-1.334318
G01 X389.993493 Y175.727794 Z-1.337987
G01 X390.204934 Y177.125443 Z-1.255014
G01 X390.458934 Y178.514061 Z-1.215588
G01 X390.750498 Y179.916113 Z-1.210112
G01 X390.894177 Y180.585629 Z-1.211834
G01 X391.489045 Y183.344464 Z-1.221768
G01 X391.786479 Y184.723882 Z-1.226707
G01 X392.222541 Y186.746230 Z-1.233988
G01 X392.216275 Y186.720011 Z-1.234468
G01 X392.543851 Y188.092796 Z-1.208532
G01 X392.872160 Y189.465412 Z-1.183330
G01 X393.243169 Y190.827022 Z-1.202238
G01 X393.602692 Y192.146495 Z-1.220526
G01 X393.696785 Y192.448755 Z-1.213443
G01 X394.116337 Y193.796423 Z-1.181834
G01 X394.548983 Y195.139688 Z-1.164082
G01 X395.473092 Y197.806462 Z-1.190583
G01 X396.397172 Y200.473236 Z-1.217083
G01 X396.960798 Y202.099711 Z-1.233226
G01 X397.079811 Y202.402874 Z-1.223095
G01 X397.595741 Y203.717014 Z-1.179124
G01 X398.138031 Y205.019865 Z-1.163884
G01 X398.837463 Y206.624947 Z-1.173903
G01 X398.834189 Y206.618004 Z-1.174073
G01 X399.437270 Y207.894213 Z-1.139105
G01 X400.062110 Y209.159500 Z-1.128494
G01 X400.719067 Y210.408587 Z-1.153809
G01 X401.389147 Y211.682595 Z-1.179661
G01 X401.668744 Y212.214189 Z-1.190442
G01 X402.586559 Y213.959253 Z-1.225832
G01 X402.805253 Y214.343838 Z-1.219256
G01 X403.717339 Y215.947763 Z-1.191740
G01 X403.722137 Y215.955439 Z-1.191232
G01 X404.525313 Y217.115711 Z-1.179407
G01 X405.336109 Y218.270649 Z-1.176895
G01 X406.159323 Y219.416331 Z-1.189821
G01 X406.314743 Y219.587696 Z-1.195606
G01 X407.409201 Y220.794337 Z-1.236218
G01 X407.671555 Y221.051780 Z-1.223970
G01 X408.679370 Y222.040574 Z-1.176980
G01 X409.972145 Y223.254581 Z-1.156772
G01 X410.041064 Y223.308090 Z-1.152342
G01 X411.251459 Y224.183882 Z-1.126800
G01 X411.417914 Y224.280544 Z-1.114975
G01 X412.640500 Y224.990530 Z-1.027938
G01 X414.076334 Y225.712991 Z-1.025285
G01 X414.123352 Y225.731561 Z-1.022124
G01 X415.528283 Y226.139711 Z-1.067026
G01 X415.597568 Y226.154471 Z-1.064175
G01 X417.123318 Y226.479422 Z-1.001494
G01 X417.439830 Y226.546816 Z-0.988512
G01 X419.212186 Y226.811851 Z-1.026499
G01 X419.423937 Y226.854410 Z-1.044307
G01 X421.913052 Y227.336813 Z-1.271101
G01 X423.042478 Y228.530923 Z-2.400526
G01 X422.280026 Y229.811535 Z-1.638074
G01 X421.394695 Y230.264304 Z-1.570792
G01 X420.033932 Y231.018289 Z-1.517198
G01 X419.502705 Y231.299664 Z-1.547707
G01 X418.317598 Y232.097168 Z-1.769618
G01 X416.473417 Y232.850504 Z-1.672957
G01 X415.969819 Y232.992348 Z-1.624217
G01 X414.097190 Y233.581064 Z-1.500124
G01 X413.837038 Y233.648261 Z-1.499390
G01 X412.293254 Y234.050936 Z-1.498798
G01 X412.278889 Y234.054689 Z-1.498798
G01 X410.913554 Y234.411249 Z-1.498656
G01 X409.460420 Y234.790697 Z-1.498544
G01 X408.981291 Y234.890236 Z-1.523238
G01 X407.588525 Y235.117143 Z-1.533370
G01 X406.187320 Y235.289920 Z-1.488750
G01 X404.345820 Y235.499949 Z-1.413284
G01 X404.003682 Y235.524362 Z-1.398355
G01 X401.185919 Y235.725360 Z-1.275390
G01 X398.368184 Y235.926359 Z-1.152454
G01 X396.959330 Y236.026858 Z-1.090986
G01 X395.550449 Y236.127358 Z-1.029518
G01 X393.809871 Y236.251507 Z-0.953572
G01 X393.181758 Y236.284753 Z-0.937712
G01 X391.772171 Y236.359372 Z-0.902152
G01 X390.362583 Y236.434077 Z-0.866704
G01 X388.314186 Y236.584783 Z-0.857194
G01 X387.873722 Y236.600955 Z-0.871361
G01 X386.462837 Y236.652771 Z-0.916658
G01 X384.643124 Y236.758350 Z-1.013883
G01 X384.600876 Y236.773251 Z-1.028587
G01 X383.192050 Y237.270047 Z-1.518892
G01 X381.783649 Y237.862996 Z-2.105350
G01 X380.241897 Y237.288900 Z-1.524169
G01 X380.115377 Y237.252944 Z-1.502043
G01 X378.732290 Y236.917608 Z-1.317300
G01 X375.944584 Y236.446325 Z-1.148390
G01 X374.463538 Y236.257152 Z-1.119519
G01 X373.738255 Y236.143331 Z-1.133715
G01 X372.342356 Y235.933443 Z-1.170150
G01 X370.946456 Y235.723582 Z-1.206585
G01 X369.550557 Y235.513722 Z-1.242991
G01 X367.434850 Y235.202656 Z-1.305137
G01 X367.068864 Y235.143616 Z-1.327827
G01 X365.279914 Y234.855015 Z-1.438712
G01 X365.104485 Y234.819455 Z-1.456831
G01 X363.697833 Y234.590883 Z-1.655995
G01 X361.929259 Y234.517449 Z-2.110740
G01 X359.910580 Y233.288795 Z-1.931134
G01 X361.497685 Y231.712894 Z-0.344029
G01 X361.018782 Y232.104618 Z-0.822932
G01 X360.576229 Y232.466653 Z-1.265484
G01 X359.311027 Y233.080966 Z-1.879798
G01 X359.207310 Y233.059150 Z-1.857982
G01 X357.496592 Y232.728104 Z-1.526935
G01 X357.222357 Y232.650126 Z-1.520698
G01 X355.864727 Y232.264130 Z-1.489795
G01 X354.507097 Y231.878107 Z-1.458920
G01 X353.023341 Y231.462732 Z-1.431459
G01 X352.545652 Y231.325177 Z-1.446840
G01 X351.188982 Y230.934497 Z-1.490585
G01 X349.790514 Y230.673780 Z-1.670812
G01 X348.461896 Y230.196006 Z-1.623060
G01 X347.161445 Y229.630630 Z-1.483247
G01 X345.846515 Y229.110325 Z-1.390819
G01 X344.051836 Y228.481196 Z-1.341741
G01 X343.670836 Y228.336895 Z-1.341374
G01 X342.348173 Y227.845123 Z-1.348684
G01 X340.979649 Y227.474791 Z-1.485815
G01 X339.240511 Y226.757664 Z-1.429484
G01 X338.577599 Y226.400174 Z-1.429202
G01 X336.756504 Y225.418068 Z-1.428468
G01 X336.613474 Y225.340965 Z-1.428411
G01 X335.371470 Y224.671167 Z-1.427875
G01 X333.930443 Y223.894040 Z-1.427282
G01 X333.847555 Y223.844454 Z-1.431572
G01 X332.664084 Y223.075822 Z-1.441845
G01 X331.408590 Y222.207057 Z-1.408232
G01 X330.843920 Y221.734786 Z-1.410914
G01 X328.679078 Y219.924133 Z-1.421130
G01 X327.087486 Y218.477942 Z-1.340697
G01 X326.599270 Y217.941409 Z-1.335617
G01 X325.190529 Y216.334774 Z-1.281289
G01 X324.735672 Y215.742108 Z-1.311035
G01 X323.878845 Y214.619653 Z-1.363585
G01 X323.066835 Y213.465619 Z-1.361299
G01 X321.868096 Y211.676414 Z-1.308608
G01 X321.807701 Y211.569565 Z-1.311148
G01 X321.112870 Y210.341023 Z-1.340414
G01 X320.362610 Y209.014410 Z-1.371995
G01 X320.165083 Y208.620117 Z-1.403294
G01 X319.568070 Y207.340098 Z-1.464056
G01 X318.979778 Y206.056439 Z-1.515364
G01 X318.430545 Y204.756551 Z-1.524395
G01 X317.714350 Y203.055146 Z-1.533708
G01 X317.572872 Y202.675416 Z-1.552674
G01 X317.079604 Y201.351681 Z-1.618742
G01 X316.437943 Y199.664952 Z-1.715488
G01 X316.231921 Y199.086453 Z-1.771170
G01 X315.756518 Y197.751626 Z-1.899638
G01 X315.091997 Y195.885827 Z-2.079216
G01 X315.091066 Y195.883174 Z-2.079470
G01 X314.654891 Y194.538272 Z-2.167410
G01 X314.839295 Y193.034028 Z-1.614706
G01 X314.608776 Y191.577168 Z-1.475627
G01 X314.531730 Y190.938189 Z-1.438628
G01 X314.352180 Y189.536786 Z-1.367875
G01 X314.025310 Y187.508681 Z-1.331496
G01 X313.989863 Y187.211332 Z-1.338524
G01 X313.822759 Y185.809760 Z-1.371572
G01 X313.655655 Y184.408188 Z-1.404648
G01 X313.526764 Y183.002947 Z-1.399286
G01 X313.430244 Y181.594658 Z-1.361468
G01 X313.329435 Y179.880948 Z-1.298871
G01 X313.336236 Y179.444661 Z-1.290659
G01 X313.358306 Y178.033493 Z-1.264073
G01 X313.387262 Y176.183216 Z-1.229191
G01 X313.429962 Y175.542289 Z-1.249793
G01 X313.523829 Y174.133577 Z-1.295061
G01 X313.638750 Y172.726953 Z-1.319191
G01 X313.785957 Y171.323519 Z-1.310866
G01 X314.028753 Y169.276081 Z-1.270790
G01 X314.089911 Y168.989315 Z-1.270762
G01 X314.384212 Y167.609249 Z-1.270706
G01 X314.740828 Y165.936997 Z-1.270621
G01 X314.853237 Y165.531105 Z-1.295880
G01 X315.234463 Y164.170060 Z-1.376511
G01 X316.185241 Y161.512543 Z-1.338665
G01 X316.890910 Y159.817629 Z-1.220639
G01 X316.990337 Y159.618183 Z-1.219256
G01 X317.619833 Y158.355238 Z-1.210564
G01 X318.349152 Y156.892001 Z-1.200517
G01 X318.459332 Y156.702771 Z-1.213358
G01 X319.170701 Y155.481285 Z-1.296190
G01 X320.018497 Y154.181623 Z-1.308552
G01 X320.191019 Y153.917153 Z-1.311063
G01 X320.962022 Y152.735262 Z-1.322324
G01 X322.026451 Y151.272815 Z-1.244233
G01 X322.245710 Y151.010941 Z-1.250329
G01 X323.151671 Y149.928760 Z-1.275447
G01 X324.283806 Y148.576436 Z-1.306830
G01 X324.709397 Y148.134476 Z-1.360339
G01 X325.686224 Y147.107582 Z-1.492589
G01 X326.656025 Y146.072617 Z-1.635534
G01 X327.601102 Y145.009260 Z-1.816128
G01 X329.284388 Y143.835018 Z-1.595233
G01 X329.655313 Y143.671047 Z-1.528995
G01 X330.917608 Y143.022697 Z-1.379107
G01 X332.436500 Y142.076999 Z-1.337197
G01 X332.555372 Y142.012060 Z-1.343829
G01 X335.035287 Y140.657760 Z-1.482146
G01 X336.296538 Y140.024594 Z-1.502438
G01 X337.579520 Y139.436330 Z-1.472833
G01 X338.982673 Y138.792977 Z-1.440462
G01 X339.524652 Y138.604875 Z-1.439926
G01 X340.868566 Y138.173245 Z-1.405608
G01 X342.743397 Y137.571095 Z-1.357771
G01 X343.383110 Y137.400069 Z-1.374450
G01 X346.110449 Y136.670863 Z-1.445627
G01 X347.475332 Y136.311425 Z-1.475909
G01 X348.856528 Y136.019635 Z-1.436568
G01 X350.876562 Y135.592915 Z-1.379051
G01 X351.053825 Y135.563197 Z-1.381591
G01 X352.449950 Y135.357909 Z-1.373152
G01 X353.851579 Y135.188547 Z-1.328335
G01 X355.417066 Y134.999402 Z-1.278297
G01 X355.794481 Y134.966692 Z-1.279088
G01 X357.200343 Y134.844885 Z-1.282023
G01 X358.606177 Y134.722909 Z-1.285099
G01 X360.346359 Y134.572174 Z-1.288683
G01 X360.656691 Y134.551854 Z-1.282813
G01 X363.473776 Y134.372022 Z-1.224647
G01 X364.883787 Y134.299378 Z-1.178278
G01 X366.294841 Y134.239095 Z-1.119434
G01 X368.051251 Y134.164081 Z-1.046226
G01 X369.522815 Y134.149687 Z-1.033357
G01 X370.749381 Y134.505739 Z-1.390678
G00 Z5.000000

G00 Z5.000000
G00 X327.627772 Y144.373498

G01 Z-1.842798 F100.0(Penetrate)
G01 X327.552645 Y145.115770 Z-1.767671 F400.000000
G01 X326.687605 Y146.038919 Z-1.640191
G01 X325.250078 Y147.572995 Z-1.428327
G01 X325.095703 Y147.733325 Z-1.408910
G01 X324.126439 Y148.764396 Z-1.302456
G01 X323.090627 Y150.001686 Z-1.273754
G01 X322.897671 Y150.232177 Z-1.268391
G01 X321.994419 Y151.316531 Z-1.246773
G01 X321.024111 Y152.640097 Z-1.323227
G01 X320.869566 Y152.877023 Z-1.320969
G01 X320.098563 Y154.058913 Z-1.309737
G01 X319.169459 Y155.483176 Z-1.296162
G01 X318.934368 Y155.886951 Z-1.268758
G01 X318.237590 Y157.115859 Z-1.202041
G01 X316.978596 Y159.641748 Z-1.219426
G01 X316.239146 Y161.361949 Z-1.336520
G01 X316.198195 Y161.476418 Z-1.338157
G01 X315.722792 Y162.805177 Z-1.357066
G01 X315.215413 Y164.223287 Z-1.377273
G01 X315.056691 Y164.796481 Z-1.341600
G01 X314.547957 Y166.841491 Z-1.270649
G01 X314.517647 Y166.983647 Z-1.270677
G01 X314.223317 Y168.363713 Z-1.270734
G01 X313.942732 Y169.828898 Z-1.301976
G01 X313.909712 Y170.143717 Z-1.303838
G01 X313.762505 Y171.547152 Z-1.312192
G01 X313.580725 Y173.280024 Z-1.322493
G01 X313.581177 Y173.272969 Z-1.322719
G01 X313.393443 Y176.090393 Z-1.232182
G01 X313.366632 Y177.501420 Z-1.254026
G01 X313.344562 Y178.912615 Z-1.280640
G01 X313.342671 Y180.317123 Z-1.327150
G01 X313.365051 Y180.643513 Z-1.335927
G01 X313.461571 Y182.051830 Z-1.373745
G01 X313.579060 Y183.765737 Z-1.419775
G01 X313.586906 Y183.831523 Z-1.418223
G01 X313.754010 Y185.233095 Z-1.385175
G01 X313.937398 Y186.771319 Z-1.348909
G01 X313.948207 Y186.862082 Z-1.346764
G01 X314.146270 Y188.259223 Z-1.344958
G01 X314.394090 Y189.796741 Z-1.372560
G01 X314.462246 Y190.361976 Z-1.405269
G01 X315.005750 Y194.085955 Z-1.715121
G01 X312.940561 Y193.506778 Z-1.135944
G01 X312.029688 Y192.934911 Z-0.564049
G01 X311.855134 Y192.573046 Z-0.564078
G01 X310.628991 Y190.031099 Z-0.564247
G01 X309.987952 Y188.702142 Z-0.564332
G01 X309.882401 Y188.465527 Z-0.572064
G01 X308.731894 Y185.887089 Z-0.656251
G01 X307.581415 Y183.308622 Z-0.740410
G01 X307.009915 Y182.017878 Z-0.778482
G01 X306.475724 Y180.711782 Z-0.776168
G01 X305.843631 Y179.166249 Z-0.773430
G01 X305.765540 Y178.963020 Z-0.777720
G01 X304.752842 Y176.328165 Z-0.833205
G01 X304.291155 Y174.994581 Z-0.813477
G01 X303.769637 Y173.428699 Z-0.770918
G01 X303.642750 Y172.975083 Z-0.781727
G01 X303.262512 Y171.615788 Z-0.814098
G01 X302.765490 Y169.839115 Z-0.856432
G01 X302.753806 Y169.797317 Z-0.857419
G01 X302.373568 Y168.438022 Z-0.889818
G01 X301.994910 Y166.987033 Z-0.897975
G01 X301.888654 Y166.444913 Z-0.922302
G01 X301.627626 Y165.057198 Z-0.973780
G01 X301.318057 Y163.133627 Z-0.993422
G01 X301.243607 Y162.560152 Z-1.016847
G01 X301.061799 Y161.159624 Z-1.074110
G01 X300.916539 Y159.755851 Z-1.094627
G01 X300.799756 Y158.349566 Z-1.086584
G01 X300.711194 Y156.350924 Z-0.998022
G01 X300.710828 Y156.261996 Z-0.997656
G01 X300.704816 Y154.850885 Z-0.991644
G01 X300.507486 Y153.188455 Z-1.174835
G01 X300.574288 Y151.793035 Z-1.570877
G01 X301.308207 Y150.831166 Z-1.194280
G01 X302.691943 Y149.844376 Z-0.999942
G01 X303.191166 Y149.566104 Z-0.997514
G01 X304.423743 Y148.879063 Z-0.991475
G01 X306.116568 Y147.962179 Z-0.959951
G01 X306.673336 Y147.720569 Z-0.964607
G01 X308.510998 Y146.943046 Z-0.961700
G01 X308.721141 Y146.868907 Z-0.962011
G01 X310.051903 Y146.399515 Z-0.963874
G01 X311.563796 Y145.866199 Z-0.965990
G01 X312.162502 Y145.655012 Z-0.966837
G01 X314.150419 Y144.994076 Z-0.931616
G01 X314.560996 Y144.889569 Z-0.938276
G01 X315.929943 Y144.546782 Z-0.955012
G01 X317.705883 Y144.172414 Z-0.908332
G01 X317.795658 Y144.156384 Z-0.908812
G01 X320.573995 Y143.660463 Z-0.924024
G01 X321.971079 Y143.458166 Z-0.885246
G01 X323.475211 Y143.263828 Z-0.820448
G01 X323.919429 Y143.254769 Z-0.798068
G01 X326.455252 Y143.202981 Z-0.670278
G01 X327.627772 Y144.373498 Z-1.842798
G00 Z5.000000

G00 Z5.000000
G00 X300.705409 Y154.992109

G01 Z-0.992237 F100.0(Penetrate)
G01 X300.718617 Y156.518790 Z-1.005445 F400.000000
G01 X300.733434 Y156.853195 Z-1.020262
G01 X300.808618 Y158.549407 Z-1.095446
G01 X300.840452 Y158.905346 Z-1.095192
G01 X300.998525 Y160.672367 Z-1.094006
G01 X301.030755 Y160.920610 Z-1.083874
G01 X301.212590 Y162.321138 Z-1.026640
G01 X301.412206 Y163.718589 Z-0.987439
G01 X301.677862 Y165.369335 Z-0.970590
G01 X301.786884 Y165.925567 Z-0.945614
G01 X302.212955 Y167.863869 Z-0.903478
G01 X302.215185 Y167.871885 Z-0.903280
G01 X302.595451 Y169.231180 Z-0.870910
G01 X302.975689 Y170.590503 Z-0.838539
G01 X303.736193 Y173.309093 Z-0.773769
G01 X304.176432 Y174.650100 Z-0.804108
G01 X304.621327 Y175.985915 Z-0.840401
G01 X304.793087 Y176.432870 Z-0.831003
G01 X305.805785 Y179.067725 Z-0.775518
G01 X306.337859 Y180.374668 Z-0.775575
G01 X307.058457 Y182.136581 Z-0.778679
G01 X307.223331 Y182.506095 Z-0.766628
G01 X308.373810 Y185.084533 Z-0.682442
G01 X309.524317 Y187.663000 Z-0.598255
G01 X310.293260 Y189.335026 Z-0.564303
G01 X310.590045 Y189.950355 Z-0.564247
G01 X311.816216 Y192.492302 Z-0.564078
G01 X313.645665 Y193.949500 Z-1.578638
G01 X313.710124 Y193.990705 Z-1.619871
G01 X314.792559 Y195.044974 Z-2.160129
G01 X315.267935 Y196.379800 Z-2.031661
G01 X316.218713 Y199.049425 Z-1.774726
G01 X316.742038 Y200.445691 Z-1.663982
G01 X316.808134 Y200.623124 Z-1.655120
G01 X317.301402 Y201.946860 Z-1.589052
G01 X317.867342 Y203.418564 Z-1.531733
G01 X317.872648 Y203.431207 Z-1.531648
G01 X318.420131 Y204.731800 Z-1.524536
G01 X318.954491 Y206.001264 Z-1.517565
G01 X319.205104 Y206.548098 Z-1.495721
G01 X320.043247 Y208.376926 Z-1.422598
G01 X320.229853 Y208.749403 Z-1.393021
G01 X320.911843 Y209.985565 Z-1.348881
G01 X321.606646 Y211.214106 Z-1.319615
G01 X322.572071 Y212.762462 Z-1.359916
G01 X322.846476 Y213.152437 Z-1.360706
G01 X323.930153 Y214.692580 Z-1.363726
G01 X324.052158 Y214.851555 Z-1.355739
G01 X324.912004 Y215.971865 Z-1.299520
G01 X325.819687 Y217.052296 Z-1.305560
G01 X326.880053 Y218.261618 Z-1.346426
G01 X327.148474 Y218.534076 Z-1.344309
G01 X328.464533 Y219.744696 Z-1.422146
G01 X328.508305 Y219.781300 Z-1.421920
G01 X330.673147 Y221.591954 Z-1.411704
G01 X331.815611 Y222.508922 Z-1.436003
G01 X332.087561 Y222.690645 Z-1.437866
G01 X333.531381 Y223.655308 Z-1.447828
G01 X333.806435 Y223.819872 Z-1.433689
G01 X335.390887 Y224.681638 Z-1.427903
G01 X335.582375 Y224.784903 Z-1.427960
G01 X336.824378 Y225.454701 Z-1.428496
G01 X338.066410 Y226.124499 Z-1.429004
G01 X340.253350 Y227.219775 Z-1.503906
G01 X340.253350 Y227.219775 Z-1.503906
G01 X339.830130 Y227.496240 Z-1.059575
G01 X339.908390 Y228.454582 Z-1.059575
G01 X339.561059 Y229.898770 Z-0.595828
G01 X339.659752 Y231.306522 Z-0.579600
G01 X339.792256 Y233.099339 Z-0.565714
G01 X339.819603 Y233.469276 Z-0.562836
G01 X339.923602 Y234.876605 Z-0.551942
G01 X340.056359 Y236.672667 Z-0.538000
G01 X340.080715 Y237.300668 Z-0.555159
G01 X340.160725 Y239.364898 Z-0.611576
G01 X340.156322 Y239.494015 Z-0.624473
G01 X340.108203 Y240.911391 Z-0.766008
G01 X340.421357 Y242.377423 Z-1.272117
G01 X339.819292 Y243.897754 Z-0.878417
G01 X339.676262 Y244.171594 Z-0.835688
G01 X338.891543 Y245.673807 Z-0.601162
G01 X338.704374 Y245.981711 Z-0.591594
G01 X337.813708 Y247.451383 Z-0.548358
G01 X337.692099 Y247.652043 Z-0.542459
G01 X336.821923 Y249.087877 Z-0.500211
G01 X336.677397 Y249.294520 Z-0.510342
G01 X335.657248 Y250.780618 Z-0.598396
G01 X335.338422 Y251.725526 Z-1.366351
G01 X334.396759 Y252.047259 Z-1.329351
G01 X333.483149 Y251.692478 Z-1.348740
G01 X332.184701 Y251.139689 Z-1.331327
G01 X330.894664 Y250.566467 Z-1.291872
G01 X329.165714 Y249.786405 Z-1.228034
G01 X328.999598 Y249.705859 Z-1.226651
G01 X327.729795 Y249.090248 Z-1.216152
G01 X326.460021 Y248.474636 Z-1.205682
G01 X325.190219 Y247.859025 Z-1.195183
G01 X323.784047 Y247.177289 Z-1.183555
G01 X323.362971 Y246.973129 Z-1.180056
G01 X322.093169 Y246.357518 Z-1.169585
G01 X320.818512 Y245.752151 Z-1.170460
G01 X318.257656 Y244.565689 Z-1.199021
G01 X316.977213 Y243.972430 Z-1.213302
G01 X315.473421 Y243.848788 Z-1.747605
G01 X313.324637 Y242.651319 Z-1.589222
G01 X313.332059 Y242.643982 Z-1.579400
G01 X313.020034 Y241.966592 Z-1.579400
G01 X311.872914 Y239.387758 Z-1.542457
G01 X311.228770 Y237.939704 Z-1.521686
G01 X311.026360 Y237.484705 Z-1.515166
G01 X310.452800 Y236.195288 Z-1.496681
G01 X309.305651 Y233.616455 Z-1.459710
G01 X308.515655 Y231.840487 Z-1.434225
G01 X308.293941 Y231.307962 Z-1.440547
G01 X307.751566 Y230.005139 Z-1.456013
G01 X307.218054 Y228.698761 Z-1.461883
G01 X306.691258 Y227.389673 Z-1.460556
G01 X305.949239 Y225.545859 Z-1.458666
G01 X305.854186 Y225.292734 Z-1.464733
G01 X305.358012 Y223.971369 Z-1.496370
G01 X304.886418 Y222.641369 Z-1.501930
G01 X303.956016 Y219.976909 Z-1.499560
G01 X303.025614 Y217.312477 Z-1.497189
G01 X302.095212 Y214.648017 Z-1.494790
G01 X301.629997 Y213.315787 Z-1.493605
G01 X301.078986 Y211.731786 Z-1.490190
G01 X300.952833 Y211.314380 Z-1.488750
G01 X300.136421 Y208.612807 Z-1.479296
G01 X299.319980 Y205.911235 Z-1.469870
G01 X298.804699 Y204.145173 Z-1.446078
G01 X298.739929 Y203.908643 Z-1.446332
G01 X297.994664 Y201.186581 Z-1.449296
G01 X297.249428 Y198.464548 Z-1.452259
G01 X296.876782 Y197.103503 Z-1.453755
G01 X296.445264 Y195.527320 Z-1.455476
G01 X296.300992 Y195.000411 Z-1.456041
G01 X295.555756 Y192.278378 Z-1.459004
G01 X295.032855 Y190.368552 Z-1.461093
G01 X294.899731 Y189.849884 Z-1.469757
G01 X294.556153 Y188.481134 Z-1.485110
G01 X294.074965 Y186.564140 Z-1.506587
G01 X294.052556 Y186.459520 Z-1.511498
G01 X293.801999 Y185.070733 Z-1.530096
G01 X293.372231 Y182.281192 Z-1.494988
G01 X293.157347 Y180.886421 Z-1.477405
G01 X292.925248 Y179.379975 Z-1.458440
G01 X292.889716 Y179.065890 Z-1.467245
G01 X292.791503 Y177.658025 Z-1.445796
G01 X292.722415 Y175.958991 Z-1.370640
G01 X292.721173 Y175.891342 Z-1.369145
G01 X292.701389 Y174.479864 Z-1.331807
G01 X292.688012 Y173.068160 Z-1.288062
G01 X292.674267 Y171.619175 Z-1.243161
G01 X292.672264 Y171.407762 Z-1.236613
G01 X292.658858 Y169.996058 Z-1.192897
G01 X292.645481 Y168.584326 Z-1.149152
G01 X292.629676 Y166.918369 Z-1.097534
G01 X292.638087 Y166.633917 Z-1.099792
G01 X292.679686 Y165.223370 Z-1.111081
G01 X292.722415 Y163.467327 Z-1.134166
G01 X292.799969 Y162.788131 Z-1.206387
G01 X292.939782 Y161.373520 Z-1.377978
G01 X293.118993 Y159.269328 Z-1.661273
G01 X293.230415 Y157.787746 Z-2.059206
G01 X293.648132 Y157.350527 Z-1.892893
G01 X295.186045 Y155.972464 Z-1.172774
G01 X296.037566 Y155.019823 Z-1.044025
G01 X296.931279 Y154.124614 Z-0.986113
G01 X297.880364 Y153.173892 Z-0.924645
G01 X299.052998 Y152.197657 Z-0.995116
G01 X300.629773 Y153.448551 Z-1.054749
G01 X300.704703 Y154.826868 Z-0.991531
G01 X300.705409 Y154.992109 Z-0.992237
G00 Z5.000000

G00 Z5.000000
G00 X291.450749 Y156.970176

G01 Z-1.392089 F100.0(Penetrate)
G01 X292.576731 Y157.146847 Z-1.630511 F400.000000
G01 X293.214271 Y158.631590 Z-1.788047
G01 X293.150771 Y159.056617 Z-1.703550
G01 X293.016208 Y160.476138 Z-1.498798
G01 X292.876028 Y162.122002 Z-1.277197
G01 X292.802171 Y162.768883 Z-1.208419
G01 X292.692245 Y164.797553 Z-1.114467
G01 X292.691681 Y164.816716 Z-1.114326
G01 X292.650081 Y166.227263 Z-1.103037
G01 X292.636506 Y167.638402 Z-1.119830
G01 X292.649996 Y169.061733 Z-1.163941
G01 X292.652282 Y169.302413 Z-1.171392
G01 X292.665688 Y170.714145 Z-1.215136
G01 X292.679065 Y172.125877 Z-1.258880
G01 X292.692443 Y173.537609 Z-1.302625
G01 X292.708021 Y175.177884 Z-1.353425
G01 X292.713496 Y175.475233 Z-1.360001
G01 X292.760148 Y176.886514 Z-1.411676
G01 X292.825764 Y178.500373 Z-1.483050
G01 X292.845971 Y178.679048 Z-1.478054
G01 X293.032774 Y180.077770 Z-1.467245
G01 X293.462514 Y182.867311 Z-1.502354
G01 X293.677398 Y184.262081 Z-1.519908
G01 X293.922282 Y185.851529 Z-1.539917
G01 X293.905462 Y185.772930 Z-1.543614
G01 X294.221720 Y187.148848 Z-1.500039
G01 X294.565297 Y188.517569 Z-1.484686
G01 X294.909129 Y189.887250 Z-1.469334
G01 X294.992808 Y190.212737 Z-1.463774
G01 X295.363027 Y191.574403 Z-1.459766
G01 X296.108263 Y194.296464 Z-1.456803
G01 X296.480909 Y195.657481 Z-1.455335
G01 X296.944487 Y197.350730 Z-1.453473
G01 X296.972060 Y197.451483 Z-1.453360
G01 X297.717325 Y200.173544 Z-1.450396
G01 X298.462561 Y202.895578 Z-1.447433
G01 X298.836900 Y204.256143 Z-1.447715
G01 X299.255041 Y205.696351 Z-1.469108
G01 X299.365869 Y206.063127 Z-1.470406
G01 X300.182310 Y208.764699 Z-1.479832
G01 X300.590516 Y210.115471 Z-1.484545
G01 X301.106221 Y211.815804 Z-1.492250
G01 X301.320512 Y212.429496 Z-1.492814
G01 X302.250942 Y215.093956 Z-1.495185
G01 X303.181344 Y217.758388 Z-1.497584
G01 X304.111746 Y220.422848 Z-1.499955
G01 X304.576933 Y221.755078 Z-1.501140
G01 X305.255988 Y223.699674 Z-1.502890
G01 X305.346017 Y223.939422 Z-1.497161
G01 X305.842220 Y225.260814 Z-1.465495
G01 X306.362412 Y226.572527 Z-1.459710
G01 X306.889236 Y227.881614 Z-1.461064
G01 X307.518169 Y229.444533 Z-1.462645
G01 X307.739770 Y229.976776 Z-1.456351
G01 X308.282144 Y231.279570 Z-1.440886
G01 X308.842271 Y232.574744 Z-1.444780
G01 X309.989419 Y235.153578 Z-1.481751
G01 X310.804392 Y236.985652 Z-1.508026
G01 X310.814722 Y237.008935 Z-1.508337
G01 X311.388310 Y238.298352 Z-1.526822
G01 X312.535431 Y240.877186 Z-1.563793
G01 X313.109019 Y242.166603 Z-1.582279
G01 X313.977219 Y243.329556 Z-1.921397
G01 X314.484034 Y244.695963 Z-1.848189
G01 X314.430271 Y245.001045 Z-1.683794
G01 X315.390617 Y247.657010 Z-1.576522
G01 X315.873047 Y248.984076 Z-1.525355
G01 X316.488179 Y250.558057 Z-1.504414
G01 X316.740909 Y251.252070 Z-1.512485
G01 X317.223847 Y252.578063 Z-1.527895
G01 X318.189668 Y255.230049 Z-1.558657
G01 X318.647687 Y256.564819 Z-1.547650
G01 X319.527289 Y259.247143 Z-1.487057
G01 X320.198780 Y261.294778 Z-1.440773
G01 X320.343391 Y261.780709 Z-1.443905
G01 X320.740082 Y263.134924 Z-1.446586
G01 X321.113265 Y264.495969 Z-1.424771
G01 X321.615818 Y266.328748 Z-1.395420
G01 X321.739459 Y266.809147 Z-1.395561
G01 X322.091165 Y268.175723 Z-1.395956
G01 X322.794575 Y270.908876 Z-1.396746
G01 X323.260355 Y272.735644 Z-1.393049
G01 X323.390516 Y273.262214 Z-1.387997
G01 X323.729154 Y274.632149 Z-1.374874
G01 X324.029354 Y276.011962 Z-1.322126
G01 X324.440947 Y277.968580 Z-1.233593
G01 X324.467984 Y278.124452 Z-1.232239
G01 X324.704035 Y279.515807 Z-1.214854
G01 X324.877996 Y280.918452 Z-1.134364
G01 X325.048600 Y282.491925 Z-1.019951
G01 X325.076653 Y283.041271 Z-1.006150
G01 X325.148591 Y284.450999 Z-0.970647
G01 X325.220529 Y285.860727 Z-0.935172
G01 X325.322525 Y287.800638 Z-0.889367
G01 X325.325488 Y287.883555 Z-0.892387
G01 X325.379167 Y289.394149 Z-0.947420
G01 X325.368075 Y290.009591 Z-1.002736
G01 X325.566336 Y292.127161 Z-1.428101
G01 X326.089746 Y293.761115 Z-2.357515
G01 X325.131093 Y294.527913 Z-1.885781
G01 X324.076880 Y295.319800 Z-1.342390
G01 X323.474138 Y295.846060 Z-1.237996
G01 X322.453623 Y296.827629 Z-1.121043
G01 X320.952370 Y298.281610 Z-0.955661
G01 X320.513627 Y298.718094 Z-0.950524
G01 X319.513262 Y299.713379 Z-0.938840
G01 X318.093600 Y301.125789 Z-0.922274
G01 X317.718978 Y301.498491 Z-0.917900
G01 X316.336879 Y302.873506 Z-0.901785
G01 X316.131450 Y303.073404 Z-0.902575
G01 X314.897490 Y304.274232 Z-0.907373
G01 X314.687008 Y304.464195 Z-0.918774
G01 X313.638694 Y305.410515 Z-0.975614
G01 X312.302626 Y306.480137 Z-0.943215
G01 X310.991365 Y307.192833 Z-0.811220
G01 X310.405387 Y307.523230 Z-0.871276
G01 X308.535382 Y308.484507 Z-0.977956
G01 X307.152493 Y308.871067 Z-1.008803
G01 X307.003508 Y308.901011 Z-1.020092
G01 X305.616245 Y309.179875 Z-1.125164
G01 X304.080109 Y309.418804 Z-1.172182
G01 X303.866467 Y309.436753 Z-1.183781
G01 X302.281338 Y309.549896 Z-1.249990
G01 X301.890686 Y309.572135 Z-1.271891
G01 X300.106957 Y309.673707 Z-1.371995
G01 X299.516096 Y309.707348 Z-1.405156
G01 X298.105042 Y309.787697 Z-1.484320
G01 X296.052524 Y309.745589 Z-1.440490
G01 X295.841506 Y309.695100 Z-1.404733
G01 X294.442503 Y309.471805 Z-1.278777
G01 X292.805388 Y309.272698 Z-1.193433
G01 X292.701502 Y309.254889 Z-1.195606
G01 X291.310372 Y309.016468 Z-1.224675
G01 X289.919242 Y308.778047 Z-1.253744
G01 X287.136983 Y308.301232 Z-1.311882
G01 X285.669794 Y307.966404 Z-1.260687
G01 X285.039056 Y307.787701 Z-1.266698
G01 X283.681313 Y307.403004 Z-1.279624
G01 X281.726444 Y306.849142 Z-1.298250
G01 X281.666133 Y306.830798 Z-1.300028
G01 X280.326650 Y306.386919 Z-1.305278
G01 X277.653300 Y305.482368 Z-1.298081
G01 X276.280599 Y305.017887 Z-1.294384
G01 X276.013420 Y304.927491 Z-1.293678
G01 X274.676730 Y304.475202 Z-1.290066
G01 X273.049635 Y303.924671 Z-1.285692
G01 X272.836783 Y303.848076 Z-1.289445
G01 X271.508814 Y303.370302 Z-1.312785
G01 X269.963704 Y302.812857 Z-1.338524
G01 X269.642704 Y302.678124 Z-1.341600
G01 X267.040305 Y301.585867 Z-1.366689
G01 X265.739120 Y301.039711 Z-1.379220
G01 X264.121140 Y300.342650 Z-1.378260
G01 X263.985504 Y300.273393 Z-1.375354
G01 X262.728514 Y299.631535 Z-1.348373
G01 X261.335776 Y298.920363 Z-1.318486
G01 X261.096112 Y298.790484 Z-1.319953
G01 X259.855464 Y298.118118 Z-1.327573
G01 X257.374166 Y296.773386 Z-1.342842
G01 X255.893205 Y295.970774 Z-1.351957
G01 X255.757032 Y295.892627 Z-1.356642
G01 X254.555020 Y295.153458 Z-1.356162
G01 X253.230889 Y294.317206 Z-1.336887
G01 X252.927388 Y294.115501 Z-1.340838
G01 X250.576646 Y292.553486 Z-1.371544
G01 X249.401275 Y291.772464 Z-1.386868
G01 X247.922543 Y290.789851 Z-1.406200
G01 X247.722561 Y290.650546 Z-1.414187
G01 X246.564039 Y289.843560 Z-1.460472
G01 X245.228055 Y288.872095 Z-1.481102
G01 X244.974507 Y288.669205 Z-1.482400
G01 X243.872711 Y287.787571 Z-1.487988
G01 X242.539126 Y286.720433 Z-1.494734
G01 X242.110374 Y286.377335 Z-1.496907
G01 X240.538735 Y285.119725 Z-1.504894
G01 X240.049926 Y284.664161 Z-1.503906
G01 X238.535832 Y283.249861 Z-1.498544
G01 X238.074963 Y282.792605 Z-1.516436
G01 X237.083517 Y281.788176 Z-1.540679
G01 X236.103415 Y280.772966 Z-1.549259
G01 X234.673141 Y279.291469 Z-1.561790
G01 X234.172310 Y278.742349 Z-1.587387
G01 X232.712036 Y277.156627 Z-1.672026
G01 X232.671029 Y277.112995 Z-1.678150
G01 X230.727788 Y275.045802 Z-1.969064
G01 X229.756153 Y274.012220 Z-2.114522
G01 X228.733577 Y272.924422 Z-2.267599
G01 X228.186461 Y273.195553 Z-2.872232
G01 X227.546663 Y271.923578 Z-2.682296
G01 X226.865266 Y270.568911 Z-2.480000
G01 X226.824062 Y270.481309 Z-2.469614
G01 X226.262242 Y269.171262 Z-2.268079
G01 X225.705756 Y267.857969 Z-2.060335
G01 X225.133946 Y266.554018 Z-1.870541
G01 X224.478259 Y265.210922 Z-1.731998
G01 X224.455427 Y265.160800 Z-1.728357
G01 X223.861434 Y263.878015 Z-1.643860
G01 X223.177525 Y262.579228 Z-1.630962
G01 X222.857852 Y261.926110 Z-1.646033
G01 X221.968626 Y260.034684 Z-1.656390
G01 X221.947685 Y259.987751 Z-1.655628
G01 X221.372798 Y258.698870 Z-1.634546
G01 X220.756510 Y257.315473 Z-1.611178
G01 X220.509142 Y256.672740 Z-1.609259
G01 X220.002299 Y255.355807 Z-1.605336
G01 X219.256442 Y253.417900 Z-1.599523
G01 X219.092414 Y252.967981 Z-1.606719
G01 X218.609024 Y251.642073 Z-1.627914
G01 X218.064787 Y250.337331 Z-1.713569
G01 X217.503193 Y249.038629 Z-1.817596
G01 X217.124168 Y247.676427 Z-1.728301
G01 X216.693582 Y245.824880 Z-1.527048
G01 X216.557607 Y245.290775 Z-1.500858
G01 X216.207482 Y243.922223 Z-1.435410
G01 X215.702192 Y241.998229 Z-1.355908
G01 X215.577083 Y241.429156 Z-1.356134
G01 X215.160748 Y239.535417 Z-1.356981
G01 X215.040860 Y238.990163 Z-1.357207
G01 X214.773737 Y237.604085 Z-1.321082
G01 X214.450451 Y235.569235 Z-1.200771
G01 X214.398579 Y234.897066 Z-1.205117
G01 X214.290065 Y233.490104 Z-1.214205
G01 X214.202604 Y232.081646 Z-1.202154
G01 X214.105604 Y230.038018 Z-1.154825
G01 X214.107382 Y229.588438 Z-1.158353
G01 X214.118445 Y226.766159 Z-1.180564
G01 X214.123977 Y225.355020 Z-1.191655
G01 X214.135068 Y222.532713 Z-1.213838
G01 X214.144184 Y221.121630 Z-1.221373
G01 X214.185614 Y219.258484 Z-1.201900
G01 X214.223432 Y218.669683 Z-1.220442
G01 X214.313941 Y217.260802 Z-1.264864
G01 X214.424628 Y215.853811 Z-1.288994
G01 X214.695420 Y213.825537 Z-1.213048
G01 X214.797190 Y213.273284 Z-1.251656
G01 X214.855638 Y211.831524 Z-1.553125
G01 X214.632541 Y209.836721 Z-2.264720
G01 X214.775430 Y209.626267 Z-2.178558
G01 X215.605531 Y208.159530 Z-1.738771
G01 X215.882814 Y207.541605 Z-1.605647
G01 X216.475339 Y205.549539 Z-1.470434
G01 X216.482959 Y205.522220 Z-1.468092
G01 X216.844740 Y204.100893 Z-1.381760
G01 X216.857694 Y204.047807 Z-1.379079
G01 X217.224696 Y202.543506 Z-1.303302
G01 X217.305101 Y202.284793 Z-1.306830
G01 X217.796873 Y200.702175 Z-1.328392
G01 X218.014382 Y200.114475 Z-1.355965
G01 X218.550096 Y198.808944 Z-1.368891
G01 X219.350761 Y196.945656 Z-1.354018
G01 X219.543547 Y196.558334 Z-1.356501
G01 X220.361709 Y194.914644 Z-1.367113
G01 X220.669783 Y194.337697 Z-1.389578
G01 X221.334839 Y193.092166 Z-1.438092
G01 X222.028598 Y191.863285 Z-1.453388
G01 X222.737343 Y190.643098 Z-1.451412
G01 X223.834086 Y188.857506 Z-1.396915
G01 X224.108717 Y188.463834 Z-1.403914
G01 X225.723592 Y186.148906 Z-1.445062
G01 X226.835915 Y184.605038 Z-1.443877
G01 X227.060423 Y184.337689 Z-1.456831
G01 X227.968501 Y183.256298 Z-1.509240
G01 X228.906890 Y182.202367 Z-1.520783
G01 X230.031912 Y180.955876 Z-1.523153
G01 X230.341792 Y180.612553 Z-1.523802
G01 X231.287237 Y179.565000 Z-1.525806
G01 X232.646645 Y178.114519 Z-1.491290
G01 X232.770484 Y178.005384 Z-1.497894
G01 X233.829918 Y177.071567 Z-1.554254
G01 X234.926154 Y176.183019 Z-1.552279
G01 X236.128872 Y175.217028 Z-1.543276
G01 X236.572751 Y174.897101 Z-1.568591
G01 X237.718742 Y174.071121 Z-1.634010
G01 X238.882006 Y173.271614 Z-1.667792
G01 X240.064320 Y172.501317 Z-1.666720
G01 X241.250979 Y171.737680 Z-1.657689
G01 X242.459794 Y171.007966 Z-1.608130
G01 X244.126231 Y170.002041 Z-1.539833
G01 X244.569772 Y169.760375 Z-1.544433
G01 X247.048191 Y168.410139 Z-1.570284
G01 X248.744911 Y167.541967 Z-1.538365
G01 X249.075591 Y167.389736 Z-1.544433
G01 X250.357585 Y166.799581 Z-1.567942
G01 X251.650417 Y166.234064 Z-1.564527
G01 X254.244180 Y165.121375 Z-1.537688
G01 X256.837915 Y164.008686 Z-1.510820
G01 X258.470063 Y163.323704 Z-1.480030
G01 X259.073567 Y163.106873 Z-1.480566
G01 X260.401564 Y162.629804 Z-1.481780
G01 X261.729758 Y162.153131 Z-1.482513
G01 X263.679829 Y161.509213 Z-1.430951
G01 X264.079371 Y161.393473 Z-1.435918
G01 X266.790369 Y160.608246 Z-1.469503
G01 X268.145854 Y160.215647 Z-1.486295
G01 X269.502750 Y159.828100 Z-1.497838
G01 X272.233956 Y159.115855 Z-1.455702
G01 X274.011222 Y158.685720 Z-1.396153
G01 X274.550238 Y158.585362 Z-1.391073
G01 X275.937558 Y158.327072 Z-1.378006
G01 X277.324906 Y158.068754 Z-1.364940
G01 X279.266736 Y157.734970 Z-1.319445
G01 X279.655187 Y157.697463 Z-1.319389
G01 X282.464342 Y157.426191 Z-1.319022
G01 X284.195465 Y157.278081 Z-1.299831
G01 X284.752572 Y157.235776 Z-1.288316
G01 X286.715512 Y157.086790 Z-1.247676
G01 X287.188234 Y157.050327 Z-1.237319
G01 X289.059481 Y156.905999 Z-1.196284
G01 X289.683361 Y156.852461 Z-1.177205
G01 X289.408533 Y156.891888 Z-1.169868
G01 X289.921839 Y156.831972 Z-1.169868
G01 X290.860933 Y156.877607 Z-1.267150
G01 X291.450749 Y156.970176 Z-1.392089
G00 Z5.000000

G00 Z5.000000
G00 X343.388896 Y228.230131

G01 Z-1.341120 F100.0(Penetrate)
G01 X344.830769 Y228.754274 Z-1.363049 F400.000000
G01 X344.929039 Y228.788705 Z-1.365730
G01 X346.456482 Y229.324137 Z-1.407470
G01 X346.602221 Y229.387496 Z-1.423134
G01 X348.536798 Y230.228574 Z-1.631103
G01 X348.610402 Y231.239043 Z-1.381365
G01 X348.400880 Y232.431178 Z-0.805660
G01 X348.126786 Y232.807041 Z-0.787259
G01 X346.462606 Y235.089147 Z-0.675584
G01 X345.630530 Y236.230171 Z-0.619760
G01 X344.821681 Y237.386802 Z-0.591905
G01 X343.215470 Y239.707742 Z-0.550023
G01 X342.213694 Y241.155288 Z-0.523889
G01 X341.296810 Y241.627163 Z-0.995765
G01 X340.089887 Y241.451367 Z-0.819940
G01 X340.128185 Y240.323184 Z-0.707277
G01 X340.143001 Y238.908008 Z-0.599073
G01 X340.088335 Y237.497434 Z-0.560550
G01 X340.013151 Y236.088185 Z-0.542544
G01 X339.805125 Y233.273555 Z-0.564360
G01 X339.701126 Y231.866254 Z-0.575254
G01 X339.556967 Y229.915731 Z-0.590352
G01 X339.789320 Y228.949684 Z-0.900571
G01 X339.923122 Y228.393396 Z-1.079218
G01 X340.477999 Y227.341469 Z-1.538365
G01 X342.283572 Y227.821304 Z-1.349248
G01 X343.262912 Y228.182407 Z-1.341007
G01 X343.388896 Y228.230131 Z-1.341120
G00 Z5.000000

G00 Z5.000000
G00 X353.765953 Y231.667372

G01 Z-1.442043 F100.0(Penetrate)
G01 X355.586907 Y232.185136 Z-1.483473 F400.000000
G01 X356.050203 Y232.316850 Z-1.494028
G01 X357.978599 Y232.800691 Z-1.599494
G01 X358.432215 Y232.896111 Z-1.694914
G01 X360.907671 Y233.761460 Z-1.900259
G01 X361.520657 Y234.835147 Z-2.142321
G01 X361.123684 Y236.306399 Z-1.300480
G01 X360.383387 Y237.050958 Z-1.230884
G01 X359.386267 Y238.053835 Z-1.137186
G01 X358.185045 Y239.331991 Z-1.070243
G01 X357.833706 Y239.686434 Z-1.072219
G01 X355.846862 Y241.690776 Z-1.083451
G01 X354.853411 Y242.692947 Z-1.089039
G01 X353.859989 Y243.695147 Z-1.094655
G01 X352.521070 Y245.045862 Z-1.102219
G01 X352.381624 Y245.179466 Z-1.107976
G01 X351.362153 Y246.156040 Z-1.150084
