%
(Header)
(Generated by gcodetools from Inkscape.)
(Using default header. To add your own header create file "header" in the output dir.)
M3
(Header end.)
G21 (All units in mm)
(Tool diameter should be at least 0.5 mm)
(Depth, as a function of radius w, must be 10)
(Rapid feeds use safe Z=5.0 mm)
(Material surface at Z=0.0 mm)
(Change tool to Cylindrical cutter)

G00 Z5.000000
G00 X80.347030 Y120.960729

G01 Z-0.249992 F100.0(Penetrate)
G01 X80.347030 Y120.960729 Z-0.249992 F400.000000
G01 X80.011637 Y121.690160 Z-0.249992
G01 X79.702068 Y122.649575 Z-0.249992
G01 X79.637749 Y123.136239 Z-0.249992
G01 X79.569508 Y123.652536 Z-0.249992
G01 X79.424756 Y124.409033 Z-0.249992
G01 X79.316552 Y124.813768 Z-0.249992
G01 X79.272469 Y124.978585 Z-0.249992
G01 X78.862739 Y126.510742 Z-0.249992
G01 X78.647262 Y127.218583 Z-0.249992
G01 X78.646218 Y127.277624 Z-0.249992
G01 X78.619830 Y128.752151 Z-0.249992
G01 X78.809653 Y129.587472 Z-0.249992
G01 X78.865984 Y129.869779 Z-0.249992
G01 X79.197962 Y131.532632 Z-0.249992
G01 X79.203381 Y131.559838 Z-0.249992
G01 X80.032127 Y135.711271 Z-0.249992
G01 X80.315139 Y137.128901 Z-0.249992
G01 X80.390492 Y137.652706 Z-0.249992
G01 X80.399072 Y138.183904 Z-0.249992
G01 X80.430258 Y140.110184 Z-0.249992
G01 X80.437454 Y140.555954 Z-0.249992
G01 X80.471631 Y142.668246 Z-0.249992
G01 X80.028966 Y142.665565 Z-0.249992
G01 X78.617883 Y142.657042 Z-0.249992
G01 X77.019715 Y142.647362 Z-0.249992
G01 X76.372212 Y142.643439 Z-0.249992
G01 X74.961130 Y142.634916 Z-0.249992
G01 X72.909882 Y142.622526 Z-0.249992
G01 X72.601752 Y142.638839 Z-0.249992
G01 X71.192616 Y142.713515 Z-0.249992
G01 X69.507242 Y142.802838 Z-0.249992
G01 X68.805609 Y143.071005 Z-0.249992
G01 X68.460959 Y143.192671 Z-0.240594
G01 X68.026026 Y143.246124 Z-0.214489
G01 X67.857766 Y143.183866 Z-0.249992
G01 X67.696814 Y143.084411 Z-0.249992
G01 X67.123790 Y143.193067 Z-0.249992
G01 X65.737402 Y143.455957 Z-0.249992
G01 X63.690021 Y143.844210 Z-0.249992
G01 X63.521873 Y143.886825 Z-0.249992
G01 X62.153970 Y144.233366 Z-0.249992
G01 X60.610581 Y144.624385 Z-0.249992
G01 X60.101734 Y144.753304 Z-0.249992
G01 X58.234665 Y145.226337 Z-0.249992
G01 X57.746251 Y145.392509 Z-0.249992
G01 X55.921515 Y146.013313 Z-0.249992
G01 X55.641325 Y146.133117 Z-0.249992
G01 X53.046292 Y147.242504 Z-0.249992
G01 X51.468754 Y147.916902 Z-0.249992
G01 X51.033229 Y148.144514 Z-0.249992
G01 X49.347177 Y149.025725 Z-0.249992
G01 X49.148944 Y149.150016 Z-0.249992
G01 X46.757618 Y150.648842 Z-0.249992
G01 X45.364005 Y151.522319 Z-0.249992
G01 X45.006938 Y151.788850 Z-0.249992
G01 X43.519626 Y152.899028 Z-0.249992
G01 X43.427340 Y152.981352 Z-0.249992
G01 X41.321144 Y154.859851 Z-0.249992
G01 X40.176196 Y155.881016 Z-0.249992
G01 X39.915762 Y156.160359 Z-0.249992
G01 X38.694050 Y157.470689 Z-0.249992
G01 X38.489185 Y157.742187 Z-0.249992
G01 X37.426590 Y159.150476 Z-0.249992
G01 X37.374689 Y159.219253 Z-0.249992
G01 X36.486564 Y160.396317 Z-0.249992
G01 X36.362273 Y160.643967 Z-0.249992
G01 X33.830288 Y165.688633 Z-0.249992
G01 X32.564324 Y168.210994 Z-0.249992
G01 X31.804921 Y169.723988 Z-0.249992
G01 X31.719266 Y169.981459 Z-0.249992
G01 X31.182338 Y171.594923 Z-0.249992
G01 X30.919928 Y172.383396 Z-0.249992
G01 X30.727114 Y172.871556 Z-0.249992
G01 X29.887870 Y173.526001 Z-0.249992
G01 X29.245532 Y173.666576 Z-0.210989
G01 X28.132843 Y173.872739 Z-0.141280
G01 X27.821072 Y173.972759 Z-0.162701
G01 X26.179300 Y174.472997 Z-0.249992
G01 X25.221664 Y174.917413 Z-0.249992
G01 X25.148963 Y174.975184 Z-0.249992
G01 X23.948334 Y175.929575 Z-0.249992
G01 X22.991629 Y176.690051 Z-0.249992
G01 X22.908994 Y176.822780 Z-0.249992
G01 X22.883933 Y176.904963 Z-0.249992
G01 X22.431248 Y178.366253 Z-0.243304
G01 X22.339554 Y178.648475 Z-0.237970
G01 X21.861893 Y180.255759 Z-0.249992
G01 X21.854217 Y180.414424 Z-0.249992
G01 X21.779625 Y181.957277 Z-0.249992
G01 X22.186533 Y182.966024 Z-0.236559
G01 X22.442622 Y183.715578 Z-0.183896
G01 X22.409884 Y184.886969 Z-0.249992
G01 X21.978084 Y185.591452 Z-0.249992
G01 X21.336113 Y186.588656 Z-0.223774
G01 X21.035462 Y186.928283 Z-0.214178
G01 X19.776412 Y188.304229 Z-0.144018
G01 X19.157781 Y188.834948 Z-0.199334
G01 X18.768822 Y189.168647 Z-0.234103
G01 X18.189589 Y189.678877 Z-0.249992
G01 X17.876040 Y189.983987 Z-0.249992
G01 X17.544034 Y190.307047 Z-0.249992
G01 X17.119403 Y190.620681 Z-0.249992
G01 X16.935563 Y190.620681 Z-0.249992
G01 X16.838225 Y190.620681 Z-0.249992
G01 X16.382774 Y191.534573 Z-0.249992
G01 X16.017240 Y192.765457 Z-0.249992
G01 X15.824059 Y193.416007 Z-0.249992
G01 X15.775601 Y194.019201 Z-0.249992
G01 X15.943862 Y195.152944 Z-0.249992
G01 X16.146470 Y195.625214 Z-0.249992
G01 X16.487563 Y196.029441 Z-0.249992
G01 X16.791291 Y196.397008 Z-0.245082
G01 X17.140541 Y196.872721 Z-0.214320
G01 X17.281172 Y197.070559 Z-0.205373
G01 X17.439076 Y197.292724 Z-0.195354
G01 X17.882419 Y198.461153 Z-0.249992
G01 X18.201443 Y199.680437 Z-0.249992
G01 X18.465236 Y200.823409 Z-0.215872
G01 X18.544032 Y201.451071 Z-0.139644
G01 X18.546431 Y202.593366 Z-0.141873
G01 X18.468989 Y203.149852 Z-0.221601
G01 X18.199552 Y204.137460 Z-0.249992
G01 X18.016728 Y204.741190 Z-0.249992
G01 X18.011846 Y204.931662 Z-0.249992
G01 X18.109382 Y204.990110 Z-0.249992
G01 X18.307276 Y204.894832 Z-0.249992
G01 X18.804749 Y204.476240 Z-0.249992
G01 X19.310209 Y204.117309 Z-0.199221
G01 X19.706618 Y203.847053 Z-0.249992
G01 X20.318928 Y204.025700 Z-0.220754
G01 X20.419258 Y204.451376 Z-0.181808
G01 X20.431534 Y204.976112 Z-0.194056
G01 X20.441497 Y205.401787 Z-0.204018
G01 X20.475194 Y205.618449 Z-0.180481
G01 X20.457979 Y205.640886 Z-0.158073
G01 X20.475194 Y205.618449 Z-0.180481
G01 X20.550378 Y205.737463 Z-0.110970
G01 X20.387762 Y204.281817 Z-0.205345
G01 X20.080789 Y203.021187 Z-0.249992
G01 X20.036000 Y202.774242 Z-0.243755
G01 X20.036423 Y202.759708 Z-0.234837
G01 X20.036423 Y202.759708 Z-0.234837
G01 X20.027872 Y202.793941 Z-0.249992
G01 X19.951869 Y203.043313 Z-0.249992
G01 X19.793402 Y203.563335 Z-0.249992
G01 X19.116576 Y204.321159 Z-0.167894
G01 X18.817054 Y204.403257 Z-0.249992
G01 X18.514145 Y204.403257 Z-0.249992
G01 X18.466731 Y203.165233 Z-0.223915
G01 X18.545048 Y201.942449 Z-0.140603
G01 X18.437747 Y200.613210 Z-0.242514
G01 X18.378001 Y199.786496 Z-0.249992
G01 X18.364567 Y199.736769 Z-0.249992
G01 X17.984273 Y198.328790 Z-0.249992
G01 X17.649642 Y197.712869 Z-0.249992
G01 X17.076448 Y196.785430 Z-0.219964
G01 X17.061773 Y196.765420 Z-0.221234
G01 X16.234128 Y195.557707 Z-0.249992
G01 X16.078990 Y195.144167 Z-0.249992
G01 X16.078990 Y194.182466 Z-0.249992
G01 X16.078990 Y192.772117 Z-0.249992
G01 X16.101540 Y192.706472 Z-0.249992
G01 X16.588430 Y191.290196 Z-0.249992
G01 X17.341116 Y190.550097 Z-0.249992
G01 X17.594072 Y190.301403 Z-0.249992
G01 X18.605585 Y189.317463 Z-0.242429
G01 X19.925792 Y188.143447 Z-0.153952
G01 X20.124674 Y187.925656 Z-0.164733
G01 X21.266912 Y186.674819 Z-0.226766
G01 X21.540724 Y186.289444 Z-0.241864
G01 X22.638343 Y184.831259 Z-0.249992
G01 X22.666396 Y184.490137 Z-0.249992
G01 X22.480016 Y183.981883 Z-0.243586
G01 X22.228556 Y183.178876 Z-0.193266
G01 X22.175752 Y182.516105 Z-0.249992
G01 X22.184134 Y181.105022 Z-0.249992
G01 X22.215715 Y179.029729 Z-0.230745
G01 X22.507222 Y178.132291 Z-0.247763
G01 X22.891129 Y177.012235 Z-0.249992
G01 X23.561463 Y176.234205 Z-0.247735
G01 X23.646525 Y176.174656 Z-0.249992
G01 X24.878058 Y175.352261 Z-0.249992
G01 X26.019252 Y174.590176 Z-0.249992
G01 X26.403780 Y174.438369 Z-0.249992
G01 X28.132758 Y173.872767 Z-0.141252
G01 X29.262973 Y173.663076 Z-0.212344
G01 X29.854511 Y173.552868 Z-0.249992
G01 X30.052575 Y173.795664 Z-0.249992
G01 X30.115990 Y174.561813 Z-0.249992
G01 X30.063694 Y175.259579 Z-0.140321
G01 X30.063694 Y175.259579 Z-0.140321
G01 X30.289585 Y174.743761 Z-0.249992
G01 X30.617640 Y173.886907 Z-0.249992
G01 X30.644508 Y173.804949 Z-0.249992
G01 X31.112855 Y172.376312 Z-0.249992
G01 X31.433601 Y171.397904 Z-0.249992
G01 X31.456320 Y171.338609 Z-0.249992
G01 X31.984527 Y169.960462 Z-0.249992
G01 X32.336204 Y169.184887 Z-0.249992
G01 X32.431002 Y168.975845 Z-0.249992
G01 X33.114262 Y167.468947 Z-0.249992
G01 X33.159418 Y167.393058 Z-0.249992
G01 X34.603069 Y164.968035 Z-0.249992
G01 X35.375709 Y163.670152 Z-0.249992
G01 X36.097577 Y162.873156 Z-0.249992
G01 X36.373957 Y162.567989 Z-0.249992
G01 X36.861920 Y161.938210 Z-0.249992
G01 X37.183907 Y161.470483 Z-0.249992
G01 X37.521473 Y160.980122 Z-0.249992
G01 X38.423286 Y160.042890 Z-0.249992
G01 X39.181137 Y159.391606 Z-0.249992
G01 X39.928490 Y158.749353 Z-0.249992
G01 X40.623603 Y158.132895 Z-0.249992
G01 X40.728759 Y158.020458 Z-0.249992
G01 X41.234586 Y157.479776 Z-0.249992
G01 X41.492763 Y157.281177 Z-0.249992
G01 X42.611294 Y156.420879 Z-0.249992
G01 X43.978604 Y155.369206 Z-0.249992
G01 X44.106056 Y155.284454 Z-0.249992
G01 X45.401371 Y154.423112 Z-0.249992
G01 X45.781638 Y154.170269 Z-0.249992
G01 X47.351047 Y153.126640 Z-0.249992
G01 X47.984213 Y152.819751 Z-0.249992
G01 X50.523874 Y151.588839 Z-0.249992
G01 X52.427124 Y150.666396 Z-0.249992
G01 X52.859009 Y150.526414 Z-0.249992
G01 X54.616830 Y149.956692 Z-0.249992
G01 X54.874076 Y149.873295 Z-0.249992
G01 X56.216437 Y149.438221 Z-0.249992
G01 X57.824794 Y148.916957 Z-0.249992
G01 X58.051616 Y148.861472 Z-0.249992
G01 X59.422341 Y148.526305 Z-0.249992
G01 X61.020339 Y148.135540 Z-0.249992
G01 X61.399279 Y148.073451 Z-0.249992
G01 X65.576902 Y147.388977 Z-0.249992
G01 X67.348778 Y147.098684 Z-0.249992
G01 X67.518280 Y147.084798 Z-0.249992
G01 X68.924678 Y146.969482 Z-0.249992
G01 X70.500890 Y146.840281 Z-0.249992
G01 X70.654277 Y146.840450 Z-0.249992
G01 X72.065388 Y146.842002 Z-0.249992
G01 X73.619502 Y146.843752 Z-0.249992
G01 X73.927829 Y146.844091 Z-0.249992
G01 X75.338940 Y146.845671 Z-0.249992
G01 X77.067354 Y146.847590 Z-0.249992
G01 X78.137146 Y146.925710 Z-0.249992
G01 X78.402265 Y146.979896 Z-0.249992
G01 X80.034074 Y147.313539 Z-0.249992
G01 X81.274977 Y147.567229 Z-0.249992
G01 X82.399774 Y147.826789 Z-0.249992
G01 X82.518956 Y147.900420 Z-0.249992
G01 X82.719926 Y148.024626 Z-0.249992
G01 X82.738299 Y149.528476 Z-0.249992
G01 X82.734066 Y149.635043 Z-0.249992
G01 X82.674235 Y151.145129 Z-0.249992
G01 X82.651008 Y151.731051 Z-0.249992
G01 X82.572465 Y153.713098 Z-0.249992
G01 X82.609380 Y154.228943 Z-0.249992
G01 X82.626342 Y154.294758 Z-0.249992
G01 X83.001133 Y155.748992 Z-0.249992
G01 X83.246638 Y156.701633 Z-0.249992
G01 X83.662803 Y157.928397 Z-0.249992
G01 X83.926737 Y158.480706 Z-0.249992
G01 X84.197021 Y159.046392 Z-0.249992
G01 X84.279938 Y159.219789 Z-0.249992
G01 X84.971495 Y160.666319 Z-0.249992
G01 X85.005249 Y160.736903 Z-0.249992
G01 X85.647756 Y162.080563 Z-0.249992
G01 X85.739535 Y162.272474 Z-0.249992
G01 X86.348260 Y163.545522 Z-0.249992
G01 X87.044305 Y165.001112 Z-0.249992
G01 X87.249791 Y165.352478 Z-0.249992
G01 X88.165687 Y166.918699 Z-0.249992
G01 X88.448106 Y167.295945 Z-0.249992
G01 X89.584672 Y168.814244 Z-0.249992
G01 X90.135146 Y169.549603 Z-0.249992
G01 X90.657737 Y170.360088 Z-0.249992
G01 X90.469071 Y170.548754 Z-0.249992
G01 X90.246765 Y170.754071 Z-0.237998
G01 X89.671822 Y170.435526 Z-0.227330
G01 X88.011283 Y169.515538 Z-0.196540
G01 X87.774216 Y169.374455 Z-0.200604
G01 X86.322437 Y168.526491 Z-0.239212
G01 X85.333389 Y167.930578 Z-0.249992
G01 X85.317218 Y167.923128 Z-0.249992
G01 X84.035534 Y167.332775 Z-0.249992
G01 X82.727546 Y166.730344 Z-0.249992
G01 X82.595354 Y166.674323 Z-0.249992
G01 X79.996680 Y165.573458 Z-0.249992
G01 X78.561608 Y164.965495 Z-0.249992
G01 X77.371364 Y164.461277 Z-0.249992
G01 X76.200847 Y163.937981 Z-0.249992
G01 X75.963950 Y163.802937 Z-0.249992
G01 X75.254048 Y163.398231 Z-0.249992
G01 X74.890546 Y163.273912 Z-0.249992
G01 X72.220131 Y162.360725 Z-0.249992
G01 X70.510485 Y161.776074 Z-0.249992
G01 X70.414191 Y161.753242 Z-0.249992
G01 X68.933089 Y161.402044 Z-0.249992
G01 X68.082838 Y161.200425 Z-0.249992
G01 X67.978557 Y161.174178 Z-0.249992
G01 X66.506203 Y160.803592 Z-0.249992
G01 X65.430062 Y160.520354 Z-0.249992
G01 X64.966173 Y160.398236 Z-0.249992
G01 X63.149001 Y159.919983 Z-0.249992
G01 X62.544565 Y159.820330 Z-0.249992
G01 X60.545472 Y159.490779 Z-0.249992
G01 X60.291303 Y159.468258 Z-0.249992
G01 X57.480087 Y159.219197 Z-0.249992
G01 X55.822709 Y159.072385 Z-0.249992
G01 X55.480317 Y159.074388 Z-0.249992
G01 X53.741913 Y159.084520 Z-0.249992
G01 X52.485629 Y159.365303 Z-0.249992
G01 X51.804542 Y159.517534 Z-0.249992
G01 X51.140501 Y159.653226 Z-0.249992
G01 X51.013332 Y159.664572 Z-0.249992
G01 X50.149563 Y159.741618 Z-0.249992
G01 X49.298522 Y159.985599 Z-0.249992
G01 X49.252802 Y160.007584 Z-0.249992
G01 X47.981221 Y160.619386 Z-0.249992
G01 X46.653450 Y161.258252 Z-0.249992
G01 X46.383110 Y161.414773 Z-0.249992
G01 X44.885949 Y162.281562 Z-0.249992
G01 X44.764283 Y162.356040 Z-0.249992
G01 X43.560746 Y163.092753 Z-0.249992
G01 X42.232947 Y163.905553 Z-0.249992
G01 X41.183306 Y164.548060 Z-0.249992
G01 X40.946578 Y164.756961 Z-0.249992
G01 X39.642373 Y165.907835 Z-0.249992
G01 X39.621940 Y165.928720 Z-0.249992
G01 X37.648727 Y167.946496 Z-0.249992
G01 X36.641278 Y168.976691 Z-0.249992
G01 X36.379686 Y169.283749 Z-0.249992
G01 X35.208126 Y170.658962 Z-0.249992
G01 X35.181032 Y170.700815 Z-0.249992
G01 X34.378420 Y171.941182 Z-0.249992
G01 X34.057167 Y172.437639 Z-0.249992
G01 X33.623194 Y172.929609 Z-0.249992
G01 X33.397360 Y172.929609 Z-0.249992
G01 X33.332505 Y172.929609 Z-0.249992
G01 X33.334988 Y172.924755 Z-0.249992
G01 X32.690957 Y174.180305 Z-0.249992
G01 X32.007246 Y175.513156 Z-0.249992
G01 X31.875025 Y175.876940 Z-0.117800
G01 X31.815956 Y176.030610 Z-0.058730
G01 X31.678654 Y176.293669 Z-0.078599
G01 X31.568926 Y176.527293 Z-0.188299
G01 X31.462218 Y176.674218 Z-0.233200
G01 X31.340665 Y176.828565 Z-0.200547
G01 X31.285011 Y176.947042 Z-0.144893
G01 X31.184935 Y177.160176 Z-0.044817
G01 X31.184935 Y177.160176 Z-0.044817
G01 X31.328417 Y176.854643 Z-0.188299
G01 X31.445765 Y176.700973 Z-0.231592
G01 X31.539858 Y176.589241 Z-0.217396
G01 X31.557863 Y176.550859 Z-0.199362
G01 X31.714299 Y176.166867 Z-0.042954
G01 X31.860434 Y175.914871 Z-0.103209
G01 X32.953509 Y174.483863 Z-0.249992
G01 X33.392421 Y174.495293 Z-0.249992
G01 X33.838896 Y174.506921 Z-0.249992
G01 X35.137796 Y175.184169 Z-0.249992
G01 X35.295868 Y175.287180 Z-0.249992
G01 X36.619801 Y176.163480 Z-0.238647
G01 X37.299674 Y176.706589 Z-0.154827
G01 X37.750637 Y177.136554 Z-0.149267
G01 X38.373220 Y178.448408 Z-0.249992
G01 X38.460708 Y179.382479 Z-0.249992
G01 X38.461640 Y179.415329 Z-0.249992
G01 X38.424189 Y180.852744 Z-0.172494
G01 X38.445525 Y182.252707 Z-0.154771
G01 X38.418968 Y183.252846 Z-0.197358
G01 X38.398648 Y183.363590 Z-0.211723
G01 X37.965493 Y184.844213 Z-0.249992
G01 X37.505951 Y185.446390 Z-0.249992
G01 X36.824412 Y186.015520 Z-0.249992
G01 X35.893813 Y186.792647 Z-0.249992
G01 X35.697584 Y186.749580 Z-0.249992
G01 X34.319295 Y186.446924 Z-0.249992
G01 X32.864552 Y186.127505 Z-0.249992
G01 X32.590853 Y186.067392 Z-0.249992
G01 X31.212564 Y185.764737 Z-0.249992
G01 X29.567858 Y185.403605 Z-0.249992
G01 X29.295457 Y185.360595 Z-0.249992
G01 X27.663620 Y185.102898 Z-0.249992
G01 X27.668107 Y185.102107 Z-0.249992
G01 X26.309292 Y185.346935 Z-0.249992
G01 X26.190053 Y185.449382 Z-0.249992
G01 X26.119893 Y185.975077 Z-0.249992
G01 X26.249150 Y186.370837 Z-0.249992
G01 X26.544891 Y186.959666 Z-0.249992
G01 X26.822823 Y187.512991 Z-0.249992
G01 X27.070191 Y188.097021 Z-0.249992
G01 X27.070191 Y188.249224 Z-0.249992
G01 X27.070191 Y188.289525 Z-0.249992
G01 X27.507636 Y189.130011 Z-0.249992
G01 X28.077132 Y190.123208 Z-0.249992
G01 X28.233201 Y190.395411 Z-0.249992
G01 X29.105522 Y191.916786 Z-0.249992
G01 X29.170348 Y192.133364 Z-0.249992
G01 X28.671915 Y192.608202 Z-0.191008
G01 X28.167528 Y192.896182 Z-0.003782
G01 X28.167528 Y192.896182 Z-0.003782
G01 X28.765049 Y192.555032 Z-0.225580
G01 X29.525638 Y192.383412 Z-0.249992
G01 X29.687153 Y192.542388 Z-0.249992
G01 X29.712864 Y192.579472 Z-0.249992
G01 X30.516633 Y193.739321 Z-0.249992
G01 X31.332706 Y194.916950 Z-0.249992
G01 X31.429311 Y195.056339 Z-0.249992
G01 X33.036821 Y197.376008 Z-0.249992
G01 X33.932989 Y198.669207 Z-0.249992
G01 X33.942218 Y198.680976 Z-0.249992
G01 X34.823598 Y199.805716 Z-0.249992
G01 X34.957964 Y199.965058 Z-0.249992
G01 X38.596570 Y204.280180 Z-0.249992
G01 X39.643502 Y205.521732 Z-0.249992
G01 X39.672542 Y205.556191 Z-0.249992
G01 X42.401490 Y208.792546 Z-0.249992
G01 X43.332654 Y209.896825 Z-0.249992
G01 X43.753504 Y210.310309 Z-0.249992
G01 X44.760078 Y211.299301 Z-0.249992
G01 X46.191819 Y212.706009 Z-0.249992
G01 X46.420024 Y212.910874 Z-0.249992
G01 X53.770530 Y219.509399 Z-0.249992
G01 X55.052976 Y220.660668 Z-0.249992
G01 X55.546809 Y221.103955 Z-0.249992
G01 X55.857225 Y221.491164 Z-0.249992
G01 X55.758842 Y222.088572 Z-0.249992
G01 X55.216665 Y222.011864 Z-0.249992
G01 X54.673105 Y221.784759 Z-0.249992
G01 X54.568739 Y221.741156 Z-0.249992
G01 X53.181222 Y221.161387 Z-0.249992
G01 X53.079453 Y221.137313 Z-0.249992
G01 X48.960024 Y220.161869 Z-0.249992
G01 X47.474068 Y219.809994 Z-0.249992
G01 X47.061741 Y219.743446 Z-0.249992
G01 X45.668636 Y219.518571 Z-0.249992
G01 X43.854286 Y219.225709 Z-0.249992
G01 X43.650606 Y219.192830 Z-0.249992
G01 X36.685220 Y218.068513 Z-0.249992
G01 X35.095886 Y217.811945 Z-0.249992
G01 X34.018418 Y217.703995 Z-0.249992
G01 X33.416127 Y217.702838 Z-0.249992
G01 X30.593905 Y217.697419 Z-0.249992
G01 X28.568255 Y217.693497 Z-0.249992
G01 X28.438348 Y217.693243 Z-0.249992
G01 X27.027237 Y217.690533 Z-0.249992
G01 X25.491440 Y217.687570 Z-0.249992
G01 X25.126865 Y217.702133 Z-0.249992
G01 X23.360183 Y217.772632 Z-0.249992
G01 X23.351349 Y217.773930 Z-0.249992
G01 X21.955026 Y217.977581 Z-0.249992
G01 X20.574339 Y218.178975 Z-0.249992
G01 X20.018446 Y218.444405 Z-0.249992
G01 X19.895453 Y218.820861 Z-0.249992
G01 X19.827833 Y219.027900 Z-0.249992
G01 X20.197826 Y219.390132 Z-0.249992
G01 X21.681581 Y220.842702 Z-0.249992
G01 X22.014829 Y221.130512 Z-0.249992
G01 X25.218785 Y223.897418 Z-0.249992
G01 X26.621627 Y225.108886 Z-0.249992
G01 X26.998394 Y225.405529 Z-0.249992
G01 X28.107132 Y226.278443 Z-0.249992
G01 X29.586400 Y227.443061 Z-0.249992
G01 X29.928171 Y227.656562 Z-0.249992
G01 X31.478277 Y228.624866 Z-0.249992
G01 X32.105516 Y229.016704 Z-0.249992
G01 X32.201245 Y229.082941 Z-0.249992
G01 X33.455384 Y229.950634 Z-0.249992
G01 X34.476408 Y230.698946 Z-0.249992
G01 X35.491618 Y231.443025 Z-0.249992
G01 X35.578288 Y231.502630 Z-0.249992
G01 X36.825428 Y232.360190 Z-0.249992
G01 X37.442140 Y232.738566 Z-0.249992
G01 X38.066105 Y233.121372 Z-0.249992
G01 X38.166520 Y233.185154 Z-0.249992
G01 X39.457235 Y234.005292 Z-0.249992
G01 X40.533010 Y234.702466 Z-0.249992
G01 X41.603394 Y235.396140 Z-0.249992
G01 X42.009258 Y235.635323 Z-0.249992
G01 X43.631725 Y236.591576 Z-0.249992
G01 X43.715573 Y236.637240 Z-0.249992
G01 X45.042272 Y237.360011 Z-0.249992
G01 X45.129817 Y237.407707 Z-0.249992
G01 X46.457644 Y238.131070 Z-0.249992
G01 X46.837798 Y238.343217 Z-0.249992
G01 X48.450557 Y239.243280 Z-0.249992
G01 X49.470339 Y239.831290 Z-0.249992
G01 X50.487044 Y240.417550 Z-0.249992
G01 X50.903265 Y240.649706 Z-0.249992
G01 X52.552290 Y241.569553 Z-0.249992
G01 X52.686289 Y241.642621 Z-0.249992
G01 X54.060344 Y242.391667 Z-0.249992
G01 X54.359387 Y242.554678 Z-0.249992
G01 X55.907517 Y243.398607 Z-0.249992
G01 X57.008014 Y244.136985 Z-0.249992
G01 X56.654700 Y244.490299 Z-0.249992
G01 X56.496289 Y244.648711 Z-0.249992
G01 X55.240457 Y245.022232 Z-0.249992
G01 X53.894793 Y245.342243 Z-0.249992
G01 X53.613784 Y245.409074 Z-0.249992
G01 X52.240942 Y245.735548 Z-0.249992
G01 X50.599284 Y246.125975 Z-0.249992
G01 X50.542727 Y246.145561 Z-0.249992
G01 X47.875952 Y247.069246 Z-0.249992
G01 X46.481633 Y247.552185 Z-0.249992
G01 X46.471332 Y247.556503 Z-0.249992
G01 X39.963147 Y250.281302 Z-0.249992
G01 X38.651604 Y250.830421 Z-0.249992
G01 X38.067460 Y251.122098 Z-0.249992
G01 X36.804995 Y251.752498 Z-0.249992
G01 X34.964624 Y252.671470 Z-0.249992
G01 X34.928528 Y252.695402 Z-0.249992
G01 X33.752339 Y253.475041 Z-0.249992
G01 X32.527268 Y254.287051 Z-0.249992
G01 X32.400410 Y254.371125 Z-0.249992
G01 X31.108848 Y255.227246 Z-0.249992
G01 X30.455447 Y255.772556 Z-0.249992
G01 X30.360677 Y256.390425 Z-0.249992
G01 X30.765976 Y256.580756 Z-0.249992
G01 X31.980886 Y256.855725 Z-0.249992
G01 X32.638887 Y257.004653 Z-0.249992
G01 X34.654518 Y257.460866 Z-0.249992
G01 X35.072885 Y257.490189 Z-0.249992
G01 X43.518836 Y258.082037 Z-0.249992
G01 X45.355172 Y258.210702 Z-0.249992
G01 X45.525972 Y258.210702 Z-0.249992
G01 X49.759306 Y258.210702 Z-0.249992
G01 X51.349939 Y258.210702 Z-0.249992
G01 X51.611107 Y258.210702 Z-0.249992
G01 X53.287705 Y258.210702 Z-0.249992
G01 X53.351487 Y258.212903 Z-0.249992
G01 X55.396187 Y258.283402 Z-0.249992
G01 X54.924932 Y258.754657 Z-0.249992
G01 X54.347139 Y259.302084 Z-0.228544
G01 X54.100335 Y259.357851 Z-0.236728
G01 X52.717051 Y259.637025 Z-0.249992
G01 X44.402333 Y261.233895 Z-0.249992
G01 X42.826150 Y261.536606 Z-0.249992
G01 X42.644596 Y261.554951 Z-0.249992
G01 X39.836655 Y261.838584 Z-0.249992
G01 X38.262222 Y261.997644 Z-0.249992
G01 X37.656573 Y262.058802 Z-0.249992
G01 X35.661233 Y262.260365 Z-0.249992
G01 X35.272980 Y262.345286 Z-0.249992
G01 X35.015735 Y262.655279 Z-0.249992
G01 X34.786203 Y262.791225 Z-0.160218
G01 X34.786203 Y262.791225 Z-0.160218
G01 X35.069357 Y262.947435 Z-0.249992
G01 X35.351861 Y263.229940 Z-0.249992
G01 X35.736982 Y263.331709 Z-0.249992
G01 X37.101244 Y263.692276 Z-0.249992
G01 X38.884747 Y264.163615 Z-0.249992
G01 X39.780323 Y264.241763 Z-0.174103
G01 X39.780323 Y264.241763 Z-0.174103
G01 X40.294193 Y264.416994 Z0.000000
G01 X39.780323 Y264.241763 Z-0.174103
G01 X39.649485 Y264.197115 Z-0.218440
G01 X39.374262 Y264.025439 Z-0.249992
G01 X38.874164 Y263.813829 Z-0.249992
G01 X38.504312 Y263.747733 Z-0.249992
G01 X38.376098 Y263.724816 Z-0.249992
G01 X36.837959 Y263.449904 Z-0.249992
G01 X35.638768 Y263.018329 Z-0.249992
G01 X36.370966 Y262.554920 Z-0.249992
G01 X36.575012 Y262.425776 Z-0.249992
G01 X37.167143 Y262.329707 Z-0.249992
G01 X37.664277 Y262.327901 Z-0.249992
G01 X38.731585 Y262.324034 Z-0.249992
G01 X39.190789 Y262.260845 Z-0.249992
G01 X40.588720 Y262.068482 Z-0.249992
G01 X42.453222 Y261.811942 Z-0.249992
G01 X42.710213 Y261.757050 Z-0.249992
G01 X44.356190 Y261.405542 Z-0.249992
G01 X45.149149 Y261.236209 Z-0.249992
G01 X45.384692 Y261.187892 Z-0.249992
G01 X47.002079 Y260.856084 Z-0.249992
G01 X47.046247 Y260.847222 Z-0.249992
G01 X48.473445 Y260.560879 Z-0.249992
G01 X48.477594 Y260.560061 Z-0.249992
G01 X51.244670 Y260.004902 Z-0.249992
G01 X52.625414 Y259.727900 Z-0.249992
G01 X52.811116 Y259.679584 Z-0.249992
G01 X54.180769 Y259.339676 Z-0.234047
G01 X55.728391 Y258.920519 Z-0.249992
G01 X55.827422 Y258.888967 Z-0.249992
G01 X58.516492 Y258.032281 Z-0.249992
G01 X59.966493 Y257.570368 Z-0.249992
G01 X60.623112 Y257.361185 Z-0.249992
G01 X64.656716 Y256.076199 Z-0.249992
G01 X66.654201 Y255.439844 Z-0.249992
G01 X67.188334 Y255.251320 Z-0.249992
G01 X68.518984 Y254.781645 Z-0.249992
G01 X70.373918 Y254.126918 Z-0.249992
G01 X70.581182 Y254.025826 Z-0.249992
G01 X72.069678 Y253.299979 Z-0.249992
G01 X72.091438 Y253.289367 Z-0.249992
G01 X73.362933 Y252.669325 Z-0.249992
G01 X73.465775 Y252.596088 Z-0.249992
G01 X74.722680 Y251.701246 Z-0.249992
G01 X74.813979 Y251.617963 Z-0.249992
G01 X75.856254 Y250.666704 Z-0.249992
G01 X76.987598 Y249.634223 Z-0.249992
G01 X76.979555 Y249.644016 Z-0.249992
G01 X77.851480 Y248.578401 Z-0.249992
G01 X78.172198 Y247.752111 Z-0.249992
G01 X78.298859 Y247.425777 Z-0.249992
G01 X78.646952 Y246.530540 Z-0.249992
G01 X78.945712 Y245.762726 Z-0.249992
G01 X78.976220 Y245.684269 Z-0.249992
G01 X79.487918 Y244.369198 Z-0.249992
G01 X80.023462 Y242.992828 Z-0.249992
G01 X80.071384 Y242.782714 Z-0.249992
G01 X80.699074 Y240.031188 Z-0.249992
G01 X81.062661 Y238.437310 Z-0.249992
G01 X81.142812 Y237.880118 Z-0.249992
G01 X81.544668 Y235.086626 Z-0.249992
G01 X81.827201 Y233.122614 Z-0.249992
G01 X81.846223 Y232.990421 Z-0.249992
G01 X82.047165 Y231.593675 Z-0.249992
G01 X82.266903 Y230.066119 Z-0.249992
G01 X82.271560 Y230.031095 Z-0.249992
G01 X82.466491 Y228.561423 Z-0.249992
G01 X82.644742 Y228.148786 Z-0.249992
G01 X83.392180 Y226.418651 Z-0.249992
G01 X84.127764 Y225.797734 Z-0.249992
G01 X84.317474 Y225.628005 Z-0.249992
G01 X85.561453 Y224.514921 Z-0.249992
G01 X86.050600 Y224.077222 Z-0.249992
G01 X87.102189 Y223.136265 Z-0.249992
G01 X88.637223 Y221.762746 Z-0.249992
G01 X88.942277 Y221.454136 Z-0.249992
G01 X90.233444 Y220.147983 Z-0.249992
G01 X90.394254 Y219.936909 Z-0.249992
G01 X91.419991 Y218.590568 Z-0.249992
G01 X92.044351 Y217.771079 Z-0.249992
G01 X92.769832 Y216.871016 Z-0.249992
G01 X93.030859 Y216.593027 Z-0.249992
G01 X93.271369 Y216.336939 Z-0.249992
G01 X93.425970 Y216.106025 Z-0.249992
G01 X93.425970 Y216.072807 Z-0.249992
G01 X93.425970 Y215.590066 Z-0.249992
G01 X93.485858 Y215.508617 Z-0.249992
G01 X95.993684 Y212.098046 Z-0.249992
G01 X96.856014 Y210.925300 Z-0.249992
G01 X97.750235 Y210.118539 Z-0.249992
G01 X98.225131 Y209.690098 Z-0.249992
G01 X98.905512 Y209.439936 Z-0.249992
G01 X100.248890 Y209.184299 Z-0.249992
G01 X101.234353 Y208.996791 Z-0.249992
G01 X102.205537 Y208.840129 Z-0.249992
G01 X102.402104 Y208.840129 Z-0.249992
G01 X102.725418 Y208.840129 Z-0.249992
G01 X103.173615 Y209.474000 Z-0.249992
G01 X103.538557 Y210.271842 Z-0.249992
G01 X103.855662 Y210.965093 Z-0.249992
G01 X104.292005 Y211.675333 Z-0.249992
G01 X104.507567 Y211.866229 Z-0.249992
G01 X104.829526 Y212.151358 Z-0.249992
G01 X105.082425 Y212.456383 Z-0.249992
G01 X104.865961 Y212.912934 Z-0.249992
G01 X104.473164 Y212.925691 Z-0.249992
G01 X104.040912 Y212.875229 Z-0.249992
G01 X103.674193 Y212.832416 Z-0.249992
G01 X102.907310 Y212.904750 Z-0.249992
G01 X102.326723 Y213.040188 Z-0.249992
G01 X101.447544 Y213.245307 Z-0.249992
G01 X101.098830 Y213.479213 Z-0.249992
G01 X100.929497 Y213.642140 Z-0.249992
G01 X99.727456 Y214.798715 Z-0.249992
G01 X99.233370 Y215.274090 Z-0.249992
G01 X98.216495 Y216.252498 Z-0.249992
G01 X96.709908 Y217.702076 Z-0.249992
G01 X96.379623 Y218.052116 Z-0.249992
G01 X95.082219 Y219.427188 Z-0.249992
G01 X94.958606 Y219.575947 Z-0.249992
G01 X94.056624 Y220.661120 Z-0.249992
G01 X93.025977 Y221.901120 Z-0.249992
G01 X92.912749 Y222.037348 Z-0.249992
G01 X91.896918 Y223.259512 Z-0.249992
G01 X91.804575 Y223.368957 Z-0.249992
G01 X90.799384 Y224.560246 Z-0.249992
G01 X90.587774 Y224.790454 Z-0.249992
G01 X90.070687 Y225.352895 Z-0.249992
G01 X89.904740 Y225.583245 Z-0.249992
G01 X89.079917 Y226.728192 Z-0.249992
G01 X88.087172 Y228.106255 Z-0.249992
G01 X87.581176 Y228.965198 Z-0.249992
G01 X87.121069 Y229.746248 Z-0.249992
G01 X86.956336 Y230.345999 Z-0.249992
G01 X86.413792 Y232.321244 Z-0.249992
G01 X86.396633 Y232.457811 Z-0.249992
G01 X86.201279 Y234.012235 Z-0.249992
G01 X86.122313 Y234.640574 Z-0.249992
G01 X85.925040 Y235.762492 Z-0.249992
G01 X85.763439 Y236.502874 Z-0.249992
G01 X85.602911 Y237.238345 Z-0.249992
G01 X85.337566 Y238.451506 Z-0.249992
G01 X85.173764 Y239.198745 Z-0.249992
G01 X85.124798 Y239.422040 Z-0.249992
G01 X84.822651 Y240.800413 Z-0.249992
G01 X84.476026 Y242.381732 Z-0.249992
G01 X84.428867 Y243.332172 Z-0.249992
G01 X84.444671 Y243.384214 Z-0.249992
G01 X84.883216 Y244.828035 Z-0.249992
G01 X85.126576 Y245.629263 Z-0.249992
G01 X85.425337 Y246.195260 Z-0.249992
G01 X86.266952 Y247.059283 Z-0.249992
G01 X86.773061 Y247.326040 Z-0.249992
G01 X87.475907 Y247.503021 Z-0.249992
G01 X88.451691 Y247.748724 Z-0.249992
G01 X88.548521 Y247.749881 Z-0.249992
G01 X90.037046 Y247.767774 Z-0.249992
G01 X90.588367 Y247.551874 Z-0.249992
G01 X91.319407 Y247.515891 Z-0.016933
G01 X90.601575 Y247.531498 Z-0.249992
G01 X90.341535 Y247.512758 Z-0.249992
G01 X88.644392 Y247.390330 Z-0.249992
G01 X88.492585 Y247.379380 Z-0.249992
G01 X86.904153 Y247.264798 Z-0.249992
G01 X86.642505 Y247.182389 Z-0.249992
G01 X86.080036 Y246.552892 Z-0.249992
G01 X85.452966 Y245.851090 Z-0.249992
G01 X85.106793 Y244.668212 Z-0.249992
G01 X85.103096 Y244.562097 Z-0.249992
G01 X85.053961 Y243.151832 Z-0.249992
G01 X85.001552 Y241.647983 Z-0.249992
G01 X85.031101 Y241.394293 Z-0.249992
G01 X85.223238 Y239.744987 Z-0.249992
G01 X85.317923 Y239.318436 Z-0.249992
G01 X85.715631 Y237.526804 Z-0.249992
G01 X85.991475 Y236.284095 Z-0.249992
G01 X86.074251 Y235.882804 Z-0.249992
G01 X86.442184 Y234.099272 Z-0.249992
G01 X86.446135 Y234.078670 Z-0.249992
G01 X86.717350 Y232.670861 Z-0.249992
G01 X86.721640 Y232.648678 Z-0.249992
G01 X86.994210 Y231.233842 Z-0.249992
G01 X87.010212 Y231.170454 Z-0.249992
G01 X87.376113 Y229.721695 Z-0.249992
G01 X87.568533 Y229.318992 Z-0.249992
G01 X87.598759 Y229.255746 Z-0.249992
G01 X88.249732 Y227.893516 Z-0.249992
G01 X88.474494 Y227.611717 Z-0.249992
G01 X91.993777 Y223.198749 Z-0.249992
G01 X93.087303 Y221.827516 Z-0.249992
G01 X93.512584 Y221.380081 Z-0.249992
G01 X94.484727 Y220.357251 Z-0.249992
G01 X95.874643 Y218.894860 Z-0.249992
G01 X96.195812 Y218.556927 Z-0.249992
G01 X96.917003 Y217.772462 Z-0.249992
G01 X97.477750 Y217.151065 Z-0.249992
G01 X98.045017 Y216.522387 Z-0.249992
G01 X98.698051 Y215.891875 Z-0.249992
G01 X98.926820 Y215.762024 Z-0.249992
G01 X99.106991 Y215.659775 Z-0.249992
G01 X99.784634 Y215.077889 Z-0.249992
G01 X100.435269 Y214.460923 Z-0.249992
G01 X100.518864 Y214.381675 Z-0.249992
G01 X101.694855 Y213.266615 Z-0.249992
G01 X102.022882 Y213.254310 Z-0.249992
G01 X103.666827 Y213.192701 Z-0.249992
G01 X103.896894 Y213.184093 Z-0.249992
G01 X105.569992 Y213.121384 Z-0.249992
G01 X105.666202 Y213.143341 Z-0.249992
G01 X106.639530 Y213.886291 Z-0.249992
G01 X106.744037 Y213.966075 Z-0.249992
G01 X107.958637 Y214.893175 Z-0.249992
G01 X108.303399 Y215.097729 Z-0.249992
G01 X109.853223 Y216.017097 Z-0.249992
G01 X110.771602 Y216.341116 Z-0.249992
G01 X111.409678 Y216.566245 Z-0.249992
G01 X111.550225 Y216.567091 Z-0.249992
G01 X112.095337 Y216.453158 Z-0.143736
G01 X112.380805 Y216.217841 Z-0.249992
G01 X112.556404 Y216.072384 Z-0.249992
G01 X112.556347 Y216.043343 Z-0.249992
G01 X112.556178 Y215.960116 Z-0.249992
G01 X112.221914 Y215.349867 Z-0.249992
G01 X111.776031 Y214.679984 Z-0.249992
G01 X111.317166 Y213.990572 Z-0.249992
G01 X110.914406 Y213.227527 Z-0.249992
G01 X110.919882 Y212.992803 Z-0.249992
G01 X110.929421 Y212.584202 Z-0.249992
G01 X111.497195 Y212.155055 Z-0.249992
G01 X113.161178 Y210.897247 Z-0.249992
G01 X113.619111 Y210.897247 Z-0.249992
G01 X113.980751 Y210.897247 Z-0.249992
G01 X114.567124 Y211.231567 Z-0.249992
G01 X117.018845 Y212.629386 Z-0.249992
G01 X118.798030 Y213.643777 Z-0.249992
G01 X119.301740 Y214.106650 Z-0.249992
G01 X119.692590 Y214.465777 Z-0.249992
G01 X119.845442 Y214.903448 Z-0.249992
G01 X119.845442 Y215.616087 Z-0.249992
G01 X119.845442 Y216.764167 Z-0.249992
G01 X119.484705 Y217.497324 Z-0.249992
G01 X119.133959 Y217.959547 Z-0.249992
G01 X117.944788 Y219.526756 Z-0.249992
G01 X117.658248 Y219.904397 Z-0.249992
G01 X116.529754 Y221.391624 Z-0.249992
G01 X116.338548 Y221.738672 Z-0.249992
G01 X116.457364 Y222.048270 Z-0.249992
G01 X116.523799 Y222.221385 Z-0.249992
G01 X116.431936 Y222.430371 Z-0.082860
G01 X116.420534 Y222.454557 Z-0.058138
G01 X116.420534 Y222.454557 Z-0.058138
G01 X116.413704 Y222.468076 Z-0.044337
G01 X117.849679 Y222.331142 Z-0.249992
G01 X118.018532 Y222.337633 Z-0.249992
G01 X119.598666 Y222.398141 Z-0.249992
G01 X119.779684 Y222.405084 Z-0.249992
G01 X121.189779 Y222.459101 Z-0.249992
G01 X122.966678 Y222.527145 Z-0.249992
G01 X123.253049 Y223.632863 Z-0.249992
G01 X123.387613 Y224.152491 Z-0.249992
G01 X123.616072 Y225.510375 Z-0.249992
G01 X123.760823 Y226.646743 Z-0.249992
G01 X123.767992 Y226.703074 Z-0.249992
G01 X123.952847 Y228.154120 Z-0.249992
G01 X124.109029 Y229.075519 Z-0.249992
G01 X124.161748 Y229.231729 Z-0.249992
G01 X124.664781 Y230.722427 Z-0.249992
G01 X125.059497 Y231.437719 Z-0.249992
G01 X125.745551 Y232.534322 Z-0.249992
G01 X126.433637 Y233.634170 Z-0.249992
G01 X127.048684 Y234.650932 Z-0.249992
G01 X127.075862 Y234.804545 Z-0.215477
G01 X127.085683 Y234.738872 Z-0.249992
G01 X127.012475 Y234.969984 Z-0.158101
G01 X127.947082 Y233.706927 Z-0.249992
G01 X128.555497 Y232.497689 Z-0.249992
G01 X128.858575 Y231.895314 Z-0.249992
G01 X129.486520 Y231.029118 Z-0.249992
G01 X129.945469 Y230.580977 Z-0.249992
G01 X130.775062 Y229.770886 Z-0.249992
G01 X130.920124 Y229.721977 Z-0.249992
G01 X131.174745 Y229.705467 Z-0.249992
G01 X132.804804 Y229.599690 Z-0.249992
G01 X133.975603 Y229.523716 Z-0.249992
G01 X134.903465 Y229.350827 Z-0.249992
G01 X135.322283 Y229.139019 Z-0.249992
G01 X136.327643 Y228.630511 Z-0.249992
G01 X137.230274 Y227.709027 Z-0.249992
G01 X137.479307 Y226.954478 Z-0.249992
G01 X137.790513 Y226.011489 Z-0.249992
G01 X138.074034 Y225.509923 Z-0.249992
G01 X139.054474 Y223.775442 Z-0.249992
G01 X139.623998 Y223.164741 Z-0.249992
G01 X140.199703 Y222.547380 Z-0.249992
G01 X141.330596 Y222.213991 Z-0.249992
G01 X142.767305 Y222.212439 Z-0.249992
G01 X143.652269 Y222.211479 Z-0.249992
G01 X144.510733 Y222.046831 Z-0.249992
G01 X144.655654 Y221.991092 Z-0.249992
G01 X146.116521 Y221.429159 Z-0.249992
G01 X146.818210 Y220.995102 Z-0.249992
G01 X147.389907 Y220.438249 Z-0.249992
G01 X147.979244 Y219.864237 Z-0.249992
G01 X148.302755 Y219.546793 Z-0.213981
G01 X148.453321 Y219.392954 Z-0.123246
G01 X148.453321 Y219.392954 Z-0.123246
G01 X148.068595 Y219.673681 Z-0.249992
G01 X147.179849 Y220.009130 Z-0.249992
G01 X146.527126 Y219.838668 Z-0.249992
G01 X144.572539 Y219.328241 Z-0.249992
G01 X144.210843 Y219.189218 Z-0.249992
G01 X140.259393 Y217.670326 Z-0.249992
G01 X138.584715 Y217.026605 Z-0.249992
G01 X138.126527 Y216.809266 Z-0.249992
G01 X136.851560 Y216.204520 Z-0.249992
G01 X135.114652 Y215.380685 Z-0.249992
G01 X134.965017 Y215.288512 Z-0.249992
G01 X133.763541 Y214.548440 Z-0.249992
G01 X132.424058 Y213.723364 Z-0.249992
G01 X131.219025 Y212.981119 Z-0.249992
G01 X130.985317 Y212.786442 Z-0.249992
G01 X129.673718 Y211.693904 Z-0.249992
G01 X129.307167 Y211.337598 Z-0.249992
G01 X128.295260 Y210.354082 Z-0.249992
G01 X126.916294 Y209.013809 Z-0.249992
G01 X126.764035 Y208.839339 Z-0.249992
G01 X125.675193 Y207.591860 Z-0.249992
G01 X125.083994 Y206.585004 Z-0.249992
G01 X125.061162 Y206.546142 Z-0.249992
G01 X124.269275 Y205.197459 Z-0.249992
G01 X124.362888 Y204.875866 Z-0.249992
G01 X124.820765 Y203.302901 Z-0.249992
G01 X124.845093 Y203.219307 Z-0.249992
G01 X125.257871 Y201.801196 Z-0.249992
G01 X125.309941 Y201.346960 Z-0.249992
G01 X125.193835 Y200.061381 Z-0.249992
G01 X125.156553 Y199.648687 Z-0.249992
G01 X124.995038 Y197.860189 Z-0.249992
G01 X124.933626 Y197.678833 Z-0.249992
G01 X124.426755 Y196.181785 Z-0.249992
G01 X123.575601 Y195.239671 Z-0.249992
G01 X122.718407 Y194.290840 Z-0.249992
G01 X122.415555 Y194.127884 Z-0.249992
G01 X120.864094 Y193.293043 Z-0.249992
G01 X120.828563 Y193.285677 Z-0.249992
G01 X119.375683 Y192.984405 Z-0.249992
G01 X118.159474 Y192.732211 Z-0.249992
G01 X117.846320 Y192.075198 Z-0.249992
G01 X117.239176 Y190.801359 Z-0.249992
G01 X116.372246 Y188.982550 Z-0.249992
G01 X116.199018 Y188.619132 Z-0.249992
G01 X115.416980 Y186.978405 Z-0.249992
G01 X115.309171 Y186.733013 Z-0.249992
G01 X114.614086 Y185.151158 Z-0.249992
G01 X114.614086 Y184.929133 Z-0.249992
G01 X114.614086 Y184.502385 Z-0.249992
G01 X115.009677 Y184.393758 Z-0.249992
G01 X115.578467 Y184.499760 Z-0.249992
G01 X115.945018 Y184.568058 Z-0.249992
G01 X116.283458 Y184.627889 Z-0.249992
G01 X116.332424 Y184.633477 Z-0.249992
G01 X116.800292 Y184.686874 Z-0.249992
G01 X116.811807 Y184.683177 Z-0.249992
G01 X118.187838 Y184.242882 Z-0.249992
G01 X118.879734 Y183.803772 Z-0.249992
G01 X119.819026 Y183.207606 Z-0.249992
G01 X119.986355 Y182.925638 Z-0.249992
G01 X120.859438 Y181.454272 Z-0.249992
G01 X120.752842 Y180.701811 Z-0.249992
G01 X120.759305 Y180.381517 Z-0.198684
G01 X120.759305 Y180.381517 Z-0.198684
G01 X119.999450 Y180.410304 Z-0.249992
G01 X119.969902 Y180.409429 Z-0.249992
G01 X118.506946 Y180.366051 Z-0.249992
G01 X118.073594 Y180.272579 Z-0.249992
G01 X116.151012 Y179.857826 Z-0.249992
G01 X115.988141 Y179.433392 Z-0.249992
G01 X115.883013 Y179.159467 Z-0.249992
G01 X116.201473 Y178.704158 Z-0.249992
G01 X116.560093 Y178.448775 Z-0.249992
G01 X117.111724 Y178.056006 Z-0.249992
G01 X118.065410 Y177.931603 Z-0.249992
G01 X118.210048 Y177.947153 Z-0.249992
G01 X119.759448 Y178.113777 Z-0.249992
G01 X120.631233 Y178.439631 Z-0.249992
G01 X120.993324 Y178.946361 Z-0.249992
G01 X121.237220 Y179.287680 Z-0.249992
G01 X121.603206 Y179.323071 Z-0.249992
G01 X121.827883 Y179.051404 Z-0.249992
G01 X121.913312 Y178.948139 Z-0.249992
G01 X122.110388 Y178.311304 Z-0.249992
G01 X122.254095 Y177.614300 Z-0.249992
G01 X122.264707 Y177.562879 Z-0.249992
G01 X122.551388 Y176.172455 Z-0.249992
G01 X122.529064 Y176.018785 Z-0.249992
G01 X122.306306 Y174.486939 Z-0.249992
G01 X121.692134 Y173.650235 Z-0.249992
G01 X121.245800 Y173.042131 Z-0.249992
G01 X121.144623 Y173.006119 Z-0.249992
G01 X119.699109 Y172.491600 Z-0.249992
G01 X118.755048 Y172.620773 Z-0.249992
G01 X117.699762 Y172.765130 Z-0.249992
G01 X117.699762 Y171.427283 Z-0.249992
G01 X117.699762 Y170.547145 Z-0.249992
G01 X117.478557 Y169.834478 Z-0.249992
G01 X117.485669 Y169.844045 Z-0.249992
G01 X116.655286 Y168.724159 Z-0.249992
G01 X116.106308 Y168.382529 Z-0.249992
G01 X115.381956 Y168.264983 Z-0.249992
G01 X115.008209 Y168.204334 Z-0.249992
G01 X113.963761 Y168.371579 Z-0.249992
G01 X112.689330 Y168.707734 Z-0.249992
G01 X111.498917 Y169.021706 Z-0.249992
G01 X110.344628 Y169.213758 Z-0.249992
G01 X110.159208 Y169.018093 Z-0.249992
G01 X110.016375 Y168.867387 Z-0.249992
G01 X109.769346 Y167.597613 Z-0.249992
G01 X109.577830 Y166.232278 Z-0.249992
G01 X109.502562 Y165.695717 Z-0.249992
G01 X109.221609 Y163.692842 Z-0.249992
G01 X109.388657 Y163.301626 Z-0.249992
G01 X110.082472 Y161.676618 Z-0.249992
G01 X110.537104 Y160.611907 Z-0.249992
G01 X110.619851 Y160.366571 Z-0.249992
G01 X111.153844 Y158.783756 Z-0.249992
G01 X111.454326 Y157.609994 Z-0.249992
G01 X111.520817 Y157.350293 Z-0.249992
G01 X111.932636 Y155.741683 Z-0.249992
G01 X111.981856 Y155.259139 Z-0.249992
G01 X111.970990 Y155.067284 Z-0.249992
G01 X111.879211 Y153.446764 Z-0.249992
G01 X111.814695 Y152.307546 Z-0.249992
G01 X111.807047 Y152.250566 Z-0.249992
G01 X111.612398 Y150.800169 Z-0.249992
G01 X111.429942 Y150.091396 Z-0.249992
G01 X111.393309 Y149.949072 Z-0.249992
G01 X111.010560 Y148.462353 Z-0.249992
G01 X110.956627 Y148.346049 Z-0.249992
G01 X110.363114 Y147.065805 Z-0.249992
G01 X109.718518 Y145.675437 Z-0.249992
G01 X108.915878 Y144.662033 Z-0.249992
G01 X108.562225 Y144.215530 Z-0.249992
G01 X108.237077 Y143.674227 Z-0.249992
G01 X108.237077 Y143.466709 Z-0.249992
G01 X108.244979 Y142.731464 Z-0.242118
G01 X108.925191 Y142.759827 Z-0.249992
G01 X113.152513 Y142.985210 Z-0.249992
G01 X115.006177 Y143.084044 Z-0.249992
G01 X115.134137 Y143.111504 Z-0.249992
G01 X116.513865 Y143.407499 Z-0.249992
G01 X118.002192 Y143.726805 Z-0.249992
G01 X118.684266 Y143.873138 Z-0.249992
G01 X120.756088 Y144.317609 Z-0.249992
G01 X121.187408 Y144.447742 Z-0.249992
G01 X122.975173 Y144.987125 Z-0.249992
G01 X123.283134 Y145.124821 Z-0.249992
G01 X125.859484 Y146.276909 Z-0.249992
G01 X127.453786 Y146.989830 Z-0.249992
G01 X127.986367 Y147.303295 Z-0.249992
G01 X129.729287 Y148.329144 Z-0.249992
G01 X129.997935 Y148.509004 Z-0.249992
G01 X131.170455 Y149.294118 Z-0.249992
G01 X132.605611 Y150.255029 Z-0.249992
G01 X132.762075 Y150.359790 Z-0.249992
G01 X134.109404 Y151.261941 Z-0.249992
G01 X134.558194 Y151.693854 Z-0.249992
G01 X136.017650 Y153.098530 Z-0.249992
G01 X136.039409 Y153.124636 Z-0.249992
G01 X136.942859 Y154.208623 Z-0.249992
G01 X137.859263 Y155.308161 Z-0.249992
G01 X137.915002 Y155.375048 Z-0.249992
G01 X138.818451 Y156.459035 Z-0.249992
G01 X139.791808 Y157.626871 Z-0.249992
G01 X140.112694 Y158.189368 Z-0.249992
G01 X141.135383 Y159.982072 Z-0.249992
G01 X141.287896 Y160.474211 Z-0.249992
G01 X142.123274 Y163.169969 Z-0.249992
G01 X142.693447 Y165.009861 Z-0.249992
G01 X142.748283 Y165.665604 Z-0.249992
G01 X142.920326 Y167.722185 Z-0.249992
G01 X142.909517 Y167.840662 Z-0.249992
G01 X142.781247 Y169.245931 Z-0.249992
G01 X142.644143 Y170.747946 Z-0.249992
G01 X142.605196 Y171.174497 Z-0.249992
G01 X142.436738 Y173.020230 Z-0.249992
G01 X142.311544 Y173.630592 Z-0.249992
G01 X141.461039 Y177.777622 Z-0.249992
G01 X141.052664 Y179.768841 Z-0.249992
G01 X140.880000 Y180.324649 Z-0.249992
G01 X140.292442 Y182.216272 Z-0.249992
G01 X140.165159 Y182.626002 Z-0.249992
G01 X139.746596 Y183.973585 Z-0.249992
G01 X139.201935 Y185.727032 Z-0.249992
G01 X139.193186 Y185.758810 Z-0.249992
G01 X138.818621 Y187.119291 Z-0.249992
G01 X138.436097 Y188.508671 Z-0.249992
G01 X138.323180 Y189.032870 Z-0.249992
G01 X137.728904 Y191.791818 Z-0.249992
G01 X137.319146 Y193.694194 Z-0.249992
G01 X137.246558 Y194.191864 Z-0.249992
G01 X136.969924 Y196.087805 Z-0.249992
G01 X136.907779 Y196.752156 Z-0.249992
G01 X136.713610 Y198.827900 Z-0.249992
G01 X136.686996 Y199.112663 Z-0.249992
G01 X136.555565 Y200.517650 Z-0.249992
G01 X136.396477 Y202.218547 Z-0.249992
G01 X136.197425 Y203.294152 Z-0.249992
G01 X135.600271 Y202.696998 Z-0.249992
G01 X135.381295 Y202.292969 Z-0.119154
G01 X135.381295 Y202.292969 Z-0.119154
G01 X135.625869 Y202.974451 Z-0.249992
G01 X135.885288 Y203.636685 Z-0.249992
G01 X136.331650 Y204.443474 Z-0.249992
G01 X136.342375 Y204.462862 Z-0.249992
G01 X137.025494 Y205.697585 Z-0.249992
G01 X137.711350 Y206.937302 Z-0.249992
G01 X138.050186 Y207.395462 Z-0.249992
G01 X139.225867 Y208.985332 Z-0.249992
G01 X139.570320 Y209.321967 Z-0.249992
G01 X141.588688 Y211.294559 Z-0.249992
G01 X142.943045 Y212.618210 Z-0.249992
G01 X143.458524 Y212.987582 Z-0.249992
G01 X145.124876 Y214.181608 Z-0.249992
G01 X145.245526 Y214.248692 Z-0.249992
G01 X146.478922 Y214.934238 Z-0.249992
G01 X147.845499 Y215.693839 Z-0.249992
G01 X149.065912 Y216.372160 Z-0.249992
G01 X150.182299 Y217.032250 Z-0.249992
G01 X150.315649 Y217.162524 Z-0.249992
G01 X150.594174 Y217.434642 Z-0.249992
G01 X150.283391 Y217.876518 Z-0.227556
G01 X149.794328 Y218.209794 Z-0.188581
G01 X149.082479 Y218.747935 Z-0.173651
G01 X149.082479 Y218.747935 Z-0.173651
G01 X149.368878 Y218.531414 Z-0.179663
G01 X150.054734 Y218.012916 Z-0.194028
G01 X150.174340 Y217.941570 Z-0.211554
G01 X151.621293 Y217.342158 Z-0.182090
G01 X152.114674 Y217.327313 Z-0.196935
G01 X152.283782 Y217.331942 Z-0.192278
G01 X152.337404 Y217.326918 Z-0.171619
G01 X152.353180 Y217.315262 Z-0.155843
G01 X152.337404 Y217.326918 Z-0.171619
G01 X152.230131 Y217.323842 Z-0.200406
G01 X151.954880 Y217.332139 Z-0.192109
G01 X151.298234 Y217.419826 Z-0.240143
G01 X150.965719 Y217.264999 Z-0.249992
G01 X149.702860 Y216.635333 Z-0.249992
G01 X148.120778 Y215.846493 Z-0.249992
G01 X147.634848 Y215.246291 Z-0.249992
G01 X147.456794 Y215.026384 Z-0.249992
G01 X147.320142 Y214.424319 Z-0.249992
G01 X147.317546 Y213.937768 Z-0.249992
G01 X147.311562 Y212.812294 Z-0.249992
G01 X147.238044 Y212.503599 Z-0.249992
G01 X146.833563 Y210.804537 Z-0.249992
G01 X146.656242 Y210.266452 Z-0.249992
G01 X146.214621 Y208.926235 Z-0.249992
G01 X145.596046 Y207.049062 Z-0.249992
G01 X145.504945 Y206.840839 Z-0.249992
G01 X144.863398 Y205.374807 Z-0.249992
G01 X144.352688 Y204.885518 Z-0.249992
G01 X143.992234 Y204.540191 Z-0.249992
G01 X143.736766 Y204.406728 Z-0.249992
G01 X143.329604 Y204.419372 Z-0.249992
G01 X143.225972 Y204.512844 Z-0.249992
G01 X143.112434 Y204.838500 Z-0.249992
G01 X143.006432 Y205.142623 Z-0.249992
G01 X142.967175 Y205.522325 Z-0.249992
G01 X143.014023 Y205.701423 Z-0.249992
G01 X143.170177 Y206.607638 Z-0.171817
G01 X143.079104 Y207.266571 Z-0.249992
G01 X142.722939 Y208.631990 Z-0.249992
G01 X142.162615 Y210.780096 Z-0.249992
G01 X141.529111 Y210.780096 Z-0.249992
G01 X141.129823 Y210.780096 Z-0.249992
G01 X140.774929 Y210.381514 Z-0.249992
G01 X139.836596 Y209.327611 Z-0.249992
G01 X138.601338 Y207.940263 Z-0.249992
G01 X138.041381 Y206.981413 Z-0.249992
G01 X137.551302 Y206.142254 Z-0.249992
G01 X138.332832 Y205.665778 Z-0.249992
G01 X138.773014 Y205.397413 Z-0.249992
G01 X140.405415 Y204.402213 Z-0.249992
G01 X141.062852 Y203.885915 Z-0.249992
G01 X141.498293 Y203.196136 Z-0.249992
G01 X141.791917 Y202.730977 Z-0.249992
G01 X142.179182 Y202.257409 Z-0.249992
G01 X142.382043 Y202.257409 Z-0.249992
G01 X142.688960 Y202.257409 Z-0.249992
G01 X143.088276 Y202.474268 Z-0.249992
G01 X144.696294 Y203.347520 Z-0.249992
G01 X145.114180 Y203.713647 Z-0.249992
G01 X145.336797 Y203.908691 Z-0.249992
G01 X145.848974 Y204.669449 Z-0.249992
G01 X146.252636 Y205.391261 Z-0.249992
G01 X146.647409 Y206.097183 Z-0.249992
G01 X147.021523 Y206.677488 Z-0.249992
G01 X147.074722 Y206.710367 Z-0.249992
G01 X147.268439 Y206.830086 Z-0.249992
G01 X147.633042 Y206.101219 Z-0.249992
G01 X147.798593 Y205.447197 Z-0.249992
G01 X148.312830 Y203.415620 Z-0.249992
G01 X148.329115 Y203.268583 Z-0.249992
G01 X148.498843 Y201.735100 Z-0.249992
G01 X148.315399 Y200.565289 Z-0.249992
G01 X148.132265 Y199.397510 Z-0.249992
G01 X147.772968 Y198.471087 Z-0.249992
G01 X147.574396 Y198.204613 Z-0.249992
G01 X146.530682 Y196.804085 Z-0.249992
G01 X145.670976 Y196.101041 Z-0.249992
G01 X144.465182 Y195.412080 Z-0.249992
G01 X143.890916 Y195.083969 Z-0.249992
G01 X143.314167 Y194.691228 Z-0.249992
G01 X143.204806 Y194.535244 Z-0.249992
G01 X143.083986 Y194.362891 Z-0.249992
G01 X143.006996 Y193.576846 Z-0.249992
G01 X143.005246 Y192.817188 Z-0.249992
G01 X143.002622 Y191.708760 Z-0.249992
G01 X143.131484 Y191.142397 Z-0.249992
G01 X143.594893 Y190.229803 Z-0.249992
G01 X144.209771 Y189.018900 Z-0.249992
G01 X144.465041 Y188.686245 Z-0.249992
G01 X146.183266 Y186.447348 Z-0.249992
G01 X147.294968 Y184.998786 Z-0.249992
G01 X147.392645 Y184.904693 Z-0.249992
G01 X148.493227 Y183.844694 Z-0.249992
G01 X149.297899 Y183.081989 Z-0.241131
G01 X149.676105 Y183.122206 Z-0.249992
G01 X151.337604 Y183.338106 Z-0.249992
G01 X152.403134 Y183.476564 Z-0.249992
G01 X152.674406 Y183.528747 Z-0.249992
G01 X154.329949 Y183.847178 Z-0.249992
G01 X155.616403 Y184.160981 Z-0.249992
G01 X155.623600 Y184.162731 Z-0.249992
G01 X157.009480 Y184.500776 Z-0.249992
G01 X157.857981 Y184.766263 Z-0.249992
G01 X157.932262 Y184.822933 Z-0.249992
G01 X159.131340 Y185.737700 Z-0.249992
G01 X159.562434 Y186.452343 Z-0.249992
G01 X160.157528 Y187.630423 Z-0.249992
G01 X160.600476 Y188.507260 Z-0.249992
G01 X160.987430 Y189.318140 Z-0.249992
G01 X160.987430 Y189.425949 Z-0.249992
G01 X160.987430 Y189.654719 Z-0.249992
G01 X160.592178 Y189.792641 Z-0.249992
G01 X160.317943 Y189.832236 Z-0.249992
G01 X159.926585 Y189.888737 Z-0.249992
G01 X159.821627 Y190.305156 Z-0.249992
G01 X159.818664 Y190.290452 Z-0.249992
G01 X160.096511 Y191.677575 Z-0.249992
G01 X160.503899 Y192.425068 Z-0.249992
G01 X161.125550 Y192.867734 Z-0.249992
G01 X161.980034 Y193.476177 Z-0.249992
G01 X163.202311 Y193.783799 Z-0.249992
G01 X163.711891 Y193.788907 Z-0.249992
G01 X165.629845 Y193.808070 Z-0.249992
G01 X166.730991 Y193.529771 Z-0.249992
G01 X167.369914 Y192.951582 Z-0.249992
G01 X168.062375 Y192.324880 Z-0.249992
G01 X168.092544 Y192.262650 Z-0.249992
G01 X168.740555 Y190.925735 Z-0.249992
G01 X168.855447 Y189.878239 Z-0.249992
G01 X168.958797 Y188.935842 Z-0.249992
G01 X169.156917 Y188.530910 Z-0.249992
G01 X169.922360 Y187.751356 Z-0.221036
G01 X169.932351 Y187.742522 Z-0.219766
G01 X170.866930 Y186.694490 Z-0.249992
G01 X170.896112 Y186.650520 Z-0.249992
G01 X171.693672 Y185.449071 Z-0.249992
G01 X171.859449 Y184.800863 Z-0.249992
G01 X171.994436 Y184.273051 Z-0.249992
G01 X171.683229 Y183.103268 Z-0.249992
G01 X171.276575 Y182.634949 Z-0.249992
G01 X171.115681 Y182.449642 Z-0.249992
G01 X170.434283 Y182.038557 Z-0.249992
G01 X169.744955 Y181.723202 Z-0.249992
G01 X168.534984 Y181.169707 Z-0.249992
G01 X168.329216 Y180.971221 Z-0.249992
G01 X168.093589 Y180.100875 Z-0.249992
G01 X167.761554 Y178.874366 Z-0.249992
G01 X167.521129 Y178.426310 Z-0.249992
G01 X166.846957 Y177.767180 Z-0.249992
G01 X166.262192 Y177.195454 Z-0.249992
G01 X165.893356 Y176.939027 Z-0.249992
G01 X165.878426 Y176.937644 Z-0.249992
G01 X164.473214 Y176.808781 Z-0.249992
G01 X163.000409 Y176.673710 Z-0.249992
G01 X162.453208 Y176.680963 Z-0.249992
G01 X160.482676 Y176.707040 Z-0.249992
G01 X160.208412 Y176.712374 Z-0.249992
G01 X157.386726 Y176.767097 Z-0.249992
G01 X155.700844 Y176.799779 Z-0.249992
G01 X155.332995 Y176.806919 Z-0.249992
G01 X149.689623 Y176.916336 Z-0.249992
G01 X147.915800 Y176.950739 Z-0.249992
G01 X147.082652 Y176.999338 Z-0.249992
G01 X146.630532 Y177.295558 Z-0.249992
G01 X146.053811 Y177.673454 Z-0.249992
G01 X145.654833 Y178.193900 Z-0.249992
G01 X143.937822 Y180.433728 Z-0.249992
G01 X142.660992 Y182.099376 Z-0.249992
G01 X142.660286 Y182.100476 Z-0.249992
G01 X141.900036 Y183.289309 Z-0.249992
G01 X141.133379 Y184.488189 Z-0.249992
G01 X140.429009 Y185.589618 Z-0.249992
G01 X139.693199 Y186.744302 Z-0.249992
G01 X139.555813 Y185.452684 Z-0.249992
G01 X139.863266 Y184.320352 Z-0.249992
G01 X139.973728 Y183.912654 Z-0.249992
G01 X140.453280 Y182.142923 Z-0.249992
G01 X140.455425 Y182.134992 Z-0.249992
G01 X140.825729 Y180.768359 Z-0.249992
G01 X140.955692 Y180.230923 Z-0.249992
G01 X141.417464 Y178.321436 Z-0.249992
G01 X141.443033 Y178.203637 Z-0.249992
G01 X141.768520 Y176.703964 Z-0.249992
G01 X141.844607 Y176.353388 Z-0.249992
G01 X142.222475 Y174.612585 Z-0.249992
G01 X142.253576 Y174.513920 Z-0.249992
G01 X142.712610 Y173.058923 Z-0.249992
G01 X142.834558 Y172.828122 Z-0.249992
G01 X143.493717 Y171.580417 Z-0.249992
G01 X144.273864 Y170.103746 Z-0.249992
G01 X144.389885 Y169.951148 Z-0.249992
G01 X145.352997 Y168.684281 Z-0.249992
G01 X145.699312 Y168.291710 Z-0.249992
G01 X146.973093 Y166.847805 Z-0.249992
G01 X147.043762 Y166.767710 Z-0.249992
G01 X148.047908 Y165.629451 Z-0.249992
G01 X148.289604 Y165.355216 Z-0.249992
G01 X149.464325 Y164.022393 Z-0.249992
G01 X150.120746 Y163.276508 Z-0.249992
G01 X150.202478 Y163.183629 Z-0.249992
G01 X151.207104 Y162.042068 Z-0.249992
G01 X151.236314 Y162.000158 Z-0.249992
G01 X152.043413 Y160.842652 Z-0.249992
G01 X152.884689 Y159.636124 Z-0.249992
G01 X152.901848 Y159.609115 Z-0.249992
G01 X154.414193 Y157.226313 Z-0.249992
G01 X155.190417 Y156.003331 Z-0.249992
G01 X155.248724 Y155.911468 Z-0.249992
G01 X156.044393 Y154.657865 Z-0.249992
G01 X156.052916 Y154.628909 Z-0.249992
G01 X156.052747 Y154.618212 Z-0.249992
G01 X156.039877 Y153.158362 Z-0.239494
G01 X156.038240 Y152.953045 Z-0.237857
G01 X156.000790 Y151.371415 Z-0.249992
G01 X156.009115 Y151.399327 Z-0.249992
G01 X155.606243 Y150.046946 Z-0.249992
G01 X155.214039 Y148.730295 Z-0.249992
G01 X155.216889 Y148.734218 Z-0.249992
G01 X154.366920 Y147.560879 Z-0.249992
G01 X154.034237 Y147.101647 Z-0.249992
G01 X153.341240 Y146.582471 Z-0.249992
G01 X152.376661 Y146.079805 Z-0.249992
G01 X152.363256 Y146.072806 Z-0.249992
G01 X151.111882 Y145.420647 Z-0.249992
G01 X149.838665 Y144.757114 Z-0.249992
G01 X149.543348 Y144.573331 Z-0.249992
G01 X148.014691 Y143.622044 Z-0.249992
G01 X147.667642 Y143.126575 Z-0.249992
G01 X147.215776 Y142.481415 Z-0.249992
G01 X147.246962 Y141.893518 Z-0.249992
G01 X147.754341 Y140.899023 Z-0.249992
G01 X148.246790 Y139.933710 Z-0.249992
G01 X149.120071 Y139.331674 Z-0.249992
G01 X149.418634 Y139.220394 Z-0.249992
G01 X151.010367 Y138.627050 Z-0.249992
G01 X151.557652 Y138.423031 Z-0.249992
G01 X154.202103 Y137.437257 Z-0.249992
G01 X156.060056 Y136.744684 Z-0.249992
G01 X156.071063 Y136.739265 Z-0.249992
G01 X157.338269 Y136.118433 Z-0.249992
G01 X158.602568 Y135.498983 Z-0.249992
G01 X158.973916 Y135.200251 Z-0.249992
G01 X160.466476 Y133.999537 Z-0.249992
G01 X160.727617 Y133.789479 Z-0.249992
G01 X162.070515 Y132.709160 Z-0.249992
G01 X162.750247 Y131.920942 Z-0.249992
G01 X162.750247 Y131.437918 Z-0.249992
G01 X162.776917 Y131.311963 Z-0.223322
G01 X162.776917 Y131.311963 Z-0.223322
G01 X162.562541 Y131.394174 Z-0.249992
G01 X160.924495 Y131.690789 Z-0.132644
G01 X160.422788 Y131.794675 Z-0.109305
G01 X160.210586 Y131.839605 Z-0.066746
G01 X160.210586 Y131.839605 Z-0.066746
G01 X160.400380 Y131.801167 Z-0.106426
G01 X160.896583 Y131.696575 Z-0.131346
G01 X161.375373 Y131.597459 Z-0.153614
G01 X161.912357 Y131.554279 Z-0.244461
G01 X162.056968 Y131.777714 Z-0.249992
G01 X162.384402 Y132.307530 Z-0.249992
G01 X161.958698 Y132.665049 Z-0.249992
G01 X160.878126 Y133.572591 Z-0.249992
G01 X159.516404 Y134.716240 Z-0.249992
G01 X159.293674 Y134.832318 Z-0.249992
G01 X157.843814 Y135.587770 Z-0.249992
G01 X157.716390 Y135.654149 Z-0.249992
G01 X156.307424 Y136.388294 Z-0.249992
G01 X156.083227 Y136.436102 Z-0.249992
G01 X155.687918 Y135.908347 Z-0.249992
G01 X155.499704 Y135.657084 Z-0.249992
G01 X155.346542 Y135.265698 Z-0.249992
G01 X155.397878 Y135.063599 Z-0.249992
G01 X155.473457 Y134.766052 Z-0.249992
G01 X155.908559 Y134.380283 Z-0.249992
G01 X156.964409 Y133.444123 Z-0.249992
G01 X158.468851 Y132.110285 Z-0.249992
G01 X158.758609 Y132.110285 Z-0.249992
G01 X158.774780 Y132.110285 Z-0.249992
G01 X159.024067 Y132.030162 Z-0.249992
G01 X159.320457 Y131.917470 Z-0.249992
G01 X159.771420 Y131.892578 Z-0.113002
G01 X159.771420 Y131.892578 Z-0.113002
G01 X159.530966 Y131.817366 Z-0.249992
G01 X159.264774 Y131.496649 Z-0.249992
G01 X159.373712 Y131.095583 Z-0.249992
G01 X159.802690 Y130.463461 Z-0.249992
G01 X160.289467 Y129.746137 Z-0.249992
G01 X160.365074 Y129.512316 Z-0.249992
G01 X160.101563 Y129.334714 Z-0.249992
G01 X159.572961 Y129.423303 Z-0.249992
G01 X158.507374 Y129.753673 Z-0.221742
G01 X158.475681 Y129.762958 Z-0.220387
G01 X157.082717 Y130.170712 Z-0.160613
G01 X156.171929 Y130.429059 Z-0.184940
G01 X155.022438 Y130.429425 Z-0.249992
G01 X155.061723 Y129.829534 Z-0.246944
G01 X155.504699 Y129.238786 Z-0.249992
G01 X155.843818 Y128.790420 Z-0.249992
G01 X155.842943 Y128.496090 Z-0.249992
G01 X155.700618 Y128.496090 Z-0.249992
G01 X155.568002 Y128.496090 Z-0.249992
G01 X154.518897 Y128.799197 Z-0.249992
G01 X153.362040 Y129.181806 Z-0.249992
G01 X152.943646 Y129.320207 Z-0.249992
G01 X151.603908 Y129.763296 Z-0.249992
G01 X149.838326 Y130.347242 Z-0.249992
G01 X149.746491 Y130.371344 Z-0.249992
G01 X148.381636 Y130.729710 Z-0.249992
G01 X146.914560 Y131.114915 Z-0.249992
G01 X146.817589 Y131.125470 Z-0.249992
G01 X145.336261 Y131.286817 Z-0.249992
G01 X144.323196 Y131.397137 Z-0.249992
G01 X144.089008 Y131.446329 Z-0.249992
G01 X142.482486 Y131.783838 Z-0.249992
G01 X141.939886 Y131.997932 Z-0.249992
G01 X141.649140 Y132.112655 Z-0.249992
G01 X141.242684 Y132.169382 Z-0.249992
G01 X141.077415 Y132.067246 Z-0.249992
G01 X141.062485 Y132.057989 Z-0.249992
G01 X140.791382 Y132.088695 Z-0.249992
G01 X140.438209 Y132.189984 Z-0.249992
G01 X140.055516 Y132.299740 Z-0.249992
G01 X139.353545 Y132.442375 Z-0.249992
G01 X138.882262 Y132.506383 Z-0.249992
G01 X138.708639 Y132.529977 Z-0.249992
G01 X137.151139 Y132.741503 Z-0.249992
G01 X137.115861 Y132.750562 Z-0.249992
G01 X135.749031 Y133.101280 Z-0.249992
G01 X134.358494 Y133.458121 Z-0.249992
G01 X133.508807 Y133.881257 Z-0.249992
G01 X132.976762 Y134.146207 Z-0.249992
G01 X132.493710 Y134.578149 Z-0.249992
G01 X131.745765 Y135.585541 Z-0.249992
G01 X131.523571 Y136.094331 Z-0.249992
G01 X131.510871 Y136.541992 Z-0.249992
G01 X131.497071 Y137.029051 Z-0.249992
G01 X131.638323 Y137.351998 Z-0.249992
G01 X132.162438 Y137.994759 Z-0.249992
G01 X132.227434 Y138.074459 Z-0.249992
G01 X133.205305 Y139.273762 Z-0.249992
G01 X133.422306 Y139.762599 Z-0.249992
G01 X133.422306 Y140.864253 Z-0.249992
G01 X133.422306 Y141.469846 Z-0.249992
G01 X133.200705 Y142.083820 Z-0.249992
G01 X133.169717 Y142.124771 Z-0.249992
G01 X132.295957 Y143.279455 Z-0.249992
G01 X131.595397 Y143.913185 Z-0.249992
G01 X130.625427 Y144.627235 Z-0.249992
G01 X130.565596 Y144.671290 Z-0.249992
G01 X129.362793 Y145.556734 Z-0.249992
G01 X128.517905 Y146.093408 Z-0.246493
G01 X127.105439 Y146.526591 Z-0.249992
G01 X126.499790 Y146.388443 Z-0.249992
G01 X125.810688 Y146.032081 Z-0.249992
G01 X125.620583 Y145.933783 Z-0.249992
G01 X124.195587 Y145.196901 Z-0.249992
G01 X123.842442 Y145.083504 Z-0.249992
G01 X122.498895 Y144.652127 Z-0.249992
G01 X120.794583 Y144.104898 Z-0.249992
G01 X120.733369 Y144.091973 Z-0.249992
G01 X119.352653 Y143.800663 Z-0.249992
G01 X117.898136 Y143.493803 Z-0.249992
G01 X117.871890 Y143.488271 Z-0.249992
G01 X116.491174 Y143.196961 Z-0.249992
G01 X115.096770 Y142.902745 Z-0.249992
G01 X114.317668 Y142.820561 Z-0.249992
G01 X114.129482 Y142.818050 Z-0.249992
G01 X112.718484 Y142.799169 Z-0.249992
G01 X111.107813 Y142.777635 Z-0.249992
G01 X110.693765 Y142.772104 Z-0.249992
G01 X109.282795 Y142.753223 Z-0.249992
G01 X107.362132 Y142.727569 Z-0.249992
G01 X107.116034 Y142.501058 Z-0.249992
G01 X105.901970 Y141.383683 Z-0.249992
G01 X105.446182 Y140.964188 Z-0.249992
G01 X103.967111 Y139.602918 Z-0.249992
G01 X103.518858 Y139.308673 Z-0.249992
G01 X102.339141 Y138.534368 Z-0.249992
G01 X100.707783 Y137.463589 Z-0.249992
G01 X100.504922 Y137.365516 Z-0.249992
G01 X99.234470 Y136.751373 Z-0.249992
G01 X97.746454 Y136.032073 Z-0.249992
G01 X97.147352 Y135.742456 Z-0.249992
G01 X95.256238 Y134.828254 Z-0.249992
G01 X95.071664 Y134.690417 Z-0.249992
G01 X95.071664 Y133.914870 Z-0.249992
G01 X95.071664 Y133.156652 Z-0.249992
G01 X95.150658 Y132.904543 Z-0.249992
G01 X95.646664 Y131.322123 Z-0.249992
G01 X96.236819 Y130.171164 Z-0.249992
G01 X96.446961 Y129.761405 Z-0.249992
G01 X97.221520 Y128.814606 Z-0.249992
G01 X97.948807 Y128.071233 Z-0.249992
G01 X98.345555 Y127.665736 Z-0.249992
G01 X99.716675 Y126.264305 Z-0.249992
G01 X99.838736 Y126.097681 Z-0.249992
G01 X100.791321 Y124.797060 Z-0.249992
G01 X100.898057 Y124.573879 Z-0.249992
G01 X101.623707 Y123.056680 Z-0.249992
G01 X102.097728 Y122.065629 Z-0.249992
G01 X102.219507 Y121.616444 Z-0.249992
G01 X102.028640 Y121.393545 Z-0.249992
G01 X101.665109 Y121.496528 Z-0.249992
G01 X100.761462 Y121.977575 Z-0.249992
G01 X99.595771 Y122.555454 Z-0.212344
G01 X98.996811 Y122.760093 Z-0.211751
G01 X97.661477 Y123.216305 Z-0.210425
G01 X96.326142 Y123.672517 Z-0.209098
G01 X94.382308 Y124.381883 Z-0.249992
G01 X93.713639 Y124.381883 Z-0.249992
G01 X93.130399 Y124.381883 Z-0.249992
G01 X93.027275 Y124.079510 Z-0.249992
G01 X93.151227 Y123.175185 Z-0.249992
G01 X93.304784 Y122.054848 Z-0.249992
G01 X93.285226 Y121.980200 Z-0.249992
G01 X92.944358 Y120.679099 Z-0.249992
G01 X92.670602 Y120.679099 Z-0.249992
G01 X92.564543 Y120.679099 Z-0.249992
G01 X91.910775 Y121.131530 Z-0.249992
G01 X91.213856 Y121.739323 Z-0.249992
G01 X90.815923 Y122.086372 Z-0.249992
G01 X89.339590 Y123.373926 Z-0.249992
G01 X89.176183 Y123.476147 Z-0.249992
G01 X87.797499 Y124.329305 Z-0.242090
G01 X86.511413 Y124.671048 Z-0.249992
G01 X85.894729 Y124.831011 Z-0.249992
G01 X85.226568 Y124.919770 Z-0.240820
G01 X85.058109 Y124.826496 Z-0.249992
G01 X84.917139 Y124.739346 Z-0.249992
G01 X84.549404 Y124.121674 Z-0.249992
G01 X84.228630 Y123.487323 Z-0.249992
G01 X84.145262 Y123.322421 Z-0.249992
G01 X83.439311 Y121.926324 Z-0.249992
G01 X83.449019 Y121.937415 Z-0.249992
G01 X82.520170 Y120.875102 Z-0.249992
G01 X81.652336 Y119.882583 Z-0.249992
G01 X81.161439 Y119.869121 Z-0.249992
G01 X80.897081 Y119.861896 Z-0.249992
G01 X80.797542 Y119.980881 Z-0.249992
G01 X80.347058 Y120.960559 Z-0.249992
G01 X80.103444 Y120.891951 Z0.000000
G01 X80.347058 Y120.960559 Z-0.249992
G01 X80.347030 Y120.960729 Z-0.249992
G00 Z5.000000

G00 Z5.000000
G00 X83.677704 Y123.062099

G01 Z-0.249992 F100.0(Penetrate)
G01 X84.208959 Y123.900750 Z-0.249992 F400.000000
G01 X84.517541 Y124.496917 Z-0.249992
G01 X84.710327 Y125.657443 Z-0.249992
G01 X84.591427 Y126.242207 Z-0.249992
G01 X84.327859 Y127.032458 Z-0.249992
G01 X83.989306 Y128.047583 Z-0.249992
G01 X83.867216 Y128.202156 Z-0.249992
G01 X82.822542 Y129.524790 Z-0.249992
G01 X82.257167 Y129.524790 Z-0.249992
G01 X81.730201 Y129.524790 Z-0.249992
G01 X81.056226 Y128.714135 Z-0.249992
G01 X80.891606 Y128.408855 Z-0.249992
G01 X80.059897 Y126.866511 Z-0.249992
G01 X79.648304 Y125.704630 Z-0.249992
G01 X79.618699 Y124.853956 Z-0.249992
G01 X79.579216 Y123.719648 Z-0.249992
G01 X79.676724 Y123.326485 Z-0.249992
G01 X80.115382 Y121.557431 Z-0.249992
G01 X80.643928 Y120.735064 Z-0.249992
G01 X81.120545 Y119.993525 Z-0.249992
G01 X82.013891 Y120.859383 Z-0.249992
G01 X82.398588 Y121.232255 Z-0.249992
G01 X83.148396 Y122.226524 Z-0.249992
G01 X83.677704 Y123.062099 Z-0.249992
G00 Z5.000000

G00 Z5.000000
G00 X92.828590 Y122.944977

G01 Z-0.249992 F100.0(Penetrate)
G01 X92.722051 Y124.326313 Z-0.249992 F400.000000
G01 X92.519924 Y125.054785 Z-0.249992
G01 X92.444853 Y125.222115 Z-0.249992
G01 X91.799806 Y126.659614 Z-0.249992
G01 X91.233527 Y127.921571 Z-0.249992
G01 X90.867456 Y128.648603 Z-0.249992
G01 X90.008061 Y129.206782 Z-0.249992
G01 X89.527522 Y128.864165 Z-0.249992
G01 X88.962823 Y128.318770 Z-0.249992
G01 X88.197324 Y127.579489 Z-0.249992
G01 X87.933361 Y127.189260 Z-0.249992
G01 X86.851491 Y125.589935 Z-0.249992
G01 X86.845197 Y125.124720 Z-0.249992
G01 X86.842064 Y124.908623 Z-0.249992
G01 X87.517535 Y124.469569 Z-0.249992
G01 X88.201134 Y124.105220 Z-0.249992
G01 X88.861336 Y123.753318 Z-0.249992
G01 X88.862296 Y123.752640 Z-0.249992
G01 X90.019181 Y122.935889 Z-0.249992
G01 X90.778754 Y122.284351 Z-0.249992
G01 X91.552579 Y121.620564 Z-0.249992
G01 X92.330383 Y121.025583 Z-0.249992
G01 X92.507788 Y121.014323 Z-0.249992
G01 X92.869767 Y120.991350 Z-0.249992
G01 X92.902928 Y121.980793 Z-0.249992
G01 X92.828590 Y122.944977 Z-0.249992
G00 Z5.000000

G00 Z5.000000
G00 X94.856950 Y126.252170

G01 Z-0.249992 F100.0(Penetrate)
G01 X95.208740 Y126.958741 Z-0.249992 F400.000000
G01 X95.721058 Y127.764994 Z-0.249992
G01 X95.997269 Y128.053312 Z-0.249992
G01 X96.304157 Y128.373634 Z-0.249992
G01 X96.600180 Y128.798774 Z-0.249992
G01 X96.600180 Y128.992378 Z-0.249992
G01 X96.600180 Y129.161542 Z-0.249992
G01 X96.303847 Y129.815169 Z-0.249992
G01 X95.969159 Y130.436763 Z-0.249992
G01 X95.937776 Y130.495099 Z-0.249992
G01 X95.251158 Y131.770348 Z-0.249992
G01 X95.154666 Y132.128939 Z-0.249992
G01 X94.700824 Y133.815387 Z-0.249992
G01 X94.861635 Y134.456087 Z-0.249992
G01 X94.943394 Y134.781800 Z-0.249992
G01 X95.449024 Y135.105989 Z-0.249992
G01 X95.445383 Y135.104154 Z-0.249992
G01 X96.706634 Y135.736981 Z-0.249992
G01 X97.975985 Y136.373872 Z-0.249992
G01 X98.201932 Y136.487241 Z-0.249992
G01 X99.695396 Y137.236597 Z-0.249992
G01 X100.077214 Y137.455799 Z-0.249992
G01 X101.690058 Y138.381770 Z-0.249992
G01 X102.403403 Y138.917456 Z-0.249992
G01 X103.103681 Y139.443349 Z-0.249992
G01 X104.060668 Y140.150316 Z-0.249992
G01 X104.530483 Y140.488870 Z-0.249992
G01 X104.533277 Y140.490873 Z-0.249992
G01 X105.699363 Y141.331162 Z-0.249992
G01 X105.832459 Y141.469846 Z-0.249992
G01 X106.937359 Y142.621143 Z-0.249992
G01 X107.177474 Y142.941070 Z-0.249992
G01 X108.024507 Y144.069677 Z-0.249992
G01 X109.111091 Y145.517421 Z-0.249992
G01 X109.233491 Y145.726152 Z-0.249992
G01 X110.071888 Y147.155664 Z-0.249992
G01 X110.122322 Y147.280519 Z-0.249992
G01 X110.694358 Y148.696739 Z-0.249992
G01 X110.736070 Y148.799976 Z-0.249992
G01 X111.318887 Y150.242921 Z-0.249992
G01 X111.348069 Y150.494184 Z-0.249992
G01 X111.510855 Y151.895897 Z-0.249992
G01 X111.701835 Y153.540378 Z-0.249992
G01 X111.667375 Y153.942601 Z-0.249992
G01 X111.514552 Y155.725624 Z-0.249992
G01 X111.496913 Y155.931562 Z-0.249992
G01 X111.356705 Y157.567576 Z-0.249992
G01 X111.333196 Y157.649787 Z-0.249992
G01 X110.945253 Y159.006514 Z-0.249992
G01 X110.519239 Y160.496478 Z-0.249992
G01 X109.982509 Y160.941938 Z-0.249992
G01 X109.863891 Y161.040377 Z-0.249992
G01 X109.765621 Y161.296578 Z-0.249992
G01 X109.765621 Y161.550691 Z-0.249992
G01 X109.765621 Y161.885209 Z-0.249992
G01 X109.627022 Y162.383670 Z-0.249992
G01 X109.460285 Y162.639222 Z-0.249992
G01 X109.324592 Y162.847248 Z-0.249992
G01 X108.993235 Y163.562879 Z-0.249992
G01 X108.723656 Y164.235640 Z-0.249992
G01 X108.445724 Y164.929230 Z-0.249992
G01 X108.424190 Y164.967922 Z-0.249992
G01 X107.718748 Y166.235157 Z-0.249992
G01 X107.112083 Y167.132934 Z-0.249992
G01 X106.514844 Y168.016684 Z-0.249992
G01 X106.062837 Y168.761666 Z-0.249992
G01 X106.062837 Y168.792937 Z-0.249992
G01 X106.062837 Y168.825646 Z-0.249992
G01 X106.271964 Y168.742503 Z-0.249992
G01 X106.560931 Y168.278897 Z-0.249992
G01 X106.569990 Y168.264363 Z-0.249992
G01 X107.316384 Y167.066809 Z-0.249992
G01 X108.077226 Y165.846113 Z-0.249992
G01 X108.832651 Y164.828476 Z-0.249992
G01 X109.133358 Y165.417897 Z-0.249992
G01 X109.221384 Y165.590420 Z-0.249992
G01 X109.409598 Y166.555197 Z-0.249992
G01 X109.558837 Y167.549861 Z-0.249992
G01 X109.589091 Y167.751424 Z-0.249992
G01 X109.847804 Y169.475463 Z-0.249992
G01 X109.022360 Y170.277087 Z-0.249992
G01 X108.635180 Y170.653120 Z-0.249992
G01 X108.561689 Y170.755961 Z-0.249992
G01 X107.659255 Y172.018426 Z-0.249992
G01 X107.629932 Y172.065698 Z-0.249992
G01 X106.852297 Y173.318963 Z-0.249992
G01 X106.818656 Y173.373177 Z-0.249992
G01 X106.035462 Y174.635445 Z-0.249992
G01 X105.716607 Y175.063632 Z-0.249992
G01 X104.554726 Y176.624011 Z-0.249992
G01 X104.525657 Y176.656607 Z-0.249992
G01 X103.564634 Y177.734047 Z-0.249992
G01 X103.436618 Y177.877585 Z-0.249992
G01 X102.497354 Y178.930669 Z-0.249992
G01 X101.435860 Y180.120744 Z-0.249992
G01 X100.776730 Y180.972603 Z-0.249992
G01 X100.679533 Y181.136405 Z-0.249992
G01 X99.854371 Y182.526999 Z-0.249992
G01 X99.462760 Y183.186947 Z-0.249992
G01 X98.999295 Y183.832248 Z-0.249992
G01 X98.789829 Y183.832248 Z-0.249992
G01 X98.440325 Y183.832248 Z-0.249992
G01 X98.370588 Y183.606188 Z-0.249992
G01 X97.937264 Y182.201427 Z-0.249992
G01 X97.931789 Y182.179499 Z-0.249992
G01 X97.590977 Y180.810156 Z-0.249992
G01 X97.246384 Y179.425574 Z-0.249992
G01 X96.936730 Y178.181313 Z-0.249992
G01 X96.698055 Y177.423433 Z-0.249992
G01 X96.580001 Y177.214927 Z-0.249992
G01 X95.763052 Y175.772038 Z-0.249992
G01 X95.068588 Y174.889332 Z-0.249992
G01 X94.908173 Y174.697421 Z-0.249992
G01 X93.840301 Y173.420055 Z-0.249992
G01 X93.535472 Y173.055423 Z-0.249992
G01 X91.725355 Y170.890186 Z-0.249992
G01 X90.513888 Y169.441060 Z-0.249992
G01 X90.241487 Y169.101998 Z-0.249992
G01 X89.080228 Y167.656541 Z-0.249992
G01 X88.400778 Y166.647991 Z-0.249992
G01 X88.076533 Y166.166718 Z-0.249992
G01 X86.953909 Y164.500308 Z-0.249992
G01 X86.695111 Y163.964679 Z-0.249992
G01 X85.467303 Y161.423550 Z-0.249992
G01 X84.596507 Y159.621279 Z-0.249992
G01 X84.495753 Y159.338379 Z-0.249992
G01 X84.022326 Y158.009056 Z-0.249992
G01 X83.452660 Y156.409533 Z-0.249992
G01 X83.074623 Y155.348011 Z-0.249992
G01 X83.067540 Y155.278415 Z-0.249992
G01 X82.919260 Y153.818141 Z-0.249992
G01 X82.944011 Y153.101832 Z-0.249992
G01 X82.992722 Y151.691568 Z-0.249992
G01 X83.065903 Y149.572813 Z-0.249992
G01 X83.139083 Y148.897032 Z-0.249992
G01 X83.363732 Y146.822501 Z-0.249992
G01 X83.420035 Y146.443476 Z-0.249992
G01 X83.627384 Y145.047690 Z-0.249992
G01 X83.890302 Y143.277761 Z-0.249992
G01 X84.023313 Y142.689836 Z-0.204837
G01 X84.029494 Y142.646176 Z-0.189089
G01 X84.029494 Y142.646176 Z-0.189089
G01 X83.929023 Y142.953065 Z-0.249992
G01 X83.750771 Y143.587811 Z-0.249992
G01 X83.585615 Y144.175990 Z-0.249992
G01 X83.425284 Y144.874772 Z-0.249992
G01 X83.392518 Y145.144605 Z-0.249992
G01 X83.331925 Y145.643461 Z-0.249992
G01 X83.012111 Y146.050482 Z-0.249992
G01 X82.368588 Y145.448530 Z-0.249992
G01 X82.036554 Y144.881518 Z-0.249992
G01 X81.578140 Y143.970702 Z-0.249992
G01 X81.460820 Y143.737614 Z-0.249992
G01 X80.684370 Y142.194959 Z-0.249992
G01 X80.659732 Y141.456638 Z-0.249992
G01 X80.589854 Y139.362944 Z-0.249992
G01 X80.581924 Y139.125426 Z-0.249992
G01 X80.527257 Y137.488085 Z-0.249992
G01 X80.509901 Y137.340483 Z-0.249992
G01 X80.327613 Y135.792043 Z-0.249992
G01 X80.291828 Y135.620734 Z-0.249992
G01 X79.965381 Y134.057223 Z-0.249992
G01 X79.908626 Y133.785415 Z-0.249992
G01 X79.331764 Y131.022769 Z-0.249992
G01 X78.985054 Y129.362400 Z-0.249992
G01 X78.793651 Y128.067000 Z-0.249992
G01 X78.988638 Y127.314539 Z-0.249992
G01 X79.321660 Y126.029355 Z-0.249992
G01 X80.228694 Y127.713291 Z-0.249992
G01 X80.836658 Y128.842010 Z-0.249992
G01 X81.786505 Y129.641941 Z-0.249992
G01 X82.454835 Y129.641941 Z-0.249992
G01 X82.854123 Y129.641941 Z-0.249992
G01 X82.804029 Y129.690483 Z-0.249992
G01 X83.808824 Y128.716675 Z-0.249992
G01 X84.246946 Y127.827224 Z-0.249992
G01 X84.406402 Y127.503515 Z-0.249992
G01 X84.648548 Y126.766802 Z-0.249992
G01 X84.785680 Y126.183364 Z-0.249992
G01 X85.017667 Y125.196348 Z-0.249992
G01 X85.222419 Y124.918613 Z-0.241977
G01 X85.787146 Y124.910598 Z-0.249992
G01 X86.255465 Y124.910598 Z-0.249992
G01 X86.571300 Y125.182096 Z-0.249992
G01 X86.804642 Y125.740529 Z-0.249992
G01 X86.952131 Y126.093533 Z-0.249992
G01 X87.491712 Y126.954339 Z-0.249992
G01 X88.009618 Y127.657862 Z-0.249992
G01 X88.497467 Y128.320548 Z-0.249992
G01 X88.974818 Y128.790251 Z-0.249992
G01 X89.881682 Y129.357828 Z-0.249992
G01 X90.229295 Y129.435665 Z-0.249992
G01 X90.552976 Y129.332936 Z-0.249992
G01 X90.843439 Y129.240734 Z-0.249992
G01 X90.802884 Y129.315381 Z-0.249992
G01 X91.477621 Y128.073152 Z-0.249992
G01 X91.713615 Y127.502583 Z-0.249992
G01 X92.494016 Y125.615871 Z-0.249992
G01 X92.763228 Y124.965011 Z-0.249992
G01 X93.185122 Y124.577802 Z-0.249992
G01 X94.022193 Y124.863919 Z-0.249992
G01 X94.435677 Y125.406096 Z-0.249992
G01 X94.856950 Y126.252170 Z-0.249992
G00 Z5.000000

G00 Z5.000000
G00 X90.386493 Y130.341795

G01 Z-0.249992 F100.0(Penetrate)
G01 X90.079887 Y130.711224 Z-0.249992 F400.000000
G01 X89.944166 Y131.699030 Z-0.249992
G01 X89.951363 Y131.699030 Z-0.249992
G01 X90.030809 Y131.699030 Z-0.249992
G01 X90.232174 Y131.289215 Z-0.249992
G01 X90.471329 Y130.336264 Z-0.249992
G01 X90.555770 Y130.114719 Z-0.222024
G01 X90.558649 Y130.108708 Z-0.217988
G01 X90.558649 Y130.108708 Z-0.217988
G01 X90.534632 Y130.141418 Z-0.236022
G01 X90.386493 Y130.341795 Z-0.249992
G00 Z5.000000

G00 Z5.000000
G00 X91.398994 Y135.960360

G01 Z-0.249992 F100.0(Penetrate)
G01 X90.664962 Y136.090211 Z-0.162278 F400.000000
G01 X90.664962 Y136.090211 Z-0.162278
G01 X90.816543 Y136.103927 Z-0.219230
G01 X91.447282 Y136.121791 Z-0.249992
G01 X92.595926 Y136.121791 Z-0.249992
G01 X93.751598 Y136.121791 Z-0.249992
G01 X94.430427 Y136.143325 Z-0.249992
G01 X95.664359 Y136.530477 Z-0.249992
G01 X96.224288 Y136.897959 Z-0.249992
G01 X97.152827 Y137.551924 Z-0.249992
G01 X97.299865 Y137.655500 Z-0.249992
G01 X97.344908 Y137.663458 Z-0.249992
G01 X97.350270 Y137.680420 Z-0.234216
G01 X97.463046 Y137.545320 Z-0.249992
G01 X97.071350 Y137.183737 Z-0.249992
G01 X96.995122 Y137.144198 Z-0.249992
G01 X95.636504 Y136.439432 Z-0.249992
G01 X94.842331 Y136.027473 Z-0.249992
G01 X94.177584 Y135.798252 Z-0.249992
G01 X94.201601 Y135.800961 Z-0.249992
G01 X92.825034 Y135.646473 Z-0.249992
G01 X92.174456 Y135.726370 Z-0.249992
G01 X91.398994 Y135.960360 Z-0.249992
G00 Z5.000000

G00 Z5.000000
G00 X89.684042 Y140.531316

G01 Z-0.249992 F100.0(Penetrate)
G01 X89.843808 Y141.735615 Z-0.249992 F400.000000
G01 X89.925032 Y141.984535 Z-0.249992
G01 X89.981335 Y141.984535 Z-0.249992
G01 X90.247837 Y141.984535 Z-0.249992
G01 X90.212052 Y141.750516 Z-0.249992
G01 X89.942106 Y139.984877 Z-0.249992
G01 X89.519648 Y139.776879 Z-0.186267
G01 X89.469158 Y139.715750 Z-0.144216
G01 X89.469158 Y139.715750 Z-0.144216
G01 X89.684042 Y140.531316 Z-0.249992
G00 Z5.000000

G00 Z5.000000
G00 X98.669969 Y139.631225

G01 Z-0.056952 F100.0(Penetrate)
G01 X98.705191 Y139.655355 Z-0.092202 F400.000000
G01 X99.041374 Y140.168096 Z-0.249992
G01 X99.274997 Y140.834169 Z-0.249992
G01 X99.510427 Y141.505349 Z-0.249992
G01 X99.755199 Y142.265741 Z-0.249992
G01 X99.817570 Y142.521462 Z-0.249992
G01 X99.918859 Y142.936724 Z-0.249992
G01 X100.094740 Y143.026132 Z-0.249992
G01 X100.143565 Y142.898935 Z-0.249992
G01 X100.226933 Y142.681623 Z-0.249992
G01 X100.144383 Y142.502610 Z-0.249992
G01 X99.553381 Y141.221208 Z-0.249992
G01 X98.909040 Y139.800360 Z-0.240058
G01 X98.795869 Y139.718657 Z-0.158355
G01 X98.713827 Y139.659419 Z-0.099116
G01 X98.705191 Y139.655355 Z-0.092202
G01 X98.669969 Y139.631225 Z-0.056952
G00 Z5.000000

G00 Z5.000000
G00 X101.222895 Y123.690749

G01 Z-0.249992 F100.0(Penetrate)
G01 X100.692571 Y124.759553 Z-0.249992 F400.000000
G01 X100.274036 Y125.262811 Z-0.249992
G01 X99.371743 Y126.347730 Z-0.249992
G01 X98.040191 Y127.948777 Z-0.249992
G01 X97.341860 Y128.342307 Z-0.249992
G01 X96.966899 Y128.553579 Z-0.249992
G01 X96.574413 Y128.331301 Z-0.249992
G01 X96.064155 Y127.741005 Z-0.249992
G01 X95.271732 Y126.824319 Z-0.249992
G01 X95.156444 Y126.600206 Z-0.249992
G01 X94.344745 Y125.022189 Z-0.249992
G01 X94.589798 Y124.625638 Z-0.249992
G01 X94.802057 Y124.282202 Z-0.249992
G01 X94.930977 Y124.226745 Z-0.249992
G01 X96.307318 Y123.678924 Z-0.209070
G01 X96.776907 Y123.518509 Z-0.209550
G01 X98.574070 Y122.904534 Z-0.211328
G01 X99.608979 Y122.549753 Z-0.213501
G01 X100.607397 Y122.103475 Z-0.249992
G01 X100.819035 Y121.954405 Z-0.249992
G01 X101.242397 Y121.690132 Z-0.222278
G01 X101.705580 Y121.754958 Z-0.249992
G01 X101.724517 Y122.502904 Z-0.249992
G01 X101.549652 Y123.032183 Z-0.249992
G01 X101.222895 Y123.690749 Z-0.249992
G00 Z5.000000

G00 Z5.000000
G00 X75.602169 Y142.741229

G01 Z-0.249992 F100.0(Penetrate)
G01 X77.010458 Y142.830185 Z-0.249992 F400.000000
G01 X78.636397 Y142.932886 Z-0.249992
G01 X78.890143 Y142.948916 Z-0.249992
G01 X80.700570 Y143.063301 Z-0.249992
G01 X81.110216 Y143.945894 Z-0.249992
G01 X81.296595 Y144.347497 Z-0.249992
G01 X81.744792 Y145.130833 Z-0.249992
G01 X82.108605 Y145.689887 Z-0.249992
G01 X82.773238 Y146.711277 Z-0.249992
G01 X83.081594 Y147.639083 Z-0.249992
G01 X82.419106 Y147.623956 Z-0.249992
G01 X82.413320 Y147.373766 Z0.000000
G01 X82.419106 Y147.623956 Z-0.249992
G01 X82.296113 Y147.621105 Z-0.249992
G01 X81.504113 Y147.431536 Z-0.249992
G01 X80.653072 Y147.209399 Z-0.249992
G01 X80.062183 Y147.055137 Z-0.249992
G01 X78.127014 Y146.549987 Z-0.249992
G01 X78.047963 Y146.543552 Z-0.249992
G01 X76.641509 Y146.428886 Z-0.249992
G01 X75.150614 Y146.307361 Z-0.249992
G01 X74.472067 Y146.341171 Z-0.249992
G01 X70.243983 Y146.551822 Z-0.249992
G01 X68.151898 Y146.656046 Z-0.249992
G01 X67.553361 Y146.744918 Z-0.249992
G01 X66.157546 Y146.952154 Z-0.249992
G01 X64.160175 Y147.248713 Z-0.249992
G01 X63.962591 Y147.292994 Z-0.249992
G01 X61.208666 Y147.910101 Z-0.249992
G01 X59.625202 Y148.264910 Z-0.249992
G01 X59.140373 Y148.373538 Z-0.249992
G01 X57.288120 Y148.788602 Z-0.249992
G01 X56.776395 Y148.946167 Z-0.249992
G01 X54.915337 Y149.519304 Z-0.249992
G01 X54.673275 Y149.613425 Z-0.249992
G01 X52.042851 Y150.636142 Z-0.249992
G01 X50.486395 Y151.241311 Z-0.249992
G01 X50.102742 Y151.426533 Z-0.249992
G01 X48.451262 Y152.223924 Z-0.249992
G01 X48.223848 Y152.364781 Z-0.249992
G01 X46.785615 Y153.255531 Z-0.249992
G01 X46.695360 Y153.311411 Z-0.249992
G01 X45.495718 Y154.054417 Z-0.249992
G01 X44.214627 Y154.847828 Z-0.249992
G01 X44.048934 Y154.970595 Z-0.249992
G01 X42.748116 Y155.934215 Z-0.249992
G01 X42.477352 Y156.166230 Z-0.249992
G01 X41.405810 Y157.084411 Z-0.249992
G01 X40.056788 Y158.240394 Z-0.249992
G01 X39.074570 Y159.082065 Z-0.249992
G01 X38.039774 Y159.841807 Z-0.249992
G01 X37.819048 Y159.621109 Z-0.249992
G01 X37.488509 Y159.290571 Z-0.249992
G01 X37.840384 Y158.865262 Z-0.249992
G01 X38.953892 Y157.519288 Z-0.249992
G01 X39.402061 Y157.067196 Z-0.249992
G01 X40.835750 Y155.620948 Z-0.249992
G01 X41.131631 Y155.322470 Z-0.249992
G01 X42.429628 Y154.013072 Z-0.249992
G01 X42.455338 Y153.991792 Z-0.249992
G01 X43.542261 Y153.091926 Z-0.249992
G01 X44.657857 Y152.168326 Z-0.249992
G01 X44.802214 Y152.077253 Z-0.249992
G01 X46.126400 Y151.241903 Z-0.249992
G01 X46.481464 Y151.017932 Z-0.249992
G01 X47.674925 Y150.265048 Z-0.249992
G01 X49.227345 Y149.285736 Z-0.249992
G01 X50.376639 Y148.618055 Z-0.249992
G01 X51.208630 Y148.292681 Z-0.249992
G01 X51.710449 Y148.096424 Z-0.249992
G01 X52.185175 Y147.875387 Z-0.249992
G01 X52.274865 Y147.803618 Z-0.249992
G01 X52.786704 Y147.393888 Z-0.249992
G01 X53.417809 Y147.147988 Z-0.249992
G01 X54.732626 Y146.635642 Z-0.249992
G01 X56.651991 Y145.887781 Z-0.249992
G01 X57.122258 Y145.745484 Z-0.249992
G01 X58.933899 Y145.197437 Z-0.249992
G01 X58.954388 Y145.191256 Z-0.249992
G01 X60.305047 Y144.782655 Z-0.249992
G01 X61.688416 Y144.364148 Z-0.249992
G01 X61.796366 Y144.343207 Z-0.249992
G01 X65.952229 Y143.537039 Z-0.249992
G01 X67.448769 Y143.246745 Z-0.249992
G01 X67.894370 Y143.218805 Z-0.249992
G01 X69.732173 Y143.103546 Z-0.249992
G01 X70.536111 Y143.053141 Z-0.249992
G01 X71.354696 Y142.945840 Z-0.249992
G01 X71.560747 Y142.869612 Z-0.249992
G01 X72.047242 Y142.689667 Z-0.249992
G01 X72.321477 Y142.692743 Z-0.249992
G01 X73.732503 Y142.708576 Z-0.249992
G01 X75.378056 Y142.727061 Z-0.249992
G01 X75.602169 Y142.741229 Z-0.249992
G00 Z5.000000

G00 Z5.000000
G00 X59.360393 Y159.678259

G01 Z-0.249992 F100.0(Penetrate)
G01 X60.095017 Y159.791318 Z-0.249992 F400.000000
G01 X60.191255 Y159.805485 Z-0.249992
G01 X61.683844 Y160.025280 Z-0.249992
G01 X62.891416 Y160.198254 Z-0.249992
G01 X64.107992 Y160.372498 Z-0.249992
G01 X64.190259 Y160.390137 Z-0.249992
G01 X65.658633 Y160.704984 Z-0.249992
G01 X66.331705 Y160.937168 Z-0.249992
G01 X66.984626 Y161.162410 Z-0.249992
G01 X68.253780 Y161.531076 Z-0.249992
G01 X69.154436 Y161.756967 Z-0.249992
G01 X69.463723 Y161.834550 Z-0.249992
G01 X70.832416 Y162.177845 Z-0.249992
G01 X72.523463 Y162.601969 Z-0.249992
G01 X72.672590 Y162.656946 Z-0.249992
G01 X73.996663 Y163.144851 Z-0.249992
G01 X75.467098 Y163.686718 Z-0.249992
G01 X75.569262 Y163.734385 Z-0.249992
G01 X78.126675 Y164.927960 Z-0.249992
G01 X79.498049 Y165.568011 Z-0.249992
G01 X80.620080 Y166.091647 Z-0.249992
G01 X80.816196 Y166.178769 Z-0.249992
G01 X82.301532 Y166.838378 Z-0.249992
G01 X83.235716 Y167.227845 Z-0.249992
G01 X83.572548 Y167.368279 Z-0.249992
G01 X84.874975 Y167.911331 Z-0.249992
G01 X86.516606 Y168.625917 Z-0.222165
G01 X86.899892 Y168.854066 Z-0.215590
G01 X88.114435 Y169.572688 Z-0.198459
G01 X89.348931 Y170.256654 Z-0.221347
G01 X90.586307 Y170.935596 Z-0.249992
G01 X92.227005 Y171.879686 Z-0.249992
G01 X92.970097 Y172.849063 Z-0.249992
G01 X93.515406 Y173.560404 Z-0.249992
G01 X93.437823 Y174.185695 Z-0.249992
G01 X93.199148 Y176.109745 Z-0.249992
G01 X93.144115 Y176.553370 Z-0.249992
G01 X92.916813 Y178.385811 Z-0.249992
G01 X92.903972 Y178.806999 Z-0.249992
G01 X92.848261 Y180.638452 Z-0.249992
G01 X92.880576 Y181.142558 Z-0.249992
G01 X93.061254 Y183.958994 Z-0.249992
G01 X93.184077 Y185.874154 Z-0.249992
G01 X93.195423 Y185.957297 Z-0.249992
G01 X93.386092 Y187.355482 Z-0.249992
G01 X93.588587 Y188.840282 Z-0.249992
G01 X93.670600 Y189.294377 Z-0.249992
G01 X93.921411 Y190.683024 Z-0.249992
G01 X94.255195 Y192.531043 Z-0.249992
G01 X94.275064 Y192.641053 Z-0.249992
G01 X94.546618 Y194.144394 Z-0.249992
G01 X94.549271 Y194.163078 Z-0.249992
G01 X94.756902 Y195.632524 Z-0.249992
G01 X94.693910 Y195.821528 Z-0.249992
G01 X94.531801 Y196.307825 Z-0.249992
G01 X93.748804 Y195.635403 Z-0.249992
G01 X93.186646 Y194.977402 Z-0.249992
G01 X92.957453 Y194.709121 Z-0.249992
G01 X91.822666 Y193.380842 Z-0.249992
G01 X91.546991 Y193.134942 Z-0.249992
G01 X90.493935 Y192.195650 Z-0.249992
G01 X89.157754 Y191.003826 Z-0.249992
G01 X88.850386 Y190.759167 Z-0.249992
G01 X84.434201 Y187.243892 Z-0.249992
G01 X83.021904 Y186.119716 Z-0.249992
G01 X83.011547 Y186.112237 Z-0.249992
G01 X80.723007 Y184.460729 Z-0.249992
G01 X79.570637 Y183.629133 Z-0.249992
G01 X79.309214 Y183.466884 Z-0.249992
G01 X78.110222 Y182.722833 Z-0.249992
G01 X76.642412 Y181.811932 Z-0.249992
G01 X76.311563 Y181.606616 Z-0.249992
G01 X75.112570 Y180.862537 Z-0.249992
G01 X73.585748 Y179.915032 Z-0.249992
G01 X73.000504 Y179.574362 Z-0.249992
G01 X71.198289 Y178.525342 Z-0.249992
G01 X70.960488 Y178.403111 Z-0.249992
G01 X68.450517 Y177.112791 Z-0.249992
G01 X66.959932 Y176.346501 Z-0.249992
G01 X66.689224 Y176.231101 Z-0.249992
G01 X65.119871 Y175.562093 Z-0.249992
G01 X64.804121 Y175.451772 Z-0.249992
G01 X63.148408 Y174.873189 Z-0.249992
G01 X62.574565 Y174.672670 Z-0.249992
G01 X60.680883 Y174.010915 Z-0.249992
G01 X60.578182 Y173.986644 Z-0.249992
G01 X59.204945 Y173.661947 Z-0.249992
G01 X57.791435 Y173.327711 Z-0.249992
G01 X57.411677 Y173.473423 Z-0.249992
G01 X57.202353 Y173.553743 Z-0.249992
G01 X57.302090 Y174.300390 Z-0.249992
G01 X57.453333 Y174.714693 Z-0.249992
G01 X57.937259 Y176.040234 Z-0.249992
G01 X58.578553 Y177.796841 Z-0.249992
G01 X58.863484 Y178.426253 Z-0.249992
G01 X59.732249 Y180.345393 Z-0.249992
G01 X59.932599 Y180.746346 Z-0.249992
G01 X60.563309 Y182.008670 Z-0.249992
G01 X61.396513 Y183.676208 Z-0.249992
G01 X61.593646 Y184.070783 Z-0.249992
G01 X63.485833 Y187.857697 Z-0.249992
G01 X64.310740 Y189.508669 Z-0.249992
G01 X64.397495 Y189.661577 Z-0.249992
G01 X65.181763 Y191.043986 Z-0.249992
G01 X65.343335 Y191.308259 Z-0.249992
G01 X69.759802 Y198.531793 Z-0.249992
G01 X70.659583 Y200.003469 Z-0.249992
G01 X70.733441 Y200.124288 Z-0.249992
G01 X71.545309 Y201.452144 Z-0.249992
G01 X72.053846 Y202.341313 Z-0.249992
G01 X72.521996 Y203.585349 Z-0.249992
G01 X71.883383 Y203.528481 Z-0.249992
G01 X71.367312 Y203.167180 Z-0.249992
G01 X71.223153 Y203.066229 Z-0.249992
G01 X69.933708 Y202.163485 Z-0.249992
G01 X69.824064 Y202.102694 Z-0.249992
G01 X63.653303 Y198.681822 Z-0.249992
G01 X62.305071 Y197.934413 Z-0.249992
G01 X62.296746 Y197.930462 Z-0.249992
G01 X61.021073 Y197.327268 Z-0.249992
G01 X59.729794 Y196.716652 Z-0.249992
G01 X59.162527 Y196.448428 Z-0.249992
G01 X54.059808 Y194.035541 Z-0.249992
G01 X52.222090 Y193.166579 Z-0.249992
G01 X51.981778 Y193.066249 Z-0.249992
G01 X45.470657 Y190.348477 Z-0.249992
G01 X43.930401 Y189.705547 Z-0.249992
G01 X43.850278 Y189.678171 Z-0.249992
G01 X39.844585 Y188.308660 Z-0.249992
G01 X38.421423 Y187.822080 Z-0.249992
G01 X37.462009 Y187.494082 Z-0.249992
G01 X36.917715 Y187.310412 Z-0.249992
G01 X36.436498 Y186.729316 Z-0.249992
G01 X36.759840 Y186.371486 Z-0.249992
G01 X37.112787 Y185.969489 Z-0.249992
G01 X37.683638 Y185.319334 Z-0.249992
G01 X37.988127 Y184.895154 Z-0.249992
G01 X38.334922 Y183.839558 Z-0.249992
G01 X38.420718 Y183.224257 Z-0.197132
G01 X38.443973 Y182.185200 Z-0.155109
G01 X38.419617 Y181.126161 Z-0.160302
G01 X38.438244 Y180.009069 Z-0.210086
G01 X38.511932 Y179.702914 Z-0.249992
G01 X38.603993 Y179.460767 Z-0.249992
G01 X38.593240 Y179.017453 Z-0.249992
G01 X38.471376 Y178.537308 Z-0.249992
G01 X38.345816 Y178.042629 Z-0.249992
G01 X37.900215 Y177.361429 Z-0.206446
G01 X37.753516 Y177.140901 Z-0.150396
G01 X36.485350 Y176.048757 Z-0.249992
G01 X35.626661 Y175.412431 Z-0.249992
G01 X34.769242 Y174.979615 Z-0.249992
G01 X34.054514 Y174.618793 Z-0.249992
G01 X33.358610 Y174.146212 Z-0.249992
G01 X33.358610 Y173.891704 Z-0.249992
G01 X33.358610 Y173.295143 Z-0.249992
G01 X33.648001 Y172.941547 Z-0.249992
G01 X35.435427 Y170.757542 Z-0.249992
G01 X36.569820 Y169.371436 Z-0.249992
G01 X36.731872 Y169.209186 Z-0.249992
G01 X37.728991 Y168.210684 Z-0.249992
G01 X38.879413 Y167.058681 Z-0.249992
G01 X39.016178 Y166.921719 Z-0.249992
G01 X40.154522 Y165.781795 Z-0.249992
G01 X41.120596 Y164.907865 Z-0.249992
G01 X41.705220 Y164.493083 Z-0.249992
G01 X43.438572 Y163.263215 Z-0.249992
G01 X43.509438 Y163.222688 Z-0.249992
G01 X44.798234 Y162.485834 Z-0.249992
G01 X45.208783 Y162.268438 Z-0.249992
G01 X46.862774 Y161.392477 Z-0.249992
G01 X47.001910 Y161.318789 Z-0.249992
G01 X48.393887 Y160.581596 Z-0.249992
G01 X49.410056 Y160.110088 Z-0.249992
G01 X49.825120 Y160.009701 Z-0.249992
G01 X51.610091 Y159.578014 Z-0.249992
G01 X52.804597 Y159.513978 Z-0.249992
G01 X53.045445 Y159.511918 Z-0.249992
G01 X54.691760 Y159.497806 Z-0.249992
G01 X54.891348 Y159.496113 Z-0.249992
G01 X56.507860 Y159.482256 Z-0.249992
G01 X56.850111 Y159.495379 Z-0.249992
G01 X58.610839 Y159.562915 Z-0.249992
G01 X59.360393 Y159.678259 Z-0.249992
G00 Z5.000000

G00 Z5.000000
G00 X61.033604 Y174.620487

G01 Z-0.249992 F100.0(Penetrate)
G01 X61.372863 Y174.712632 Z-0.249992 F400.000000
G01 X63.082932 Y175.177198 Z-0.249992
G01 X63.488514 Y175.320708 Z-0.249992
G01 X65.234369 Y175.938521 Z-0.249992
G01 X66.127659 Y176.425665 Z-0.249992
G01 X66.463503 Y176.608827 Z-0.249992
G01 X67.118061 Y176.938547 Z-0.249992
G01 X67.583700 Y177.159076 Z-0.249992
G01 X68.065876 Y177.387422 Z-0.249992
G01 X68.572606 Y177.708111 Z-0.249992
G01 X68.678609 Y177.879617 Z-0.249992
G01 X68.705138 Y177.922543 Z-0.249992
G01 X68.902439 Y177.983785 Z-0.249992
G01 X69.183420 Y177.983785 Z-0.249992
G01 X69.545934 Y177.983785 Z-0.249992
G01 X70.023257 Y178.155659 Z-0.249992
G01 X70.202694 Y178.371869 Z-0.249992
G01 X70.307596 Y178.498277 Z-0.249992
G01 X70.792848 Y178.759953 Z-0.249992
G01 X71.304687 Y178.948336 Z-0.249992
G01 X71.847710 Y179.148206 Z-0.249992
G01 X72.505232 Y179.487494 Z-0.249992
G01 X72.753841 Y179.701672 Z-0.249992
G01 X72.963984 Y179.882689 Z-0.249992
G01 X73.602032 Y180.266117 Z-0.249992
G01 X74.179374 Y180.554971 Z-0.249992
G01 X74.774976 Y180.852969 Z-0.249992
G01 X75.367981 Y181.216387 Z-0.249992
G01 X75.464840 Y181.373133 Z-0.249992
G01 X75.500795 Y181.431271 Z-0.249992
G01 X76.101279 Y181.819214 Z-0.249992
G01 X76.828735 Y182.226037 Z-0.249992
G01 X77.573350 Y182.642456 Z-0.249992
G01 X78.292001 Y183.137643 Z-0.249992
G01 X78.205669 Y183.364296 Z-0.163689
G01 X78.292001 Y183.314032 Z-0.249992
G01 X78.382453 Y183.365340 Z-0.249992
G01 X78.651016 Y183.432763 Z-0.249992
G01 X78.979607 Y183.515228 Z-0.249992
G01 X79.511455 Y183.784412 Z-0.249992
G01 X79.822548 Y184.023652 Z-0.249992
G01 X80.115269 Y184.248780 Z-0.249992
G01 X81.156556 Y185.053396 Z-0.249992
G01 X82.136432 Y185.811642 Z-0.249992
G01 X83.114332 Y186.568336 Z-0.249992
G01 X83.212743 Y186.641432 Z-0.249992
G01 X84.442837 Y187.555183 Z-0.249992
G01 X85.089746 Y188.005553 Z-0.249992
G01 X85.748086 Y188.463854 Z-0.249992
G01 X86.812572 Y189.339476 Z-0.249992
G01 X87.452031 Y189.948568 Z-0.249992
G01 X88.081274 Y190.547924 Z-0.249992
G01 X88.912616 Y191.277948 Z-0.249992
G01 X89.301518 Y191.573265 Z-0.249992
G01 X90.403539 Y192.410111 Z-0.249992
G01 X90.844737 Y192.861299 Z-0.249992
G01 X91.831330 Y193.870216 Z-0.249992
G01 X93.258951 Y195.330151 Z-0.249992
G01 X94.083802 Y196.463725 Z-0.249992
G01 X94.324509 Y196.794518 Z-0.249992
G01 X95.384338 Y198.250954 Z-0.249992
G01 X95.464687 Y198.332064 Z-0.249992
G01 X95.484809 Y198.301612 Z-0.249992
G01 X95.536823 Y198.222872 Z-0.249992
G01 X95.502223 Y197.653602 Z-0.249992
G01 X95.354874 Y196.947680 Z-0.249992
G01 X95.223951 Y196.320554 Z-0.249992
G01 X94.647315 Y193.557880 Z-0.249992
G01 X94.226183 Y191.540358 Z-0.249992
G01 X94.172533 Y191.135539 Z-0.249992
G01 X93.616357 Y186.938922 Z-0.249992
G01 X93.376779 Y185.131346 Z-0.249992
G01 X93.362414 Y184.589197 Z-0.249992
G01 X93.325047 Y183.178565 Z-0.249992
G01 X93.273683 Y181.238993 Z-0.249992
G01 X93.258556 Y180.668481 Z-0.249992
G01 X93.205752 Y178.675343 Z-0.249992
G01 X93.235075 Y178.254041 Z-0.249992
G01 X93.333034 Y176.846345 Z-0.249992
G01 X93.465961 Y174.936011 Z-0.249992
G01 X93.795568 Y174.606404 Z-0.249992
G01 X94.115721 Y174.286251 Z-0.249992
G01 X94.315619 Y174.524503 Z-0.249992
G01 X95.257875 Y175.647493 Z-0.249992
G01 X95.991088 Y176.803617 Z-0.249992
G01 X96.316462 Y177.316697 Z-0.249992
G01 X96.737001 Y178.380731 Z-0.249992
G01 X96.923861 Y179.158338 Z-0.249992
G01 X97.105640 Y179.914778 Z-0.249992
G01 X97.474250 Y181.251806 Z-0.249992
G01 X97.743519 Y182.131126 Z-0.249992
G01 X98.069513 Y183.195866 Z-0.249992
G01 X98.237012 Y183.989079 Z-0.249992
G01 X98.227106 Y185.245871 Z-0.249992
G01 X98.026136 Y185.754408 Z-0.249992
G01 X97.665710 Y186.182736 Z-0.249992
G01 X97.398474 Y186.500321 Z-0.249992
G01 X97.041632 Y187.224672 Z-0.249992
G01 X96.870379 Y187.805373 Z-0.249992
G01 X96.690689 Y188.414662 Z-0.249992
G01 X96.458871 Y189.042381 Z-0.249992
G01 X96.349425 Y189.185468 Z-0.249992
G01 X96.295831 Y189.255515 Z-0.249992
G01 X96.178427 Y189.767071 Z-0.249992
G01 X96.104795 Y190.346276 Z-0.249992
G01 X95.979799 Y191.329595 Z-0.249992
G01 X96.094692 Y191.949750 Z-0.249992
G01 X96.193808 Y192.057813 Z-0.249992
G01 X97.268708 Y193.229684 Z-0.249992
G01 X98.338641 Y193.837337 Z-0.249992
G01 X98.599753 Y193.955757 Z-0.249992
G01 X100.156236 Y194.661821 Z-0.249992
G01 X100.459117 Y194.799206 Z-0.249992
G01 X102.065526 Y195.527904 Z-0.249992
G01 X103.182900 Y196.271983 Z-0.249992
G01 X103.182900 Y196.807274 Z-0.249992
G01 X103.182900 Y196.863464 Z-0.249992
G01 X103.494107 Y197.605991 Z-0.249992
G01 X103.898475 Y198.464906 Z-0.249992
G01 X103.946650 Y198.567212 Z-0.249992
G01 X104.608772 Y199.973582 Z-0.249992
G01 X104.658217 Y200.218692 Z-0.249992
G01 X104.305552 Y200.787877 Z-0.249992
G01 X104.133368 Y201.065725 Z-0.249992
G01 X103.647974 Y201.938102 Z-0.249992
G01 X103.226221 Y202.728155 Z-0.249992
G01 X103.201245 Y202.774919 Z-0.249992
G01 X102.526762 Y204.038372 Z-0.249992
G01 X102.479631 Y204.233895 Z-0.249992
G01 X102.469358 Y204.483521 Z-0.249992
G01 X102.400044 Y206.167541 Z-0.249992
G01 X102.385679 Y206.516029 Z-0.249992
G01 X102.305669 Y208.460343 Z-0.249992
G01 X101.377214 Y208.697325 Z-0.249992
G01 X100.956901 Y208.804625 Z-0.249992
G01 X100.096067 Y208.958634 Z-0.249992
G01 X99.467671 Y209.039321 Z-0.249992
G01 X98.852426 Y209.118344 Z-0.249992
G01 X98.221349 Y209.236002 Z-0.249992
G01 X98.057773 Y209.298458 Z-0.249992
G01 X97.721675 Y209.426813 Z-0.249992
G01 X97.745946 Y209.397574 Z-0.249992
G01 X96.844471 Y210.483199 Z-0.249992
G01 X95.983045 Y211.520563 Z-0.249992
G01 X95.983045 Y211.757121 Z-0.249992
G01 X95.983045 Y211.975844 Z-0.249992
G01 X95.744680 Y212.246467 Z-0.249992
G01 X95.521893 Y212.331952 Z-0.249992
G01 X95.418995 Y212.371435 Z-0.249992
G01 X95.295523 Y212.523835 Z-0.249992
G01 X95.236426 Y212.710045 Z-0.249992
G01 X95.109567 Y213.109728 Z-0.249992
G01 X95.080018 Y213.152146 Z-0.249992
G01 X94.258780 Y214.331157 Z-0.249992
G01 X93.482217 Y215.246150 Z-0.249992
G01 X93.261039 Y215.506754 Z-0.249992
G01 X92.536631 Y216.440119 Z-0.249992
G01 X92.467346 Y216.531108 Z-0.249992
G01 X91.542532 Y217.745708 Z-0.249992
G01 X91.480358 Y217.827355 Z-0.249992
G01 X90.625507 Y218.950063 Z-0.249992
G01 X89.547729 Y219.957173 Z-0.002596
G01 X89.547729 Y219.957173 Z-0.002596
G01 X89.553853 Y220.166187 Z-0.169108
G01 X88.381643 Y221.216025 Z-0.249992
G01 X87.817961 Y221.670883 Z-0.249992
G01 X87.308945 Y222.099522 Z-0.249992
G01 X87.245557 Y222.169710 Z-0.249992
G01 X86.787680 Y222.676807 Z-0.249992
G01 X86.737642 Y222.726591 Z-0.249992
G01 X85.690372 Y223.768443 Z-0.249992
G01 X85.467614 Y223.982254 Z-0.249992
G01 X84.228432 Y225.171652 Z-0.249992
G01 X83.260438 Y226.100784 Z-0.249992
G01 X82.694668 Y226.760394 Z-0.249992
G01 X82.632071 Y226.892220 Z-0.249992
G01 X81.964022 Y228.298843 Z-0.249992
G01 X81.808292 Y229.158831 Z-0.249992
G01 X81.695827 Y230.504946 Z-0.249992
G01 X81.614998 Y231.472235 Z-0.249992
G01 X81.609043 Y231.518576 Z-0.249992
G01 X81.422664 Y232.965106 Z-0.249992
G01 X81.268655 Y233.819844 Z-0.249992
G01 X81.116340 Y234.665184 Z-0.249992
G01 X80.932811 Y235.860960 Z-0.249992
G01 X80.860477 Y236.478800 Z-0.249992
G01 X80.786676 Y237.109228 Z-0.249992
G01 X80.596176 Y238.143432 Z-0.249992
G01 X80.437849 Y238.773465 Z-0.249992
G01 X80.281752 Y239.394636 Z-0.249992
G01 X80.002634 Y240.549771 Z-0.249992
G01 X79.817497 Y241.340897 Z-0.249992
G01 X79.722360 Y241.747381 Z-0.249992
G01 X79.302977 Y243.539239 Z-0.249992
G01 X79.229035 Y243.759880 Z-0.249992
G01 X78.780725 Y245.097895 Z-0.249992
G01 X78.250825 Y246.679441 Z-0.249992
G01 X77.804293 Y247.321186 Z-0.249992
G01 X77.607245 Y247.604367 Z-0.249992
G01 X77.469154 Y247.896778 Z-0.249992
G01 X77.469154 Y247.982827 Z-0.249992
G01 X77.469154 Y248.221559 Z-0.249992
G01 X76.649947 Y249.123203 Z-0.249992
G01 X75.729000 Y249.993633 Z-0.249992
G01 X75.356382 Y250.345818 Z-0.249992
G01 X73.937199 Y251.687135 Z-0.249992
G01 X73.418305 Y251.988944 Z-0.249992
G01 X71.678292 Y253.000880 Z-0.249992
G01 X71.212202 Y253.137278 Z-0.249992
G01 X69.420966 Y253.661477 Z-0.249992
G01 X68.787039 Y253.846982 Z-0.249992
G01 X68.417920 Y254.013211 Z-0.249992
G01 X68.326650 Y253.954226 Z-0.158750
G01 X68.417920 Y254.208396 Z-0.249992
G01 X68.067626 Y254.391163 Z-0.249992
G01 X67.808715 Y254.392066 Z-0.249992
G01 X67.649909 Y254.392517 Z-0.249992
G01 X67.279916 Y254.512913 Z-0.249992
G01 X66.974297 Y254.672284 Z-0.249992
G01 X66.635433 Y254.849040 Z-0.249992
G01 X66.196605 Y255.007931 Z-0.249992
G01 X66.010028 Y255.007931 Z-0.249992
G01 X65.910686 Y255.007931 Z-0.249992
G01 X65.345790 Y255.209974 Z-0.249992
G01 X64.745983 Y255.474811 Z-0.249992
G01 X64.130880 Y255.746450 Z-0.249992
G01 X63.958103 Y255.810374 Z-0.249992
G01 X62.465853 Y256.362429 Z-0.249992
G01 X62.423661 Y256.376737 Z-0.249992
G01 X61.048364 Y256.843166 Z-0.249992
G01 X60.430834 Y257.052603 Z-0.249992
G01 X58.437865 Y257.728497 Z-0.249992
G01 X58.030280 Y257.728299 Z-0.249992
G01 X53.796946 Y257.726155 Z-0.249992
G01 X52.019539 Y257.725280 Z-0.249992
G01 X51.402601 Y257.724969 Z-0.249992
G01 X47.169268 Y257.722824 Z-0.249992
G01 X45.134050 Y257.721808 Z-0.249992
G01 X44.739645 Y257.698948 Z-0.249992
G01 X34.878377 Y257.127731 Z-0.249992
G01 X33.045711 Y257.021587 Z-0.249992
G01 X31.723048 Y256.539438 Z-0.249992
G01 X31.020145 Y256.283209 Z-0.249992
G01 X31.344447 Y255.445855 Z-0.249992
G01 X32.072975 Y255.144103 Z-0.249992
G01 X32.389318 Y255.013068 Z-0.249992
G01 X32.535792 Y254.914600 Z-0.249992
G01 X32.621277 Y254.960123 Z-0.164507
G01 X32.535792 Y254.554598 Z-0.249992
G01 X32.689603 Y254.462396 Z-0.249992
G01 X33.899997 Y253.737000 Z-0.249992
G01 X35.150891 Y252.987305 Z-0.249992
G01 X35.225934 Y252.949769 Z-0.249992
G01 X36.488088 Y252.318720 Z-0.249992
G01 X37.816734 Y251.654397 Z-0.249992
G01 X38.041637 Y251.541932 Z-0.249992
G01 X38.385863 Y251.364471 Z-0.249992
G01 X38.582318 Y251.259710 Z-0.249992
G01 X39.743211 Y250.640627 Z-0.249992
G01 X40.015358 Y250.535810 Z-0.249992
G01 X43.965792 Y249.014265 Z-0.249992
G01 X45.544712 Y248.406133 Z-0.249992
G01 X45.610724 Y248.383414 Z-0.249992
G01 X48.279474 Y247.465429 Z-0.249992
G01 X49.675542 Y246.985200 Z-0.249992
G01 X50.805165 Y246.596637 Z-0.249992
G01 X51.905691 Y246.199493 Z-0.249992
G01 X52.123707 Y246.102437 Z-0.249992
G01 X52.372063 Y245.991863 Z-0.249992
G01 X53.235973 Y245.793235 Z-0.249992
G01 X54.035255 Y245.658643 Z-0.249992
G01 X54.819607 Y245.526563 Z-0.249992
G01 X55.769623 Y245.305357 Z-0.249992
G01 X56.151696 Y245.167153 Z-0.249992
G01 X56.524257 Y245.032363 Z-0.249992
G01 X58.214909 Y244.420788 Z-0.249992
G01 X58.784462 Y244.164502 Z-0.249992
G01 X58.893174 Y244.077352 Z-0.174413
G01 X58.802073 Y244.111670 Z-0.249992
G01 X58.561873 Y243.971321 Z-0.249992
G01 X57.969997 Y243.779240 Z-0.249992
G01 X57.360736 Y243.581544 Z-0.249992
G01 X56.731832 Y243.320234 Z-0.249992
G01 X56.591708 Y243.190863 Z-0.249992
G01 X56.523326 Y243.127730 Z-0.249992
G01 X56.372478 Y243.076761 Z-0.249992
G01 X56.227472 Y243.076761 Z-0.249992
G01 X55.975504 Y243.076761 Z-0.249992
G01 X55.570911 Y242.847766 Z-0.249992
G01 X55.348378 Y242.601866 Z-0.249992
G01 X55.175122 Y242.410406 Z-0.249992
G01 X54.769541 Y242.148927 Z-0.249992
G01 X54.432991 Y242.016142 Z-0.249992
G01 X54.262867 Y241.949029 Z-0.249992
G01 X52.768980 Y241.359608 Z-0.249992
G01 X52.598800 Y241.272881 Z-0.249992
G01 X51.156475 Y240.537890 Z-0.249992
G01 X50.561579 Y240.037312 Z-0.249992
G01 X50.232677 Y239.760565 Z-0.249992
G01 X49.678252 Y239.432313 Z-0.249992
G01 X49.320987 Y239.301869 Z-0.249992
G01 X48.719261 Y239.082103 Z-0.249992
G01 X48.494386 Y238.961086 Z-0.249992
G01 X47.251790 Y238.292332 Z-0.249992
G01 X45.791854 Y237.506597 Z-0.249992
G01 X44.787933 Y236.864316 Z-0.249992
G01 X44.622523 Y236.758483 Z-0.249992
G01 X43.887418 Y236.329364 Z-0.249992
G01 X43.153048 Y235.910179 Z-0.249992
G01 X42.415263 Y235.489047 Z-0.249992
G01 X41.704881 Y235.062722 Z-0.249992
G01 X41.579123 Y234.963295 Z-0.249992
G01 X41.465952 Y234.873831 Z-0.249992
G01 X41.639434 Y235.011076 Z-0.249992
G01 X40.756191 Y234.312152 Z-0.249992
G01 X40.426697 Y234.051379 Z-0.249992
G01 X39.846053 Y233.680624 Z-0.249992
G01 X39.461073 Y233.485241 Z-0.249992
G01 X39.047872 Y233.275550 Z-0.249992
G01 X38.595441 Y232.949978 Z-0.249992
G01 X38.483173 Y232.758970 Z-0.249992
G01 X38.433615 Y232.674614 Z-0.249992
G01 X38.190763 Y232.546231 Z-0.249992
G01 X37.899284 Y232.482223 Z-0.249992
G01 X37.529262 Y232.400943 Z-0.249992
G01 X36.795456 Y231.916452 Z-0.249992
G01 X36.276958 Y231.426571 Z-0.249992
G01 X35.783379 Y230.960227 Z-0.249992
G01 X35.001482 Y230.357372 Z-0.249992
G01 X34.534772 Y230.082431 Z-0.249992
G01 X34.047289 Y229.795242 Z-0.249992
G01 X33.122955 Y229.162218 Z-0.249992
G01 X32.483214 Y228.677783 Z-0.249992
G01 X31.863623 Y228.208589 Z-0.249992
G01 X31.205283 Y227.854202 Z-0.249992
G01 X31.010070 Y227.854202 Z-0.249992
G01 X30.642165 Y227.854202 Z-0.249992
G01 X30.148558 Y227.513814 Z-0.249992
G01 X29.770606 Y227.040160 Z-0.249992
G01 X29.467669 Y226.660487 Z-0.249992
G01 X29.192954 Y226.414248 Z-0.249992
G01 X29.162700 Y226.414248 Z-0.249992
G01 X28.869019 Y226.414220 Z-0.249992
G01 X27.942060 Y225.764657 Z-0.249992
G01 X27.813113 Y225.659783 Z-0.249992
G01 X26.596255 Y224.670284 Z-0.249992
G01 X26.270825 Y224.405616 Z-0.249992
G01 X26.230326 Y224.368165 Z-0.249992
G01 X25.158220 Y223.376239 Z-0.249992
G01 X25.149895 Y223.368252 Z-0.249992
G01 X24.125202 Y222.384679 Z-0.249992
G01 X24.118514 Y222.378273 Z-0.249992
G01 X23.097039 Y221.397776 Z-0.249992
G01 X22.265047 Y220.654346 Z-0.249992
G01 X22.283956 Y220.604845 Z-0.200491
G01 X21.905186 Y220.654346 Z-0.249992
G01 X21.685927 Y220.310430 Z-0.249992
G01 X20.673850 Y218.723015 Z-0.249992
G01 X20.963354 Y218.433511 Z-0.249992
G01 X21.111775 Y218.285063 Z-0.249992
G01 X21.231409 Y218.282381 Z-0.249992
G01 X22.642181 Y218.250773 Z-0.249992
G01 X24.075080 Y218.218627 Z-0.249992
G01 X24.375929 Y218.218571 Z-0.249992
G01 X25.787040 Y218.218204 Z-0.249992
G01 X27.496206 Y218.217781 Z-0.249992
G01 X27.802247 Y218.217724 Z-0.249992
G01 X30.624470 Y218.217047 Z-0.249992
G01 X32.346787 Y218.216652 Z-0.249992
G01 X32.615265 Y218.227715 Z-0.249992
G01 X34.300922 Y218.297170 Z-0.249992
G01 X34.616955 Y218.341902 Z-0.249992
G01 X36.317880 Y218.582638 Z-0.249992
G01 X36.326431 Y218.583823 Z-0.249992
G01 X37.731249 Y218.782677 Z-0.249992
G01 X37.979943 Y218.816064 Z-0.249992
G01 X39.626681 Y219.037157 Z-0.249992
G01 X40.530413 Y219.148239 Z-0.249992
G01 X41.443205 Y219.260451 Z-0.249992
G01 X42.404962 Y219.439662 Z-0.249992
G01 X42.657720 Y219.550914 Z-0.249992
G01 X42.851832 Y219.636343 Z-0.249992
G01 X43.804586 Y219.766052 Z-0.249992
G01 X44.787199 Y219.831640 Z-0.249992
G01 X45.785814 Y219.898301 Z-0.249992
G01 X47.056294 Y220.059704 Z-0.249992
G01 X47.605640 Y220.190740 Z-0.249992
G01 X48.282155 Y220.352115 Z-0.249992
G01 X50.335999 Y220.841996 Z-0.249992
G01 X50.835306 Y220.981865 Z-0.249992
G01 X52.194122 Y221.362470 Z-0.249992
G01 X54.061812 Y221.885626 Z-0.249992
G01 X54.930266 Y222.244020 Z-0.249992
G01 X55.445971 Y222.456843 Z-0.249992
G01 X56.053200 Y222.622875 Z-0.249992
G01 X56.289646 Y222.622875 Z-0.249992
G01 X56.787288 Y222.622875 Z-0.249992
G01 X56.921429 Y222.660636 Z-0.249992
G01 X58.396040 Y223.075813 Z-0.249992
G01 X59.317382 Y223.467707 Z-0.249992
G01 X60.160747 Y223.826440 Z-0.249992
G01 X61.143275 Y224.120233 Z-0.206248
G01 X61.211489 Y224.117298 Z-0.160076
G01 X61.299909 Y224.113488 Z-0.100245
G01 X61.299909 Y224.113488 Z-0.100245
G01 X61.296155 Y224.113657 Z-0.102785
G01 X60.966266 Y224.028454 Z-0.249992
G01 X60.774524 Y223.942630 Z-0.249992
G01 X59.486518 Y223.366220 Z-0.249992
G01 X58.023506 Y222.711464 Z-0.249992
G01 X57.846271 Y222.711464 Z-0.249992
G01 X57.606241 Y222.711464 Z-0.249992
G01 X56.625039 Y221.907187 Z-0.249992
G01 X55.662971 Y220.994227 Z-0.249992
G01 X54.708552 Y220.088519 Z-0.249992
