%
(Header)
(Generated by gcodetools from Inkscape.)
(Using default header. To add your own header create file "header" in the output dir.)
M3
(Header end.)
G21 (All units in mm)
(Tool diameter should be at least 0.5 mm)
(Depth, as a function of radius w, must be 10)
(Rapid feeds use safe Z=5.0 mm)
(Material surface at Z=0.0 mm)
(Change tool to Cylindrical cutter)

G00 Z5.000000
G00 X36.825344 Y116.835063

G01 Z-0.004911 F100.0(Penetrate)
G01 X36.825344 Y116.835063 Z-0.004911 F400.000000
G01 X36.529405 Y117.117652 Z-0.249992
G01 X35.128482 Y117.286816 Z-0.249992
G01 X33.606035 Y117.470628 Z-0.249992
G01 X33.495008 Y117.501108 Z-0.249992
G01 X32.027171 Y117.904036 Z-0.249992
G01 X31.535540 Y118.140454 Z-0.249992
G01 X29.751810 Y118.998212 Z-0.249992
G01 X29.450905 Y119.142935 Z-0.249992
G01 X27.895296 Y119.890994 Z-0.249992
G01 X27.444446 Y120.198842 Z-0.249992
G01 X25.823305 Y121.305886 Z-0.249992
G01 X25.449812 Y121.621778 Z-0.249992
G01 X23.294933 Y123.444256 Z-0.249992
G01 X21.843351 Y124.671979 Z-0.249992
G01 X21.393912 Y125.132876 Z-0.249992
G01 X19.961493 Y126.601956 Z-0.249992
G01 X19.659882 Y126.996503 Z-0.249992
G01 X18.492131 Y128.524059 Z-0.249992
G01 X18.395781 Y128.650127 Z-0.249992
G01 X17.450562 Y129.886599 Z-0.249992
G01 X17.397561 Y129.973947 Z-0.249992
G01 X16.613096 Y131.266497 Z-0.249992
G01 X16.452088 Y131.619500 Z-0.249992
G01 X15.866505 Y132.903385 Z-0.249992
G01 X15.118814 Y134.542701 Z-0.249992
G01 X15.025878 Y134.812534 Z-0.249992
G01 X14.471932 Y136.420608 Z-0.249992
G01 X14.335929 Y136.912409 Z-0.249992
G01 X13.821692 Y138.771689 Z-0.249992
G01 X13.705643 Y139.191268 Z-0.249992
G01 X13.215338 Y140.964132 Z-0.249992
G01 X13.187313 Y141.093249 Z-0.249992
G01 X12.859569 Y142.603533 Z-0.249992
G01 X12.816812 Y142.845143 Z-0.249992
G01 X12.570940 Y144.234664 Z-0.249992
G01 X12.281465 Y145.870537 Z-0.249992
G01 X12.208256 Y146.284247 Z-0.249992
G01 X11.716484 Y149.063289 Z-0.249992
G01 X11.398984 Y150.857545 Z-0.249992
G01 X11.348692 Y151.348696 Z-0.249992
G01 X11.155483 Y153.235211 Z-0.249992
G01 X11.178484 Y153.835610 Z-0.249992
G01 X11.256208 Y155.863631 Z-0.249992
G01 X11.270883 Y156.246578 Z-0.249992
G01 X11.339209 Y158.029686 Z-0.249992
G01 X11.367488 Y158.268954 Z-0.249992
G01 X11.561092 Y159.906492 Z-0.249992
G01 X11.573764 Y159.962796 Z-0.249992
G01 X12.194117 Y162.715987 Z-0.249992
G01 X12.517628 Y164.151792 Z-0.249992
G01 X12.673499 Y164.652624 Z-0.249992
G01 X13.250192 Y166.505582 Z-0.249992
G01 X13.329384 Y166.728029 Z-0.249992
G01 X13.802671 Y168.057409 Z-0.249992
G01 X14.356814 Y169.613977 Z-0.249992
G01 X14.814917 Y170.900685 Z-0.249992
G01 X14.924786 Y171.215081 Z-0.249992
G01 X15.500209 Y172.861706 Z-0.249992
G01 X15.879600 Y173.971460 Z-0.249992
G01 X15.930626 Y174.120728 Z-0.249992
G01 X16.435070 Y175.596270 Z-0.249992
G01 X16.559389 Y175.886056 Z-0.249992
G01 X16.627997 Y175.911428 Z-0.249992
G01 X16.790077 Y175.971400 Z-0.249992
G01 X17.019750 Y176.185973 Z-0.249992
G01 X17.127531 Y176.364507 Z-0.249992
G01 X17.304653 Y176.657849 Z-0.249992
G01 X18.202741 Y178.145301 Z-0.249992
G01 X18.268696 Y178.228049 Z-0.249992
G01 X19.148242 Y179.331509 Z-0.249992
G01 X20.088747 Y180.511481 Z-0.249992
G01 X20.070854 Y180.496269 Z-0.249992
G01 X21.146516 Y181.410782 Z-0.249992
G01 X21.473188 Y181.688517 Z-0.249992
G01 X22.852860 Y182.861517 Z-0.249992
G01 X23.246249 Y183.063249 Z-0.249992
G01 X24.898209 Y183.910424 Z-0.249992
G01 X25.169453 Y183.985213 Z-0.249992
G01 X27.890131 Y184.735416 Z-0.249992
G01 X29.524001 Y185.185927 Z-0.249992
G01 X30.087175 Y185.232804 Z-0.249992
G01 X32.057961 Y185.396860 Z-0.249992
G01 X32.682858 Y185.339259 Z-0.249992
G01 X34.734726 Y185.150085 Z-0.249992
G01 X35.282886 Y185.099539 Z-0.249992
G01 X37.209448 Y184.921908 Z-0.249992
G01 X37.314124 Y184.888832 Z-0.249992
G01 X38.753486 Y184.434087 Z-0.249992
G01 X38.874898 Y184.349251 Z-0.249992
G01 X40.184381 Y183.434315 Z-0.249992
G01 X40.474166 Y183.231849 Z-0.249992
G01 X40.686595 Y183.035676 Z-0.249992
G01 X40.697207 Y183.002233 Z-0.249992
G01 X40.744084 Y182.854518 Z-0.249992
G01 X41.140832 Y182.411401 Z-0.249992
G01 X41.550449 Y182.017249 Z-0.249992
G01 X42.235120 Y181.358458 Z-0.249992
G01 X42.969293 Y180.369466 Z-0.249992
G01 X43.100724 Y179.946754 Z-0.249992
G01 X43.154290 Y179.774401 Z-0.249992
G01 X43.354837 Y179.553872 Z-0.249992
G01 X43.536870 Y179.629988 Z-0.173849
G01 X43.505572 Y179.553872 Z-0.249992
G01 X43.696326 Y179.365179 Z-0.249992
G01 X43.950947 Y179.045139 Z-0.249992
G01 X44.694320 Y178.110673 Z-0.249992
G01 X45.175960 Y177.207561 Z-0.249992
G01 X45.268558 Y176.863166 Z-0.249992
G01 X45.728185 Y175.153971 Z-0.249992
G01 X45.786548 Y174.040718 Z-0.249992
G01 X45.655766 Y172.687293 Z-0.249992
G01 X45.538221 Y171.470717 Z-0.249992
G01 X45.778731 Y171.360594 Z0.000000
G01 X45.538221 Y171.470717 Z-0.249992
G01 X44.906749 Y170.809555 Z-0.249992
G01 X44.523886 Y170.408687 Z-0.249992
G01 X44.030110 Y169.858325 Z-0.249992
G01 X43.811106 Y169.588098 Z-0.249992
G01 X43.781642 Y169.551719 Z-0.249992
G01 X42.848615 Y168.400309 Z-0.249992
G01 X42.542771 Y167.826100 Z-0.249992
G01 X41.576498 Y166.011891 Z-0.249992
G01 X41.466149 Y165.707034 Z-0.249992
G01 X40.881554 Y164.092046 Z-0.249992
G01 X40.807612 Y163.887773 Z-0.249992
G01 X40.248840 Y162.344130 Z-0.249992
G01 X40.219207 Y162.223537 Z-0.249992
G01 X39.882516 Y160.853179 Z-0.249992
G01 X39.504592 Y159.314898 Z-0.249992
G01 X39.621686 Y158.848300 Z-0.249992
G01 X39.640284 Y158.774245 Z-0.249992
G01 X39.567584 Y158.285549 Z-0.249992
G01 X39.439596 Y157.747888 Z-0.249992
G01 X39.138437 Y156.482601 Z-0.249992
G01 X39.021258 Y155.526601 Z-0.249992
G01 X38.999301 Y155.135385 Z-0.249992
G01 X38.898774 Y153.343528 Z-0.249992
G01 X38.879329 Y152.996789 Z-0.249992
G01 X38.780410 Y151.234001 Z-0.249992
G01 X38.780438 Y151.210577 Z-0.249992
G01 X38.782018 Y149.799466 Z-0.249992
G01 X38.786647 Y145.649275 Z-0.249992
G01 X39.399041 Y148.976844 Z-0.249992
G01 X39.444902 Y149.225934 Z-0.249992
G01 X39.451619 Y149.294090 Z-0.249992
G01 X39.596173 Y150.757666 Z-0.249992
G01 X39.605486 Y150.865645 Z-0.249992
G01 X39.735817 Y152.377932 Z-0.249992
G01 X39.744989 Y152.484330 Z-0.249992
G01 X39.875150 Y153.994671 Z-0.249992
G01 X39.891970 Y154.159234 Z-0.249992
G01 X40.051680 Y155.723338 Z-0.249992
G01 X40.128021 Y156.221291 Z-0.249992
G01 X40.205491 Y156.726695 Z-0.249992
G01 X40.336357 Y157.640812 Z-0.249992
G01 X40.418794 Y158.252162 Z-0.249992
G01 X40.601618 Y159.608325 Z-0.249992
G01 X40.640678 Y159.764224 Z-0.249992
G01 X40.983493 Y161.133058 Z-0.249992
G01 X41.365340 Y162.657792 Z-0.249992
G01 X41.843142 Y163.939674 Z-0.249992
G01 X42.277312 Y165.104461 Z-0.249992
G01 X42.443033 Y165.434323 Z-0.249992
G01 X43.241892 Y167.024222 Z-0.249992
G01 X43.879742 Y167.993457 Z-0.249992
G01 X44.476557 Y168.900350 Z-0.249992
G01 X44.668779 Y169.121105 Z-0.249992
G01 X45.615606 Y170.377191 Z-0.139192
G01 X45.615493 Y170.381763 Z-0.136116
G01 X45.615606 Y170.377191 Z-0.139192
G01 X45.479321 Y169.407983 Z-0.249992
G01 X45.403375 Y168.191831 Z-0.249992
G01 X45.326893 Y166.966959 Z-0.249992
G01 X45.310637 Y166.397914 Z-0.249992
G01 X45.254051 Y164.419790 Z-0.249992
G01 X45.252443 Y164.180579 Z-0.249992
G01 X45.241436 Y162.532994 Z-0.249992
G01 X45.239432 Y162.231298 Z-0.249992
G01 X45.230006 Y160.820215 Z-0.249992
G01 X45.218181 Y159.049609 Z-0.249992
G01 X45.659689 Y158.130609 Z-0.249992
G01 X46.024885 Y157.370444 Z-0.249992
G01 X46.244567 Y157.077525 Z-0.249992
G01 X47.012550 Y156.323286 Z-0.249992
G01 X47.605216 Y155.741231 Z-0.249992
G01 X48.130630 Y155.326308 Z-0.249992
G01 X48.520999 Y155.137727 Z-0.249992
G01 X49.167288 Y154.825505 Z-0.249992
G01 X50.055075 Y154.629473 Z-0.249992
G01 X50.625389 Y154.677677 Z-0.249992
G01 X50.975458 Y154.707254 Z-0.249992
G01 X51.185996 Y154.848534 Z-0.249992
G01 X51.264171 Y155.143287 Z-0.249992
G01 X51.291095 Y155.244859 Z-0.249992
G01 X51.647119 Y155.814806 Z-0.249992
G01 X52.070537 Y156.414049 Z-0.249992
G01 X52.321601 Y156.769310 Z-0.249992
G01 X53.135925 Y157.921736 Z-0.249992
G01 X54.211644 Y159.444043 Z-0.249992
G01 X54.517262 Y160.041959 Z-0.249992
G01 X55.159515 Y161.298441 Z-0.249992
G01 X56.107076 Y163.152217 Z-0.249992
G01 X56.281433 Y163.652005 Z-0.249992
G01 X56.746225 Y164.984348 Z-0.249992
G01 X57.379757 Y166.800335 Z-0.249992
G01 X57.516325 Y167.191833 Z-0.249992
G01 X57.981145 Y168.524176 Z-0.249992
G01 X58.584310 Y170.253154 Z-0.249992
G01 X58.721188 Y170.708181 Z-0.249992
G01 X60.347296 Y176.113329 Z-0.249992
G01 X60.889925 Y177.917068 Z-0.249992
G01 X60.918965 Y178.021857 Z-0.249992
G01 X62.426766 Y183.461183 Z-0.249992
G01 X62.832037 Y184.923178 Z-0.249992
G01 X62.954324 Y185.364264 Z-0.249992
G01 X63.453180 Y187.163910 Z-0.249992
G01 X63.526247 Y187.416866 Z-0.249992
G01 X63.872901 Y189.024178 Z-0.137132
G01 X63.872703 Y189.047320 Z-0.120650
G01 X63.872901 Y189.024206 Z-0.137132
G01 X63.935639 Y188.806584 Z-0.249992
G01 X64.138443 Y188.596470 Z-0.249992
G01 X65.118432 Y187.581147 Z-0.249992
G01 X66.304245 Y186.352549 Z-0.249992
G01 X66.784474 Y185.854992 Z-0.249992
G01 X68.157711 Y184.432253 Z-0.249992
G01 X68.424581 Y184.515734 Z0.000000
G01 X68.157711 Y184.432253 Z-0.249992
G01 X68.156385 Y184.424097 Z-0.249992
G01 X67.908424 Y182.899504 Z-0.249992
G01 X67.908029 Y182.897105 Z-0.249992
G01 X67.228466 Y178.718664 Z-0.249992
G01 X67.003225 Y177.333658 Z-0.249992
G01 X66.993770 Y177.295671 Z-0.249992
G01 X66.311667 Y174.557128 Z-0.249992
G01 X65.961938 Y173.153016 Z-0.249992
G01 X65.955136 Y173.134587 Z-0.249992
G01 X64.979212 Y170.486467 Z-0.249992
G01 X64.479763 Y169.131152 Z-0.249992
G01 X64.424871 Y168.982251 Z-0.249992
G01 X63.879392 Y167.502109 Z-0.249992
G01 X63.182924 Y165.186024 Z-0.249992
G01 X64.548456 Y167.644772 Z-0.249992
G01 X64.602897 Y168.073891 Z-0.089267
G01 X64.602897 Y168.073891 Z-0.089267
G01 X64.566941 Y167.710445 Z-0.234273
G01 X64.689765 Y167.065821 Z-0.170236
G01 X64.719991 Y165.747251 Z-0.249992
G01 X64.772512 Y165.119109 Z-0.249992
G01 X64.941648 Y163.097071 Z-0.249992
G01 X64.937753 Y162.846627 Z-0.249992
G01 X64.894037 Y160.024744 Z-0.249992
G01 X64.868327 Y158.365644 Z-0.249992
G01 X64.814535 Y157.963223 Z-0.249992
G01 X64.571767 Y156.147575 Z-0.249992
G01 X64.561212 Y156.068609 Z-0.249992
G01 X64.364221 Y154.595240 Z-0.249992
G01 X64.265246 Y154.008471 Z-0.249992
G01 X63.931631 Y152.030968 Z-0.249992
G01 X63.658214 Y150.731787 Z-0.249992
G01 X63.485184 Y149.909673 Z-0.249992
G01 X63.389115 Y148.713728 Z-0.249992
G01 X64.063288 Y149.865252 Z-0.249992
G01 X64.334080 Y150.327814 Z-0.249992
G01 X64.351832 Y150.406751 Z-0.249992
G01 X64.970689 Y153.160281 Z-0.249992
G01 X65.291547 Y154.587817 Z-0.249992
G01 X65.326317 Y154.832955 Z-0.249992
G01 X65.557937 Y156.465300 Z-0.249992
G01 X65.650336 Y157.116444 Z-0.249992
G01 X65.943565 Y159.183016 Z-0.249992
G01 X65.939868 Y159.714920 Z-0.249992
G01 X65.920282 Y162.537086 Z-0.249992
G01 X65.906735 Y164.483460 Z-0.249992
G01 X65.821701 Y164.945655 Z-0.249992
G01 X65.485236 Y166.774088 Z-0.249992
G01 X65.458256 Y166.920759 Z-0.249992
G01 X64.895589 Y169.978467 Z-0.249992
G01 X64.799888 Y167.802478 Z-0.045240
G01 X65.035797 Y168.361165 Z-0.095222
G01 X65.622791 Y169.653714 Z-0.249992
G01 X66.093905 Y171.089661 Z-0.249992
G01 X66.143096 Y171.239606 Z-0.249992
G01 X66.630522 Y172.725223 Z-0.249992
G01 X66.909047 Y173.554336 Z-0.218609
G01 X66.836996 Y173.658448 Z-0.114498
G01 X66.909047 Y173.554336 Z-0.218609
G01 X66.908850 Y173.531899 Z-0.226342
G01 X67.362917 Y172.195605 Z-0.249992
G01 X67.893975 Y170.714757 Z-0.249992
G01 X67.970400 Y170.404708 Z-0.249992
G01 X68.387638 Y168.712108 Z-0.249992
G01 X68.494346 Y168.279236 Z-0.249992
G01 X68.934980 Y166.491753 Z-0.249992
G01 X68.945732 Y166.397914 Z-0.249992
G01 X69.118029 Y164.894940 Z-0.249992
G01 X69.148565 Y164.209619 Z-0.249992
G01 X69.211360 Y162.799891 Z-0.249992
G01 X69.305114 Y160.696150 Z-0.249992
G01 X69.318209 Y160.402357 Z-0.249992
G01 X69.381004 Y158.992657 Z-0.249992
G01 X69.456357 Y157.301807 Z-0.249992
G01 X69.433751 Y156.904184 Z-0.249992
G01 X69.331191 Y155.098216 Z-0.249992
G01 X69.296224 Y154.884320 Z-0.249992
G01 X69.068640 Y153.491666 Z-0.249992
G01 X68.804000 Y151.872162 Z-0.249992
G01 X68.592108 Y150.575577 Z-0.249992
G01 X68.425907 Y149.405060 Z-0.249992
G01 X68.449783 Y149.281136 Z-0.249992
G01 X68.613416 Y148.549729 Z-0.227725
G01 X69.204897 Y149.665664 Z-0.249992
G01 X69.518530 Y150.398990 Z-0.249992
G01 X69.623658 Y150.644778 Z-0.249992
G01 X70.277003 Y152.172418 Z-0.249992
G01 X70.531200 Y152.597106 Z-0.249992
G01 X71.255890 Y153.807896 Z-0.249992
G01 X72.238165 Y155.449103 Z-0.249992
G01 X72.341374 Y155.593206 Z-0.249992
G01 X73.162922 Y156.740495 Z-0.249992
G01 X74.093663 Y158.040270 Z-0.249992
G01 X74.117172 Y158.073092 Z-0.249992
G01 X76.581847 Y161.514962 Z-0.249992
G01 X77.425833 Y162.693522 Z-0.249992
G01 X77.509850 Y162.807173 Z-0.249992
G01 X79.187633 Y165.076521 Z-0.249992
G01 X80.108440 Y166.321996 Z-0.249992
G01 X80.291489 Y166.548310 Z-0.249992
G01 X81.365288 Y167.876053 Z-0.249992
G01 X82.028821 Y168.696473 Z-0.249992
G01 X82.150374 Y168.878168 Z-0.249992
G01 X83.056448 Y170.232270 Z-0.249992
G01 X83.584063 Y171.191882 Z-0.249992
G01 X83.609801 Y171.238703 Z-0.249992
G01 X84.328396 Y172.545645 Z-0.249992
G01 X84.458020 Y172.983090 Z-0.249992
G01 X85.004036 Y174.836020 Z-0.247029
G01 X84.766941 Y175.374641 Z-0.249992
G01 X84.616686 Y175.711360 Z-0.249992
G01 X84.003925 Y175.968041 Z-0.249992
G01 X82.173629 Y176.734726 Z-0.249992
G01 X82.126582 Y176.750982 Z-0.249992
G01 X80.793026 Y177.212359 Z-0.249992
G01 X79.419958 Y177.687396 Z-0.249992
G01 X79.261321 Y177.742288 Z-0.249992
G01 X77.778526 Y178.255283 Z-0.249992
G01 X76.604284 Y178.769323 Z-0.249992
G01 X76.109605 Y179.085666 Z-0.249992
G01 X74.425641 Y180.162428 Z-0.249992
G01 X73.437045 Y181.031701 Z-0.249992
G01 X73.303074 Y181.168550 Z-0.249992
G01 X72.175399 Y182.320412 Z-0.249992
G01 X71.963788 Y182.536566 Z-0.249992
G01 X70.976632 Y183.544918 Z-0.249992
G01 X69.773151 Y184.774222 Z-0.249992
G01 X69.664609 Y184.873761 Z-0.249992
G01 X64.464523 Y189.642414 Z-0.249992
G01 X63.316499 Y190.695187 Z-0.249992
G01 X62.912329 Y191.031737 Z-0.249992
G01 X61.827947 Y191.934679 Z-0.249992
G01 X60.343966 Y193.170389 Z-0.249992
G01 X59.914000 Y193.528388 Z-0.249992
G01 X58.410997 Y194.779931 Z-0.249992
G01 X58.314336 Y194.881982 Z-0.249992
G01 X57.343915 Y195.906449 Z-0.249992
G01 X56.285723 Y197.023569 Z-0.249992
G01 X55.602773 Y198.169335 Z-0.249992
G01 X54.705956 Y199.486522 Z-0.154065
G01 X54.668844 Y198.564926 Z-0.249992
G01 X55.191886 Y197.478314 Z-0.249992
G01 X55.655126 Y196.515908 Z-0.249992
G01 X56.505489 Y195.404912 Z-0.249992
G01 X56.624982 Y195.283556 Z-0.249992
G01 X57.615046 Y194.278055 Z-0.249992
G01 X58.721950 Y193.153907 Z-0.249992
G01 X58.876862 Y193.023690 Z-0.249992
G01 X60.111076 Y191.986185 Z-0.249992
G01 X60.315828 Y191.841884 Z-0.249992
G01 X61.665217 Y190.890654 Z-0.249992
G01 X62.207733 Y190.508243 Z-0.249992
G01 X62.615911 Y190.188203 Z-0.249992
G01 X62.624095 Y190.194271 Z-0.240171
G01 X62.639731 Y190.126086 Z-0.249992
G01 X62.524838 Y189.618058 Z-0.249992
G01 X62.167093 Y187.690904 Z-0.173821
G01 X62.173330 Y187.538475 Z-0.062851
G01 X62.167093 Y187.690904 Z-0.173821
G01 X61.796479 Y188.113870 Z-0.249992
G01 X61.170764 Y188.735210 Z-0.249992
G01 X60.984102 Y188.920574 Z-0.249992
G01 X59.785645 Y190.110677 Z-0.249992
G01 X59.573809 Y190.276398 Z-0.249992
G01 X58.250441 Y191.311561 Z-0.249992
G01 X57.685291 Y191.654320 Z-0.249992
G01 X56.478735 Y192.386065 Z-0.249992
G01 X54.708778 Y193.459526 Z-0.249992
G01 X54.331673 Y193.638285 Z-0.249992
G01 X52.682253 Y194.420210 Z-0.249992
G01 X52.150772 Y194.623043 Z-0.249992
G01 X50.310063 Y195.325494 Z-0.249992
G01 X49.804377 Y195.518478 Z-0.249992
G01 X49.460545 Y195.612289 Z-0.179522
G01 X49.381072 Y195.563577 Z-0.100330
G01 X49.530932 Y195.606306 Z-0.249992
G01 X49.611873 Y196.123365 Z-0.249992
G01 X49.713981 Y196.716342 Z-0.249992
G01 X49.742344 Y196.881160 Z-0.249992
G01 X49.981782 Y198.271810 Z-0.249992
G01 X50.247437 Y199.814662 Z-0.249992
G01 X50.317005 Y200.063469 Z-0.249992
G01 X50.697017 Y201.422454 Z-0.249992
G01 X51.144904 Y203.024206 Z-0.249992
G01 X51.283757 Y203.331067 Z-0.249992
G01 X52.012145 Y204.940947 Z-0.249992
G01 X52.332834 Y205.649720 Z-0.249992
G01 X52.452299 Y205.839175 Z-0.249992
G01 X53.230272 Y207.239957 Z-0.160923
G01 X53.316350 Y207.382846 Z-0.059888
G01 X53.230272 Y207.239957 Z-0.160923
G01 X53.169566 Y206.977208 Z-0.249738
G01 X53.209811 Y205.911678 Z-0.249992
G01 X53.242662 Y205.047824 Z-0.249992
G01 X53.339746 Y203.938268 Z-0.249992
G01 X53.425909 Y203.449854 Z-0.249992
G01 X53.599391 Y202.466422 Z-0.249992
G01 X53.696278 Y202.076561 Z-0.249992
G01 X54.139705 Y200.292521 Z-0.249992
G01 X54.281945 Y200.041117 Z-0.249992
G01 X54.765533 Y199.383963 Z-0.152710
G01 X54.858441 Y200.936213 Z-0.249992
G01 X54.844273 Y201.160383 Z-0.249992
G01 X54.741657 Y202.785333 Z-0.249992
G01 X54.698223 Y203.473278 Z-0.249992
G01 X54.609323 Y204.881595 Z-0.249992
G01 X54.477187 Y206.974443 Z-0.249992
G01 X54.450432 Y207.724476 Z-0.249992
G01 X54.499990 Y207.784195 Z-0.249992
G01 X54.518081 Y207.806010 Z-0.249992
G01 X54.801206 Y207.826810 Z-0.249992
G01 X56.118901 Y207.826923 Z-0.249992
G01 X56.256315 Y207.826923 Z-0.249992
G01 X59.078538 Y207.827121 Z-0.249992
G01 X60.637505 Y207.827205 Z-0.249992
G01 X61.037894 Y207.860790 Z-0.249992
G01 X65.256410 Y208.214725 Z-0.249992
G01 X67.061222 Y208.366165 Z-0.249992
G01 X67.647171 Y208.456787 Z-0.249992
G01 X70.436232 Y208.888107 Z-0.249992
G01 X72.408119 Y209.193076 Z-0.249992
G01 X72.437752 Y209.197648 Z-0.249992
G01 X73.892862 Y209.422692 Z-0.249992
G01 X74.434164 Y209.872131 Z-0.048683
G01 X72.782769 Y209.876929 Z-0.249992
G01 X72.276942 Y209.816279 Z-0.249992
G01 X70.376119 Y209.588413 Z-0.249992
G01 X69.800866 Y209.547971 Z-0.249992
G01 X61.355055 Y208.954006 Z-0.249992
G01 X59.369932 Y208.814419 Z-0.249992
G01 X58.861057 Y208.794437 Z-0.249992
G01 X57.451047 Y208.739122 Z-0.249992
G01 X55.528267 Y208.663712 Z-0.249992
G01 X55.478370 Y208.661736 Z-0.249992
G01 X54.117748 Y208.608368 Z-0.249992
G01 X54.028256 Y208.354650 Z0.000000
G01 X54.117748 Y208.608368 Z-0.249992
G01 X53.869054 Y208.825425 Z-0.249992
G01 X53.032011 Y209.555957 Z-0.249992
G01 X51.957055 Y210.115858 Z-0.249992
G01 X51.786706 Y210.165134 Z-0.249992
G01 X50.431221 Y210.557367 Z-0.249992
G01 X48.915574 Y210.995912 Z-0.249992
G01 X48.608460 Y211.047869 Z-0.249992
G01 X46.917469 Y211.333986 Z-0.249992
G01 X46.253513 Y211.409932 Z-0.249992
G01 X44.194279 Y211.645559 Z-0.249992
G01 X43.667172 Y211.705842 Z-0.249992
G01 X41.731664 Y211.927301 Z-0.249992
G01 X41.047134 Y211.969832 Z-0.249992
G01 X40.425681 Y211.988798 Z-0.249992
G01 X39.015219 Y212.031808 Z-0.249992
G01 X36.987254 Y212.093643 Z-0.249992
G01 X36.803895 Y212.099231 Z-0.249992
G01 X35.393433 Y212.142242 Z-0.249992
G01 X33.805961 Y212.190671 Z-0.249992
G01 X32.967112 Y212.258969 Z-0.249992
G01 X32.723836 Y212.299581 Z-0.249992
G01 X31.078311 Y212.574211 Z-0.249992
G01 X29.932376 Y212.765473 Z-0.249992
G01 X29.076932 Y213.011091 Z-0.249992
G01 X28.946151 Y213.077865 Z-0.249992
G01 X27.560214 Y213.785311 Z-0.249992
G01 X26.924960 Y214.298787 Z-0.249992
G01 X26.223327 Y215.048820 Z-0.249992
G01 X26.167052 Y215.108990 Z-0.249992
G01 X25.165981 Y216.179120 Z-0.249992
G01 X25.171880 Y216.169045 Z-0.249992
G01 X24.468780 Y217.374727 Z-0.249992
G01 X24.443493 Y217.464473 Z-0.249992
G01 X24.061138 Y218.822809 Z-0.249992
G01 X23.652085 Y220.275830 Z-0.249992
G01 X23.644465 Y220.399980 Z-0.249992
G01 X23.549723 Y221.941477 Z-0.249992
G01 X23.575405 Y222.258582 Z-0.249992
G01 X23.716432 Y223.999922 Z-0.249992
G01 X23.730966 Y224.179669 Z-0.249992
G01 X23.858785 Y225.757827 Z-0.249992
G01 X24.033621 Y226.949257 Z-0.249992
G01 X24.293576 Y227.939433 Z-0.249992
G01 X24.377283 Y228.258288 Z-0.249992
G01 X24.557256 Y228.953712 Z-0.249992
G01 X24.693513 Y229.484685 Z-0.249992
G01 X24.952170 Y230.492782 Z-0.249992
G01 X25.061672 Y230.781750 Z-0.249992
G01 X25.671441 Y232.390953 Z-0.249992
G01 X26.167278 Y233.373509 Z-0.249992
G01 X26.414420 Y233.863306 Z-0.249992
G01 X27.289591 Y235.597590 Z-0.249992
G01 X27.395227 Y235.750639 Z-0.249992
G01 X28.302373 Y237.064863 Z-0.249992
G01 X28.651680 Y237.445383 Z-0.249992
G01 X29.966920 Y238.878254 Z-0.249992
G01 X30.530264 Y239.492003 Z-0.249992
G01 X31.139187 Y240.171396 Z-0.249992
G01 X31.319047 Y240.387127 Z-0.249992
G01 X32.010520 Y241.216521 Z-0.249992
G01 X32.462019 Y241.658284 Z-0.249992
G01 X33.924268 Y243.089066 Z-0.249992
G01 X33.924918 Y243.089602 Z-0.249992
G01 X35.014662 Y244.002450 Z-0.249992
G01 X35.652033 Y244.536358 Z-0.249992
G01 X36.423346 Y245.189392 Z-0.249992
G01 X36.728316 Y245.453383 Z-0.249992
G01 X37.117980 Y246.110904 Z-0.007874
G01 X37.117980 Y246.110904 Z-0.007874
G01 X37.232280 Y245.746555 Z-0.249992
G01 X37.644917 Y245.716273 Z-0.049163
G01 X37.644917 Y245.716273 Z-0.049163
G01 X37.228498 Y245.322036 Z-0.249992
G01 X36.370825 Y243.568533 Z-0.249992
G01 X36.370006 Y243.566868 Z-0.249992
G01 X35.745702 Y242.290518 Z-0.249992
G01 X35.244673 Y241.077696 Z-0.249992
G01 X35.238098 Y241.058477 Z-0.249992
G01 X34.777398 Y239.711402 Z-0.249992
G01 X34.405542 Y238.624141 Z-0.249992
G01 X34.397866 Y238.602128 Z-0.249992
G01 X33.925905 Y237.248195 Z-0.249992
G01 X33.711445 Y236.653355 Z-0.249992
G01 X33.273097 Y235.437711 Z-0.249992
G01 X32.963330 Y234.039441 Z-0.249992
G01 X32.868644 Y232.847447 Z-0.249992
G01 X32.786574 Y231.814486 Z-0.249992
G01 X32.704560 Y231.178216 Z-0.249992
G01 X32.448246 Y229.189875 Z-0.249992
G01 X32.448500 Y229.107974 Z-0.206728
G01 X32.417682 Y229.140430 Z-0.249992
G01 X32.191932 Y229.016422 Z-0.249992
G01 X31.872626 Y228.870823 Z-0.249992
G01 X31.872287 Y228.870654 Z-0.249992
G01 X30.566953 Y228.275447 Z-0.249992
G01 X30.229951 Y228.038663 Z-0.249992
G01 X28.734089 Y226.987639 Z-0.249992
G01 X27.941581 Y226.106146 Z-0.249992
G01 X27.126438 Y225.199507 Z-0.249992
G01 X26.716708 Y223.958322 Z-0.249992
G01 X26.716397 Y223.868378 Z-0.249992
G01 X26.711289 Y222.407088 Z-0.249992
G01 X26.708044 Y221.474654 Z-0.249992
G01 X26.904188 Y220.594967 Z-0.249992
G01 X27.003079 Y220.396932 Z-0.249992
G01 X27.730394 Y218.940806 Z-0.249992
G01 X28.375046 Y218.125466 Z-0.249992
G01 X29.253293 Y217.291499 Z-0.249992
G01 X29.381930 Y217.169353 Z-0.249992
G01 X30.555495 Y216.054971 Z-0.249992
G01 X30.635900 Y216.008771 Z-0.249992
G01 X31.943774 Y215.257100 Z-0.249992
G01 X32.037810 Y215.233337 Z-0.249992
G01 X33.466617 Y214.872629 Z-0.249992
G01 X34.121485 Y214.707303 Z-0.249992
G01 X34.930165 Y214.588544 Z-0.249992
G01 X34.579871 Y215.232773 Z-0.249992
G01 X34.125324 Y215.448701 Z-0.249992
G01 X33.410483 Y215.733040 Z-0.249992
G01 X33.225119 Y215.806756 Z-0.249992
G01 X31.752851 Y216.392311 Z-0.249992
G01 X31.286337 Y216.702812 Z-0.249992
G01 X31.172150 Y216.819906 Z-0.249992
G01 X30.054522 Y217.966434 Z-0.249992
G01 X29.195607 Y218.847531 Z-0.249992
G01 X28.662517 Y219.471835 Z-0.249992
G01 X28.019587 Y220.560620 Z-0.249992
G01 X27.915277 Y220.987736 Z-0.249992
G01 X27.915277 Y221.535021 Z-0.249992
G01 X27.915277 Y222.107932 Z-0.249992
G01 X28.129682 Y222.962868 Z-0.249992
G01 X28.364039 Y223.342090 Z-0.249992
G01 X28.652865 Y223.809422 Z-0.249992
G01 X28.626901 Y224.111766 Z-0.249992
G01 X28.203172 Y224.304834 Z-0.249992
G01 X28.050716 Y224.374289 Z-0.249992
G01 X28.042673 Y224.440386 Z-0.249992
G01 X28.384077 Y225.133439 Z-0.249992
G01 X28.776027 Y225.605258 Z-0.249992
G01 X29.394404 Y226.177802 Z-0.249992
G01 X30.141729 Y226.869670 Z-0.249992
G01 X30.957690 Y227.364152 Z-0.249992
G01 X31.353845 Y227.502525 Z-0.249992
G01 X33.088383 Y228.108372 Z-0.249992
G01 X34.371421 Y228.340923 Z-0.249992
G01 X34.493539 Y228.351365 Z-0.249992
G01 X36.033343 Y228.482937 Z-0.249992
G01 X36.456733 Y228.519118 Z-0.249992
G01 X38.271845 Y228.674199 Z-0.249992
G01 X39.595665 Y228.635676 Z-0.249992
G01 X40.774987 Y228.348740 Z-0.249992
G01 X40.794630 Y228.343942 Z-0.249992
G01 X42.165101 Y228.010497 Z-0.249992
G01 X43.347414 Y227.503090 Z-0.249992
G01 X43.748452 Y227.229616 Z-0.249992
G01 X45.312133 Y226.163296 Z-0.249992
G01 X46.055591 Y225.363027 Z-0.249992
G01 X46.571662 Y224.410047 Z-0.249992
G01 X46.841664 Y223.911445 Z-0.249992
G01 X46.855239 Y223.849187 Z-0.249992
G01 X46.856989 Y223.081119 Z-0.249992
G01 X46.858880 Y222.281132 Z-0.249992
G01 X46.853235 Y222.257877 Z-0.249992
G01 X46.455500 Y221.424700 Z-0.249992
G01 X46.204209 Y220.872137 Z-0.238704
G01 X46.139241 Y220.586472 Z-0.138599
G01 X46.146438 Y220.569256 Z-0.123246
G01 X46.139241 Y220.586472 Z-0.138599
G01 X46.045261 Y220.982148 Z-0.249992
G01 X45.843726 Y221.452979 Z-0.249992
G01 X45.297937 Y222.728228 Z-0.249992
G01 X44.820812 Y223.495026 Z-0.249992
G01 X44.085849 Y224.274100 Z-0.249992
G01 X43.339540 Y225.065254 Z-0.249992
G01 X42.462591 Y225.682897 Z-0.249992
G01 X41.730789 Y225.925975 Z-0.249992
G01 X41.078009 Y226.142778 Z-0.249992
G01 X40.199846 Y225.833858 Z-0.249992
G01 X41.307879 Y225.370901 Z-0.249992
G01 X42.086728 Y225.045470 Z-0.249992
G01 X42.870120 Y224.424214 Z-0.249992
G01 X43.124826 Y224.130732 Z-0.249992
G01 X44.306349 Y222.769207 Z-0.249992
G01 X44.919985 Y221.774853 Z-0.249992
G01 X45.337335 Y220.709944 Z-0.249992
G01 X45.542793 Y220.185688 Z-0.249992
G01 X45.548070 Y220.137202 Z-0.249992
G01 X45.467496 Y219.494808 Z-0.249992
G01 X45.314870 Y218.277471 Z-0.249992
G01 X44.894839 Y217.613825 Z-0.249992
G01 X44.879176 Y217.602057 Z-0.249992
G01 X43.699063 Y216.714835 Z-0.249992
G01 X43.609712 Y216.647666 Z-0.249992
G01 X42.423504 Y215.755843 Z-0.249992
G01 X42.451782 Y215.765749 Z-0.249992
G01 X41.138235 Y215.306602 Z-0.249992
G01 X40.772729 Y215.266555 Z-0.249992
G01 X38.976187 Y215.069705 Z-0.249992
G01 X38.384847 Y215.004907 Z-0.249992
G01 X37.788032 Y214.902545 Z-0.249992
G01 X37.684202 Y214.810258 Z-0.249992
G01 X36.989794 Y214.193010 Z-0.249992
G01 X37.802086 Y214.226989 Z-0.249992
G01 X39.339661 Y214.291279 Z-0.249992
G01 X40.459576 Y214.484376 Z-0.249992
G01 X41.782266 Y214.712411 Z-0.249992
G01 X42.787796 Y215.031266 Z-0.249992
G01 X43.019275 Y215.176103 Z-0.249992
G01 X44.448561 Y216.070380 Z-0.249992
G01 X45.130946 Y216.809802 Z-0.249992
G01 X45.822362 Y217.843780 Z-0.249992
G01 X45.853915 Y217.890939 Z-0.249992
G01 X46.678822 Y219.124589 Z-0.249992
G01 X46.843075 Y219.455918 Z-0.249992
G01 X47.639394 Y221.062242 Z-0.249992
G01 X47.853092 Y221.949577 Z-0.249992
G01 X47.996433 Y222.544671 Z-0.249992
G01 X48.003404 Y222.776432 Z-0.249992
G01 X47.892688 Y223.312513 Z-0.249992
G01 X47.800994 Y223.756420 Z-0.249992
G01 X47.525912 Y223.852404 Z0.000000
G01 X47.800994 Y223.756420 Z-0.249992
G01 X47.981391 Y223.907014 Z-0.249992
G01 X48.505251 Y224.344346 Z-0.249992
G01 X48.820381 Y224.552287 Z-0.249992
G01 X54.709230 Y228.438430 Z-0.249992
G01 X56.211781 Y229.429962 Z-0.249992
G01 X56.668811 Y229.718647 Z-0.249992
G01 X57.861878 Y230.472208 Z-0.249992
G01 X59.514063 Y231.515753 Z-0.249992
G01 X59.627545 Y231.587410 Z-0.249992
G01 X60.931750 Y232.411188 Z-0.249992
G01 X61.255543 Y232.606006 Z-0.249992
G01 X64.882776 Y234.788741 Z-0.249992
G01 X66.417049 Y235.712003 Z-0.249992
G01 X66.470643 Y235.743640 Z-0.249992
G01 X68.900831 Y237.178599 Z-0.249992
G01 X70.170407 Y237.928237 Z-0.249992
G01 X70.793554 Y238.296199 Z-0.249992
G01 X71.553183 Y238.778940 Z-0.249992
G01 X71.315609 Y239.016515 Z-0.249992
G01 X71.141590 Y239.190533 Z-0.249992
G01 X70.919397 Y239.077277 Z-0.249992
G01 X69.598484 Y238.404036 Z-0.249992
G01 X69.313355 Y238.247826 Z-0.249992
G01 X67.793899 Y237.415383 Z-0.249992
G01 X67.511056 Y237.260443 Z-0.249992
G01 X63.798366 Y235.226411 Z-0.249992
G01 X62.271402 Y234.389848 Z-0.249992
G01 X61.669846 Y234.011755 Z-0.249992
G01 X56.890949 Y231.008092 Z-0.249992
G01 X55.095338 Y229.879514 Z-0.249992
G01 X54.527817 Y229.478786 Z-0.249992
G01 X51.069720 Y227.036943 Z-0.249992
G01 X49.354994 Y225.826153 Z-0.249992
G01 X48.389117 Y225.144135 Z-0.249992
G01 X47.574934 Y224.555363 Z-0.223068
G01 X47.553683 Y224.460847 Z-0.142438
G01 X47.574934 Y224.555363 Z-0.223068
G01 X47.422336 Y224.754386 Z-0.249992
G01 X46.981223 Y225.341239 Z-0.249992
G01 X46.215159 Y226.360456 Z-0.249992
G01 X45.318878 Y227.222561 Z-0.249992
G01 X44.905817 Y227.502582 Z-0.249992
G01 X43.324639 Y228.574433 Z-0.249992
G01 X42.194311 Y229.086130 Z-0.249992
G01 X40.968761 Y229.416923 Z-0.249992
G01 X40.098275 Y229.651873 Z-0.249992
G01 X39.812750 Y229.678402 Z-0.249992
G01 X39.674095 Y229.678769 Z-0.249992
G01 X38.135617 Y229.682805 Z-0.249992
G01 X37.919237 Y229.683369 Z-0.249992
G01 X36.277804 Y229.687659 Z-0.249992
G01 X35.671083 Y229.621224 Z-0.249992
G01 X35.378503 Y229.557978 Z-0.249992
G01 X33.719375 Y229.199386 Z-0.249992
G01 X33.295393 Y229.107749 Z-0.249992
G01 X33.026661 Y229.042442 Z-0.216154
G01 X32.989464 Y228.935508 Z-0.114215
G01 X33.026661 Y229.042442 Z-0.216154
G01 X33.087734 Y229.276094 Z-0.249992
G01 X33.287744 Y231.007894 Z-0.249992
G01 X33.556533 Y232.294038 Z-0.249992
G01 X33.623053 Y232.612271 Z-0.249992
G01 X33.976197 Y234.302105 Z-0.249992
G01 X34.047035 Y234.543913 Z-0.249992
G01 X34.515439 Y236.142984 Z-0.249992
G01 X34.551536 Y236.245600 Z-0.249992
G01 X35.019770 Y237.576758 Z-0.249992
G01 X35.526303 Y239.016853 Z-0.249992
G01 X35.543744 Y239.066440 Z-0.249992
G01 X36.011951 Y240.397597 Z-0.249992
G01 X36.495680 Y241.772866 Z-0.249992
G01 X36.644496 Y242.140094 Z-0.249992
G01 X37.321123 Y243.810087 Z-0.249992
G01 X37.456195 Y244.072413 Z-0.249992
G01 X38.102202 Y245.326975 Z-0.249992
G01 X38.879188 Y246.835933 Z-0.249992
G01 X39.589908 Y247.796307 Z-0.249992
G01 X40.355661 Y248.433988 Z-0.249992
G01 X41.389949 Y249.295245 Z-0.249992
G01 X41.875795 Y249.665662 Z-0.249992
G01 X42.997939 Y250.521219 Z-0.249992
G01 X44.604714 Y251.746261 Z-0.249992
G01 X45.468851 Y252.332606 Z-0.249992
G01 X46.523035 Y253.047898 Z-0.249992
G01 X46.617636 Y253.095509 Z-0.249992
G01 X47.934147 Y253.758195 Z-0.249992
G01 X48.246284 Y253.758195 Z-0.249992
G01 X48.574085 Y253.758195 Z-0.249992
G01 X48.740597 Y253.640085 Z-0.249992
G01 X48.740597 Y253.480149 Z-0.249992
G01 X48.740597 Y253.407082 Z-0.249992
G01 X48.448355 Y252.736720 Z-0.249992
G01 X48.065436 Y251.982509 Z-0.249992
G01 X47.849282 Y251.556749 Z-0.249992
G01 X46.987206 Y249.858702 Z-0.249992
G01 X46.974817 Y249.824158 Z-0.249992
G01 X46.498538 Y248.495851 Z-0.249992
G01 X46.007952 Y247.127609 Z-0.249992
G01 X45.975778 Y246.943996 Z-0.249992
G01 X45.703942 Y245.391491 Z-0.249992
G01 X45.495859 Y244.203307 Z-0.249992
G01 X45.669482 Y243.618769 Z-0.249992
G01 X46.384746 Y243.400809 Z-0.249992
G01 X46.956388 Y243.226593 Z-0.249992
G01 X46.997705 Y243.791376 Z-0.249992
G01 X46.683140 Y244.191285 Z-0.249992
G01 X46.300503 Y244.677695 Z-0.249992
G01 X46.380852 Y245.531615 Z-0.249992
G01 X46.509940 Y245.934967 Z-0.249992
G01 X47.077404 Y247.708112 Z-0.249992
G01 X47.143670 Y247.915207 Z-0.249992
G01 X47.634455 Y249.448803 Z-0.249992
G01 X47.693693 Y249.569424 Z-0.249992
G01 X48.376558 Y250.959990 Z-0.249992
G01 X48.610323 Y251.321488 Z-0.249992
G01 X49.618336 Y252.880286 Z-0.249992
G01 X49.982657 Y253.443658 Z-0.249992
G01 X51.108554 Y255.184743 Z-0.249992
G01 X51.352817 Y255.510851 Z-0.249992
G01 X52.440050 Y256.962405 Z-0.249992
G01 X52.885707 Y257.439614 Z-0.249992
G01 X53.848903 Y258.470883 Z-0.249992
G01 X55.256289 Y259.977780 Z-0.249992
G01 X55.447636 Y260.137038 Z-0.249992
G01 X56.725877 Y261.200903 Z-0.249992
G01 X57.024073 Y261.401591 Z-0.249992
G01 X58.503510 Y262.397271 Z-0.249992
G01 X59.589924 Y263.128452 Z-0.249992
G01 X60.143955 Y263.469800 Z-0.249992
G01 X61.345347 Y264.209956 Z-0.249992
G01 X63.100853 Y265.291516 Z-0.249992
G01 X64.262875 Y265.945566 Z-0.249992
G01 X64.372716 Y266.007401 Z-0.249992
G01 X65.705341 Y266.757492 Z-0.249992
G01 X65.740845 Y266.774594 Z-0.249992
G01 X67.012002 Y267.387299 Z-0.249992
G01 X68.317477 Y268.016541 Z-0.249992
G01 X68.316998 Y268.016344 Z-0.249992
G01 X69.638080 Y268.536620 Z-0.249992
G01 X69.975448 Y268.669491 Z-0.249992
G01 X71.607878 Y269.312393 Z-0.249992
G01 X71.896817 Y269.377445 Z-0.249992
G01 X73.561138 Y269.752010 Z-0.249992
G01 X73.626896 Y269.755764 Z-0.249992
G01 X76.444518 Y269.916461 Z-0.249992
G01 X77.922318 Y270.000761 Z-0.249992
G01 X78.405285 Y269.961137 Z-0.249992
G01 X80.299871 Y269.805746 Z-0.249992
G01 X80.307942 Y269.804278 Z-0.249992
G01 X81.696617 Y269.553495 Z-0.249992
G01 X83.105273 Y269.299128 Z-0.249992
G01 X83.119807 Y269.296504 Z-0.249992
G01 X84.508651 Y269.045693 Z-0.249992
G01 X85.661754 Y268.694665 Z-0.249992
G01 X85.972453 Y268.542942 Z-0.249992
G01 X87.545306 Y267.774818 Z-0.249992
G01 X88.237992 Y267.232048 Z-0.249992
G01 X88.741928 Y266.565947 Z-0.249992
G01 X88.799840 Y266.489380 Z-0.249992
G01 X89.651191 Y265.364019 Z-0.249992
G01 X90.557012 Y264.166692 Z-0.249992
G01 X90.755104 Y263.878373 Z-0.249992
G01 X91.747595 Y262.433734 Z-0.249992
G01 X91.909901 Y262.129950 Z-0.249992
G01 X92.574957 Y260.885378 Z-0.249992
G01 X93.399244 Y259.342780 Z-0.249992
G01 X93.398764 Y259.344135 Z-0.249992
G01 X93.853988 Y258.004228 Z-0.249992
G01 X93.879247 Y257.884368 Z-0.249992
G01 X94.198441 Y256.369033 Z-0.249992
G01 X94.317171 Y255.805407 Z-0.249992
G01 X94.466100 Y255.245139 Z-0.249992
G01 X94.544755 Y255.146107 Z-0.249992
G01 X94.546138 Y255.144357 Z-0.249992
G01 X94.567503 Y254.950951 Z-0.249992
G01 X94.559883 Y254.681457 Z-0.249992
G01 X94.551388 Y254.380636 Z-0.249992
G01 X94.625697 Y253.497224 Z-0.249992
G01 X94.723317 Y252.722524 Z-0.249992
G01 X94.726817 Y252.694584 Z-0.249992
G01 X94.905125 Y251.279324 Z-0.249992
G01 X94.908991 Y251.108580 Z-0.249992
G01 X94.940967 Y249.697835 Z-0.249992
G01 X94.976245 Y248.140618 Z-0.249992
G01 X94.847072 Y247.677943 Z-0.249992
G01 X94.787213 Y247.463454 Z-0.249992
G01 X94.487493 Y247.320903 Z-0.249992
G01 X94.441829 Y247.307837 Z-0.249992
G01 X93.019824 Y246.900223 Z-0.249992
G01 X92.462125 Y246.740372 Z-0.249992
G01 X91.942751 Y246.589666 Z-0.249992
G01 X91.866410 Y246.565479 Z-0.249992
G01 X91.481036 Y246.443277 Z-0.249992
G01 X91.713643 Y246.028467 Z-0.249992
G01 X91.979497 Y245.770262 Z-0.249992
G01 X92.165199 Y245.589922 Z-0.249992
G01 X92.356884 Y245.273974 Z-0.249992
G01 X92.477619 Y244.942786 Z-0.249992
G01 X92.815890 Y244.015065 Z-0.249992
G01 X93.694956 Y243.102189 Z-0.220359
G01 X93.724618 Y244.199046 Z-0.249992
G01 X93.724618 Y244.521259 Z-0.249992
G01 X94.413607 Y244.869916 Z-0.249992
G01 X94.507869 Y244.891337 Z-0.249992
G01 X95.883900 Y245.204096 Z-0.249992
G01 X97.371070 Y245.542141 Z-0.249992
G01 X97.730367 Y245.583995 Z-0.249992
G01 X99.495667 Y245.789594 Z-0.249992
G01 X100.075126 Y245.814712 Z-0.249992
G01 X102.073457 Y245.901326 Z-0.249992
G01 X102.158631 Y245.904995 Z-0.249992
G01 X103.633299 Y245.968918 Z-0.249992
G01 X104.473023 Y245.868673 Z-0.249992
G01 X104.834493 Y245.601436 Z-0.249992
G01 X105.255540 Y245.290145 Z-0.249992
G01 X106.004163 Y245.854872 Z-0.249992
G01 X106.030918 Y245.875051 Z-0.249992
G01 X107.145893 Y246.716186 Z-0.249992
G01 X107.985589 Y246.945887 Z-0.249992
G01 X108.155007 Y246.939593 Z-0.249992
G01 X109.772902 Y246.879310 Z-0.249992
G01 X110.182350 Y246.864042 Z-0.249992
G01 X111.970510 Y246.797438 Z-0.249992
G01 X112.333956 Y246.689911 Z-0.249992
G01 X114.060422 Y246.179202 Z-0.249992
G01 X114.250442 Y246.085871 Z-0.249992
G01 X115.517056 Y245.463825 Z-0.249992
G01 X116.992683 Y244.739106 Z-0.249992
G01 X117.257097 Y244.609256 Z-0.249992
G01 X118.776073 Y243.863286 Z-0.249992
G01 X118.781690 Y243.859730 Z-0.249992
G01 X119.967164 Y243.110628 Z-0.249992
G01 X120.243008 Y242.830409 Z-0.249992
G01 X121.495821 Y241.557728 Z-0.249992
G01 X121.815070 Y240.810037 Z-0.249992
G01 X121.864967 Y239.859117 Z-0.249992
G01 X121.886811 Y239.443263 Z-0.249992
G01 X121.856642 Y238.882007 Z-0.249992
G01 X121.799040 Y238.604414 Z-0.249992
G01 X121.657308 Y237.921718 Z-0.249992
G01 X121.175386 Y236.938286 Z-0.249992
G01 X120.700293 Y236.364359 Z-0.249992
G01 X120.191785 Y235.750046 Z-0.249992
G01 X119.917380 Y235.501578 Z-0.249992
G01 X118.591359 Y234.300666 Z-0.249992
G01 X118.594209 Y234.302867 Z-0.249992
G01 X117.469018 Y233.440368 Z-0.249992
G01 X116.971798 Y233.059227 Z-0.249992
G01 X116.380261 Y232.550239 Z-0.249992
G01 X116.595596 Y232.334903 Z-0.249992
G01 X116.741928 Y232.188571 Z-0.249992
G01 X117.181461 Y232.384208 Z-0.249992
G01 X117.499187 Y232.562657 Z-0.249992
G01 X117.829980 Y232.748444 Z-0.249992
G01 X119.414629 Y233.638460 Z-0.249992
G01 X119.844990 Y234.020984 Z-0.249992
G01 X121.333599 Y235.344098 Z-0.249992
G01 X121.475218 Y235.554636 Z-0.249992
G01 X122.386768 Y236.909754 Z-0.249992
G01 X122.694475 Y237.367208 Z-0.249992
G01 X122.908512 Y237.643616 Z-0.249992
G01 X122.833102 Y237.797343 Z-0.096266
G01 X122.945709 Y237.643616 Z-0.249992
G01 X123.704407 Y237.044797 Z-0.249992
G01 X124.355579 Y236.376184 Z-0.249992
G01 X125.066920 Y235.645765 Z-0.249992
G01 X125.869447 Y235.144567 Z-0.249992
G01 X125.257533 Y236.351490 Z-0.249992
G01 X125.149752 Y236.564032 Z-0.249992
G01 X125.020917 Y236.703788 Z-0.169362
G01 X125.007201 Y236.717419 Z-0.151694
G01 X125.020917 Y236.703788 Z-0.169390
G01 X125.305623 Y236.728285 Z-0.249992
G01 X125.681656 Y236.823732 Z-0.249992
G01 X126.857902 Y237.122324 Z-0.249992
G01 X128.178420 Y237.623720 Z-0.249992
G01 X128.677671 Y237.967212 Z-0.249992
G01 X129.238729 Y238.353236 Z-0.249992
G01 X129.958875 Y239.206309 Z-0.249992
G01 X130.204888 Y239.527365 Z-0.249992
G01 X131.063211 Y240.647392 Z-0.249992
G01 X132.163934 Y242.083790 Z-0.249992
G01 X132.270811 Y242.223265 Z-0.249992
G01 X133.987456 Y244.463375 Z-0.249992
G01 X134.949777 Y245.719151 Z-0.249992
G01 X135.292000 Y246.132466 Z-0.249992
G01 X135.368539 Y246.207339 Z-0.249992
G01 X136.463109 Y247.278203 Z-0.249992
G01 X136.546958 Y247.360245 Z-0.249992
G01 X137.626655 Y248.416547 Z-0.249992
G01 X138.198691 Y248.834320 Z-0.249992
G01 X138.429831 Y248.963917 Z-0.249992
G01 X139.904922 Y249.790856 Z-0.249992
G01 X139.924509 Y249.801834 Z-0.249992
G01 X141.160473 Y250.494746 Z-0.249992
G01 X142.160245 Y250.891692 Z-0.249992
G01 X142.181468 Y250.897054 Z-0.249992
G01 X143.586540 Y251.252485 Z-0.249992
G01 X144.133684 Y251.390887 Z-0.249992
G01 X146.031515 Y251.870975 Z-0.249992
G01 X146.499778 Y251.920279 Z-0.249992
G01 X148.376133 Y252.117806 Z-0.249992
G01 X148.679070 Y252.117806 Z-0.249992
G01 X150.090181 Y252.117806 Z-0.249992
G01 X151.817353 Y252.117806 Z-0.249992
G01 X152.195249 Y252.117806 Z-0.249992
G01 X153.994359 Y252.117806 Z-0.249992
G01 X154.417015 Y252.151983 Z-0.249992
G01 X154.267606 Y252.622674 Z-0.249992
G01 X154.171736 Y252.924793 Z-0.249992
G01 X154.297240 Y253.150994 Z-0.249992
G01 X155.154970 Y254.696697 Z-0.249992
G01 X155.457568 Y255.153445 Z-0.249992
G01 X156.236897 Y256.329832 Z-0.249992
G01 X157.324271 Y257.971152 Z-0.249992
G01 X157.419323 Y258.114634 Z-0.249992
G01 X158.198652 Y259.291020 Z-0.249992
G01 X159.069251 Y260.605188 Z-0.249992
G01 X159.101509 Y260.648481 Z-0.249992
G01 X159.976031 Y261.823146 Z-0.249992
G01 X159.995448 Y261.846176 Z-0.249992
G01 X160.904457 Y262.925506 Z-0.249992
G01 X161.837710 Y264.033596 Z-0.249992
G01 X162.262482 Y264.537983 Z-0.249992
G01 X163.586528 Y266.110102 Z-0.249992
G01 X164.170417 Y266.653775 Z-0.249992
G01 X165.130425 Y267.112640 Z-0.249992
G01 X165.204282 Y267.147918 Z-0.249992
G01 X166.521724 Y267.777668 Z-0.249992
G01 X167.097711 Y267.885844 Z-0.249992
G01 X167.467253 Y267.885872 Z-0.249992
G01 X169.271161 Y267.886126 Z-0.249992
G01 X169.577231 Y267.886183 Z-0.249992
G01 X171.281571 Y267.886409 Z-0.249992
G01 X171.298899 Y267.884631 Z-0.249992
G01 X172.724291 Y267.737706 Z-0.249992
G01 X172.838337 Y267.718091 Z-0.249992
G01 X174.229015 Y267.478767 Z-0.249992
G01 X175.742093 Y267.218417 Z-0.249992
G01 X176.315484 Y267.119752 Z-0.249992
G01 X178.272328 Y266.783004 Z-0.249992
G01 X178.576818 Y266.712110 Z-0.249992
G01 X180.250875 Y266.322277 Z-0.249992
G01 X180.618103 Y266.197930 Z-0.249992
G01 X181.954651 Y265.745302 Z-0.249992
G01 X183.655068 Y265.169455 Z-0.249992
G01 X183.722914 Y265.136464 Z-0.249992
G01 X185.060986 Y264.486026 Z-0.249992
G01 X185.158438 Y264.423796 Z-0.249992
G01 X186.457337 Y263.594147 Z-0.249992
G01 X186.530602 Y263.547355 Z-0.249992
G01 X187.719830 Y262.787782 Z-0.249992
G01 X188.964035 Y261.993101 Z-0.249992
G01 X189.106980 Y261.862093 Z-0.249992
G01 X191.187748 Y259.955428 Z-0.249992
G01 X192.352113 Y258.888459 Z-0.249992
G01 X192.949888 Y257.663275 Z-0.249992
G01 X193.330238 Y256.883693 Z-0.249992
G01 X193.256042 Y255.812575 Z-0.249992
G01 X192.728033 Y254.696132 Z-0.249992
G01 X192.406215 Y254.015610 Z-0.249992
G01 X192.078385 Y253.543678 Z-0.249992
G01 X191.976531 Y253.417694 Z-0.249992
G01 X190.981867 Y252.187233 Z-0.249992
G01 X190.877360 Y252.057947 Z-0.249992
G01 X189.882809 Y250.827627 Z-0.249992
G01 X189.556702 Y250.391792 Z-0.249992
G01 X188.386241 Y248.827406 Z-0.249992
G01 X188.011704 Y248.300723 Z-0.249992
G01 X186.821206 Y246.626496 Z-0.249992
G01 X186.647273 Y246.381894 Z-0.249992
G01 X185.829506 Y245.231895 Z-0.249992
G01 X184.840345 Y243.840821 Z-0.249992
G01 X184.483023 Y243.373800 Z-0.249992
G01 X183.275056 Y241.795049 Z-0.249992
G01 X182.611523 Y241.121638 Z-0.249992
G01 X181.783257 Y240.281039 Z-0.249992
G01 X180.885875 Y239.923436 Z-0.249992
G01 X179.728708 Y240.006635 Z-0.249992
G01 X179.428169 Y240.122205 Z-0.249992
G01 X178.897620 Y240.579913 Z-0.249992
G01 X178.720807 Y240.877939 Z-0.249992
G01 X178.626997 Y241.315412 Z-0.249992
G01 X178.456196 Y242.111759 Z-0.249992
G01 X178.747393 Y243.193911 Z-0.249992
G01 X179.382336 Y244.078057 Z-0.249992
G01 X179.675001 Y244.485586 Z-0.249992
G01 X179.753571 Y244.753923 Z-0.249992
G01 X179.497427 Y244.963388 Z-0.249992
G01 X179.468583 Y244.986982 Z-0.249992
G01 X179.336052 Y245.334595 Z-0.249992
G01 X179.222965 Y245.772237 Z-0.249992
G01 X178.990499 Y246.671679 Z-0.249992
G01 X178.939389 Y246.792386 Z-0.249992
G01 X178.338989 Y248.210778 Z-0.249992
G01 X177.814366 Y249.101274 Z-0.249992
G01 X177.332105 Y249.919888 Z-0.249992
G01 X177.124897 Y250.123088 Z-0.249992
G01 X175.903919 Y251.320387 Z-0.249992
G01 X175.204431 Y251.653635 Z-0.249992
G01 X175.112653 Y251.697352 Z-0.249992
G01 X173.710516 Y252.365315 Z-0.249992
G01 X173.330702 Y252.412898 Z-0.249992
G01 X170.530352 Y252.763615 Z-0.249992
G01 X168.779558 Y252.982902 Z-0.249992
G01 X168.682304 Y252.986515 Z-0.249992
G01 X164.451906 Y253.143882 Z-0.249992
G01 X162.955423 Y253.199564 Z-0.249992
G01 X162.852411 Y253.203374 Z-0.249992
G01 X161.340519 Y253.259621 Z-0.249992
G01 X161.339108 Y253.259706 Z-0.249992
G01 X159.944619 Y253.325605 Z-0.249992
G01 X159.848918 Y253.343921 Z-0.249992
G01 X159.776669 Y253.357721 Z-0.249992
G01 X159.725812 Y253.489773 Z-0.249992
G01 X159.779717 Y253.577008 Z-0.249992
G01 X159.965391 Y253.877434 Z-0.249992
G01 X159.970019 Y253.878986 Z-0.249992
G01 X165.320727 Y255.676036 Z-0.249992
G01 X166.738978 Y256.152371 Z-0.249992
G01 X167.046205 Y256.228345 Z-0.249992
G01 X168.416084 Y256.567040 Z-0.249992
G01 X170.103067 Y256.984164 Z-0.249992
G01 X171.190131 Y257.252953 Z-0.249992
G01 X171.430810 Y257.295512 Z-0.249992
G01 X172.820359 Y257.541243 Z-0.249992
G01 X174.453297 Y257.829984 Z-0.249992
G01 X174.577334 Y257.846155 Z-0.249992
G01 X176.106301 Y258.045433 Z-0.249992
G01 X176.578515 Y258.106985 Z-0.249992
G01 X178.439996 Y258.349584 Z-0.249992
G01 X178.676499 Y258.361183 Z-0.249992
G01 X180.316181 Y258.441447 Z-0.249992
G01 X180.393962 Y258.435097 Z-0.249992
G01 X181.800416 Y258.320402 Z-0.249992
G01 X183.273729 Y258.200232 Z-0.249992
G01 X184.303897 Y257.883352 Z-0.249992
G01 X185.004062 Y257.353424 Z-0.249992
G01 X186.001887 Y256.598169 Z-0.249992
G01 X185.841754 Y257.585213 Z-0.249992
G01 X185.734397 Y258.247165 Z-0.249992
G01 X185.152652 Y259.259863 Z-0.249992
G01 X184.596985 Y259.759453 Z-0.249992
G01 X183.572744 Y260.680344 Z-0.249992
G01 X183.489488 Y260.712997 Z-0.249992
G01 X182.120993 Y261.250038 Z-0.249992
G01 X181.561910 Y261.396003 Z-0.249992
G01 X180.196547 Y261.752422 Z-0.249992
G01 X178.286467 Y262.251080 Z-0.249992
G01 X178.258669 Y262.258333 Z-0.249992
G01 X176.866043 Y262.621892 Z-0.249992
G01 X176.684913 Y262.670011 Z-0.249992
G01 X175.140565 Y263.080418 Z-0.249992
G01 X174.451717 Y263.270156 Z-0.249992
G01 X174.299514 Y263.312094 Z-0.249992
G01 X172.939062 Y263.686801 Z-0.249992
G01 X171.407668 Y264.108582 Z-0.249992
G01 X170.851210 Y264.172138 Z-0.249992
G01 X168.866031 Y264.379261 Z-0.230576
G01 X167.550932 Y264.043417 Z-0.249992
G01 X166.626287 Y263.793142 Z-0.249992
G01 X166.539334 Y263.734017 Z-0.249992
G01 X165.295694 Y262.888676 Z-0.249992
G01 X164.408246 Y261.915518 Z-0.249992
G01 X164.324849 Y261.824078 Z-0.249992
G01 X163.283195 Y260.681812 Z-0.249992
G01 X162.894519 Y260.171610 Z-0.249992
G01 X162.039357 Y259.049128 Z-0.249992
G01 X160.797862 Y257.419520 Z-0.249992
G01 X160.477540 Y256.944681 Z-0.249992
G01 X159.372132 Y255.305958 Z-0.249992
G01 X158.639962 Y254.220559 Z-0.249992
G01 X157.966044 Y253.273309 Z-0.249992
G01 X157.875056 Y253.191408 Z-0.249992
G01 X157.782204 Y253.107842 Z-0.249992
G01 X157.471647 Y252.924595 Z-0.249992
G01 X157.175568 Y252.783343 Z-0.249992
G01 X155.789659 Y252.122096 Z-0.249992
G01 X157.332568 Y251.989085 Z-0.249992
G01 X157.683229 Y251.958859 Z-0.249992
G01 X157.874152 Y251.951211 Z-0.249992
G01 X159.470373 Y251.887118 Z-0.249992
G01 X159.681758 Y251.880486 Z-0.249992
G01 X161.302447 Y251.829488 Z-0.249992
G01 X161.882442 Y251.811228 Z-0.249992
G01 X166.113659 Y251.678104 Z-0.249992
G01 X168.094859 Y251.615761 Z-0.249992
G01 X168.314653 Y251.592563 Z-0.249992
G01 X169.718003 Y251.444565 Z-0.249992
G01 X171.312813 Y251.276361 Z-0.249992
G01 X171.410179 Y251.234677 Z-0.249992
G01 X172.839579 Y250.623101 Z-0.249992
G01 X173.169920 Y250.481764 Z-0.249992
G01 X174.077829 Y250.200219 Z-0.249992
G01 X174.852839 Y249.997668 Z-0.249992
G01 X174.869801 Y249.993237 Z-0.249992
G01 X176.183968 Y249.649773 Z-0.249992
G01 X176.315230 Y249.873857 Z0.000000
G01 X176.183968 Y249.649773 Z-0.249992
G01 X176.865507 Y248.942270 Z-0.249992
G01 X177.275039 Y248.517159 Z-0.249992
G01 X177.674920 Y247.995048 Z-0.249992
G01 X177.815947 Y247.706842 Z-0.249992
G01 X178.239252 Y246.841634 Z-0.249992
G01 X178.372150 Y245.692171 Z-0.249992
G01 X178.323269 Y245.223908 Z-0.249992
G01 X178.127915 Y243.351871 Z-0.249992
G01 X177.758768 Y242.241919 Z-0.249992
G01 X177.162433 Y241.459374 Z-0.249992
G01 X176.877304 Y241.085203 Z-0.249992
G01 X176.004503 Y240.484691 Z-0.249992
G01 X175.172710 Y240.101066 Z-0.249992
G01 X174.946142 Y239.996588 Z-0.249992
G01 X173.448896 Y239.306046 Z-0.249992
G01 X172.937453 Y239.126355 Z-0.249992
G01 X171.606126 Y238.658600 Z-0.249992
G01 X169.758587 Y238.009461 Z-0.249992
G01 X169.514634 Y237.938228 Z-0.249992
G01 X168.160080 Y237.542694 Z-0.249992
G01 X166.555111 Y237.074064 Z-0.249992
G01 X166.258636 Y236.987478 Z-0.249992
G01 X164.596263 Y236.502084 Z-0.249992
G01 X163.858393 Y236.208544 Z-0.249992
G01 X162.720473 Y235.546762 Z-0.249992
G01 X161.822159 Y235.024340 Z-0.249992
G01 X161.691152 Y234.897876 Z-0.249992
G01 X160.563053 Y233.808894 Z-0.249992
G01 X160.441782 Y233.682006 Z-0.249992
G01 X157.516774 Y230.621673 Z-0.249992
G01 X156.423982 Y229.478335 Z-0.249992
G01 X156.330707 Y229.380742 Z-0.249992
G01 X155.355714 Y228.360650 Z-0.249992
G01 X154.291962 Y227.247650 Z-0.249992
G01 X154.258688 Y227.216295 Z-0.249992
G01 X153.206140 Y226.223917 Z-0.249992
G01 X152.238824 Y225.529792 Z-0.249992
G01 X152.181702 Y225.488813 Z-0.249992
G01 X151.002239 Y224.642485 Z-0.249992
G01 X150.622368 Y224.488222 Z-0.249992
G01 X148.921189 Y223.797371 Z-0.249992
G01 X148.659540 Y223.725545 Z-0.249992
G01 X145.938015 Y222.978446 Z-0.249992
G01 X144.314165 Y222.532676 Z-0.249992
G01 X143.767698 Y222.443438 Z-0.249992
G01 X141.835407 Y222.127857 Z-0.249992
G01 X141.541303 Y222.127659 Z-0.249992
G01 X139.815881 Y222.126502 Z-0.249992
G01 X138.934219 Y222.125938 Z-0.249992
G01 X137.593381 Y222.210492 Z-0.249992
G01 X136.418095 Y222.341104 Z-0.249992
G01 X136.206739 Y222.364585 Z-0.249992
G01 X134.582437 Y222.545066 Z-0.249992
G01 X134.058633 Y222.558923 Z-0.249992
G01 X133.471018 Y222.557653 Z-0.249992
G01 X130.648795 Y222.551614 Z-0.249992
G01 X128.653654 Y222.547352 Z-0.249992
G01 X128.116387 Y222.546195 Z-0.249992
G01 X125.294165 Y222.540155 Z-0.249992
G01 X123.342344 Y222.535978 Z-0.249992
G01 X122.732377 Y222.517832 Z-0.249992
G01 X122.550796 Y222.269532 Z-0.249992
G01 X122.287934 Y221.910038 Z-0.249992
G01 X122.248761 Y220.896662 Z-0.249992
G01 X122.417700 Y219.810699 Z-0.249992
G01 X122.503241 Y219.260902 Z-0.249992
G01 X122.596008 Y218.276088 Z-0.249992
G01 X122.624004 Y217.619103 Z-0.249992
G01 X122.673224 Y216.465350 Z-0.249992
G01 X122.672828 Y216.462246 Z-0.249992
G01 X122.389590 Y215.702786 Z-0.249992
G01 X122.365432 Y215.637959 Z-0.249992
G01 X121.857291 Y214.275447 Z-0.249992
G01 X121.219892 Y213.270990 Z-0.249992
G01 X121.054510 Y213.086501 Z-0.249992
G01 X119.933382 Y211.835861 Z-0.249992
G01 X119.535703 Y211.392236 Z-0.249992
G01 X119.282324 Y210.845657 Z-0.102249
G01 X119.268833 Y210.653858 Z-0.249992
G01 X119.408674 Y210.519633 Z-0.249992
G01 X119.762440 Y210.416989 Z-0.249992
G01 X122.472846 Y209.630408 Z-0.249992
G01 X124.128531 Y209.149924 Z-0.249992
G01 X125.371776 Y208.853337 Z-0.249992
G01 X125.607460 Y208.797118 Z-0.249992
G01 X127.223803 Y208.411546 Z-0.249992
G01 X128.586400 Y208.180237 Z-0.249992
G01 X128.852818 Y208.175834 Z-0.249992
G01 X130.263760 Y208.152551 Z-0.249992
G01 X131.935023 Y208.124978 Z-0.249992
G01 X132.235477 Y208.151083 Z-0.249992
G01 X133.932253 Y208.298432 Z-0.249992
G01 X134.100938 Y208.317679 Z-0.249992
G01 X135.502933 Y208.477671 Z-0.249992
G01 X137.070254 Y208.656543 Z-0.249992
G01 X137.650729 Y208.722781 Z-0.249992
G01 X139.052724 Y208.882801 Z-0.249992
G01 X141.039794 Y209.109567 Z-0.249992
G01 X141.736742 Y209.215202 Z-0.249992
G01 X148.712598 Y210.272633 Z-0.249992
G01 X153.439736 Y210.989195 Z-0.249992
G01 X149.981272 Y211.114812 Z-0.249992
G01 X149.804262 Y211.121247 Z-0.249992
G01 X148.555654 Y210.988376 Z-0.249992
G01 X147.210950 Y210.822543 Z-0.249992
G01 X145.871411 Y210.657330 Z-0.249992
G01 X144.800857 Y210.371354 Z-0.069624
G01 X144.783049 Y210.369294 Z-0.055570
G01 X144.800857 Y210.371354 Z-0.069624
G01 X144.765015 Y210.366105 Z-0.041938
G01 X145.700525 Y211.480403 Z-0.249992
G01 X145.803339 Y211.637741 Z-0.249992
G01 X146.679723 Y212.978833 Z-0.249992
G01 X146.925511 Y213.354951 Z-0.249992
G01 X147.697445 Y214.536192 Z-0.249992
G01 X148.448918 Y216.141133 Z-0.001129
G01 X148.448918 Y216.141133 Z-0.001129
G01 X148.166160 Y216.258933 Z-0.249992
G01 X148.065830 Y216.196929 Z-0.249992
G01 X147.976055 Y216.080794 Z-0.249992
G01 X147.049942 Y214.882874 Z-0.249992
G01 X146.900619 Y214.684274 Z-0.249992
G01 X145.904233 Y213.359128 Z-0.249992
G01 X145.755897 Y213.161854 Z-0.249992
G01 X144.760640 Y211.838204 Z-0.249992
G01 X144.700273 Y211.760339 Z-0.249992
G01 X143.805629 Y210.606163 Z-0.249992
G01 X143.788131 Y210.596426 Z-0.249992
G01 X143.614226 Y210.499680 Z-0.249992
G01 X143.047185 Y210.381345 Z-0.249992
G01 X141.068045 Y209.968256 Z-0.249992
G01 X139.753905 Y209.765649 Z-0.249992
G01 X139.043919 Y209.656175 Z-0.249992
G01 X137.851671 Y209.535750 Z-0.249992
G01 X137.101665 Y209.497820 Z-0.249992
G01 X137.026058 Y209.494010 Z-0.249992
G01 X135.552265 Y209.419447 Z-0.249992
G01 X134.973823 Y209.441742 Z-0.249992
G01 X133.072068 Y209.514979 Z-0.249992
G01 X132.948568 Y209.542185 Z-0.181892
G01 X133.033347 Y209.553728 Z-0.249992
G01 X133.119990 Y209.706918 Z-0.249992
G01 X133.991464 Y211.247343 Z-0.249992
G01 X134.221729 Y211.603847 Z-0.249992
G01 X135.221529 Y213.151864 Z-0.249992
G01 X135.759529 Y214.445486 Z-0.000056
G01 X135.759529 Y214.445486 Z-0.000056
G01 X135.704665 Y214.514094 Z-0.068665
G01 X135.508408 Y214.695422 Z-0.249992
G01 X135.164690 Y214.224393 Z-0.249992
G01 X134.062104 Y212.713431 Z-0.249992
G01 X133.855884 Y212.414671 Z-0.249992
G01 X132.849931 Y210.957275 Z-0.249992
G01 X132.211714 Y210.032659 Z-0.249992
G01 X131.961129 Y209.641471 Z-0.249992
G01 X131.271745 Y209.262616 Z-0.249992
G01 X130.812767 Y209.263208 Z-0.249992
G01 X129.699880 Y209.225560 Z-0.249992
G01 X128.418139 Y209.182211 Z-0.249992
G01 X128.168909 Y209.200950 Z-0.249992
G01 X127.105157 Y209.420067 Z-0.249992
G01 X127.052805 Y209.430848 Z-0.249992
G01 X125.629671 Y209.723993 Z-0.249992
G01 X124.451901 Y210.082697 Z-0.249992
G01 X124.431948 Y210.134654 Z-0.249992
G01 X124.430904 Y210.137392 Z-0.249992
G01 X124.494009 Y210.478993 Z-0.249992
G01 X124.612598 Y210.915111 Z-0.249992
G01 X124.804058 Y211.619002 Z-0.249992
G01 X124.841763 Y212.015835 Z-0.249992
G01 X124.840662 Y213.287697 Z-0.249992
G01 X124.840634 Y213.330002 Z-0.249992
G01 X124.839223 Y214.826824 Z-0.249992
G01 X124.425767 Y215.977388 Z-0.249992
G01 X124.206339 Y216.587976 Z-0.249992
G01 X123.860335 Y217.543862 Z-0.249992
G01 X123.656937 Y218.101421 Z-0.249992
G01 X123.322250 Y219.018812 Z-0.249992
G01 X123.302325 Y219.128822 Z-0.249992
G01 X123.301281 Y220.064107 Z-0.249992
G01 X123.151534 Y221.056795 Z-0.101402
G01 X123.151534 Y221.056795 Z-0.101402
G01 X123.494575 Y221.189778 Z-0.249992
G01 X123.688913 Y221.384201 Z-0.249992
G01 X123.585422 Y221.634278 Z0.000000
G01 X123.688913 Y221.384201 Z-0.249992
G01 X124.229566 Y221.383750 Z-0.249992
G01 X127.051789 Y221.381520 Z-0.249992
G01 X129.107241 Y221.379855 Z-0.249992
G01 X129.408062 Y221.379629 Z-0.249992
G01 X132.230284 Y221.377372 Z-0.249992
G01 X133.938970 Y221.376017 Z-0.249992
G01 X134.952205 Y221.348726 Z-0.249992
G01 X135.425124 Y221.310711 Z-0.249992
G01 X137.311272 Y221.159157 Z-0.249992
G01 X137.313389 Y221.158988 Z-0.249992
G01 X138.719956 Y221.045986 Z-0.249992
G01 X140.133889 Y221.042233 Z-0.140490
G01 X140.133889 Y221.042233 Z-0.140490
G01 X140.118988 Y221.021518 Z-0.155392
G01 X140.113343 Y221.023267 Z-0.161036
G01 X139.537017 Y220.345595 Z-0.249992
G01 X138.886890 Y219.452870 Z-0.249992
G01 X138.625948 Y219.094589 Z-0.249992
G01 X137.532139 Y217.592630 Z-0.249992
G01 X137.505017 Y217.552978 Z-0.249992
G01 X136.708276 Y216.388303 Z-0.249992
G01 X135.656998 Y214.492927 Z-0.047498
G01 X136.615509 Y215.251258 Z-0.249992
G01 X136.744400 Y215.393865 Z-0.249992
G01 X137.303257 Y216.086975 Z-0.249992
G01 X137.856441 Y216.789765 Z-0.249992
G01 X137.950675 Y216.909455 Z-0.249992
G01 X138.912798 Y218.131731 Z-0.249992
G01 X138.921547 Y218.141524 Z-0.249992
G01 X139.862504 Y219.193113 Z-0.249992
G01 X140.800385 Y220.241258 Z-0.249992
G01 X141.208676 Y220.543151 Z-0.249992
G01 X141.328733 Y220.631938 Z-0.249992
G01 X141.892275 Y220.794385 Z-0.249992
G01 X142.701773 Y220.958130 Z-0.249992
G01 X143.387827 Y221.096899 Z-0.249992
G01 X145.466140 Y221.517269 Z-0.249992
G01 X145.838391 Y221.622030 Z-0.249992
G01 X147.576400 Y222.111206 Z-0.249992
G01 X148.115839 Y222.346240 Z-0.249992
G01 X149.409490 Y222.909895 Z-0.249992
G01 X151.245345 Y223.709797 Z-0.249992
G01 X151.443860 Y223.837503 Z-0.249992
G01 X152.824209 Y224.725346 Z-0.249992
G01 X153.131690 Y224.976636 Z-0.249992
G01 X154.520788 Y226.111960 Z-0.249992
G01 X154.721448 Y226.275959 Z-0.249992
G01 X156.026726 Y227.342731 Z-0.249992
G01 X156.762394 Y228.113677 Z-0.249992
G01 X157.161965 Y228.615045 Z-0.249992
G01 X158.433997 Y230.211238 Z-0.249992
G01 X158.789710 Y230.657600 Z-0.249992
G01 X160.017207 Y232.197913 Z-0.249992
G01 X160.064959 Y232.247076 Z-0.249992
G01 X161.084571 Y233.296491 Z-0.249992
G01 X161.987541 Y233.876316 Z-0.249992
G01 X163.049487 Y234.558250 Z-0.249992
G01 X163.192969 Y234.620565 Z-0.249992
G01 X164.637749 Y235.248312 Z-0.249992
G01 X164.939755 Y235.345198 Z-0.249992
G01 X166.597275 Y235.876962 Z-0.249992
G01 X166.923665 Y235.981666 Z-0.249992
G01 X168.267325 Y236.412732 Z-0.249992
G01 X169.939350 Y236.949152 Z-0.249992
G01 X170.133378 Y237.014994 Z-0.249992
G01 X172.805881 Y237.922000 Z-0.249992
G01 X174.343456 Y238.443801 Z-0.249992
G01 X175.041787 Y238.743577 Z-0.249992
G01 X176.025642 Y239.165923 Z-0.249992
G01 X176.888000 Y239.697912 Z-0.249992
G01 X177.460996 Y240.238875 Z-0.249992
G01 X177.722983 Y240.486187 Z-0.249992
G01 X177.866549 Y240.771288 Z-0.113651
G01 X177.883990 Y240.798071 Z-0.086868
G01 X177.866549 Y240.771288 Z-0.113651
G01 X177.839456 Y240.663112 Z-0.182259
G01 X177.803726 Y240.467842 Z-0.249992
G01 X177.899033 Y239.903765 Z-0.249992
G01 X178.216984 Y239.613669 Z-0.249992
G01 X179.176060 Y239.158642 Z-0.249992
G01 X180.144957 Y238.698930 Z-0.249992
G01 X180.752017 Y238.670820 Z-0.249992
G01 X181.612569 Y239.052780 Z-0.249992
G01 X182.336102 Y239.373921 Z-0.249992
G01 X183.401999 Y240.078460 Z-0.249992
G01 X184.278864 Y240.812887 Z-0.249992
G01 X184.919170 Y241.349166 Z-0.249992
G01 X184.950835 Y241.361809 Z-0.249992
G01 X185.044787 Y241.267829 Z-0.249992
G01 X185.142633 Y241.169983 Z-0.249992
G01 X185.118475 Y241.072447 Z-0.249992
G01 X185.057797 Y240.919737 Z-0.249992
G01 X184.469702 Y239.439904 Z-0.249992
G01 X184.385120 Y239.227109 Z-0.249992
G01 X183.863969 Y237.915763 Z-0.249992
G01 X183.262977 Y236.403447 Z-0.249992
G01 X182.965204 Y235.831439 Z-0.249992
G01 X182.313609 Y234.579784 Z-0.249992
G01 X181.365540 Y232.758604 Z-0.249992
G01 X181.011069 Y232.245016 Z-0.249992
G01 X179.846253 Y230.557298 Z-0.249992
G01 X179.477727 Y230.023306 Z-0.249992
G01 X178.317907 Y228.342814 Z-0.249992
G01 X178.101471 Y228.109613 Z-0.249992
G01 X177.141548 Y227.075325 Z-0.249992
G01 X175.966065 Y225.808797 Z-0.249992
G01 X175.543578 Y225.475323 Z-0.249992
G01 X173.998185 Y224.255643 Z-0.249992
G01 X173.788579 Y224.090176 Z-0.249992
G01 X172.481777 Y223.058767 Z-0.249992
G01 X172.386640 Y222.998992 Z-0.249992
G01 X171.101231 Y222.190962 Z-0.249992
G01 X170.735104 Y222.030575 Z-0.249992
G01 X169.442611 Y221.464268 Z-0.249992
G01 X167.780915 Y220.736191 Z-0.249992
G01 X167.499398 Y220.651694 Z-0.249992
G01 X165.859489 Y220.159329 Z-0.249992
G01 X165.255110 Y220.019205 Z-0.249992
G01 X163.268294 Y219.558562 Z-0.249992
G01 X162.656041 Y219.416604 Z-0.249992
G01 X161.281393 Y219.097863 Z-0.249992
G01 X159.301322 Y218.638772 Z-0.249992
G01 X158.898901 Y218.568978 Z-0.249992
G01 X157.109754 Y218.258647 Z-0.249992
G01 X156.489373 Y218.205024 Z-0.249992
G01 X154.452462 Y218.028918 Z-0.249992
G01 X153.581157 Y217.953593 Z-0.249992
G01 X152.756589 Y217.856875 Z-0.249992
G01 X152.664866 Y217.765153 Z-0.249992
G01 X152.141175 Y217.241461 Z-0.249992
G01 X153.456443 Y217.254895 Z-0.249992
G01 X155.578388 Y217.276570 Z-0.249992
G01 X156.986479 Y217.381218 Z-0.249992
G01 X157.063441 Y217.386947 Z-0.249992
G01 X158.470657 Y217.491538 Z-0.249992
G01 X159.968580 Y217.602847 Z-0.249992
G01 X159.993387 Y217.607475 Z-0.249992
G01 X161.380651 Y217.865850 Z-0.249992
G01 X162.793822 Y218.129022 Z-0.249992
G01 X163.444598 Y218.332561 Z-0.249992
G01 X166.138155 Y219.175022 Z-0.249992
G01 X168.136119 Y219.799919 Z-0.249992
G01 X168.765673 Y220.085386 Z-0.249992
G01 X170.680071 Y220.953389 Z-0.249992
G01 X171.293142 Y221.325443 Z-0.249992
G01 X173.099787 Y222.421791 Z-0.249992
G01 X173.595878 Y222.722838 Z-0.249992
G01 X175.310886 Y223.763589 Z-0.249992
G01 X175.569712 Y223.965688 Z-0.249992
G01 X176.948452 Y225.042309 Z-0.249992
G01 X177.039723 Y225.147973 Z-0.249992
G01 X178.884412 Y227.283888 Z-0.249992
G01 X179.895049 Y228.454066 Z-0.249992
G01 X180.190339 Y228.932432 Z-0.249992
G01 X181.221042 Y230.602115 Z-0.249992
G01 X181.374571 Y230.895626 Z-0.249992
G01 X182.028621 Y232.146012 Z-0.249992
G01 X182.832080 Y233.682035 Z-0.249992
G01 X182.965825 Y233.937728 Z-0.249992
G01 X184.273925 Y236.438471 Z-0.249992
G01 X185.067788 Y237.956177 Z-0.249992
G01 X185.142887 Y238.145690 Z-0.249992
G01 X185.662684 Y239.457571 Z-0.249992
G01 X186.259104 Y240.962917 Z-0.249992
G01 X186.359773 Y241.376626 Z-0.249992
G01 X186.693331 Y242.747746 Z-0.249992
G01 X187.123438 Y244.515727 Z-0.249992
G01 X187.141387 Y244.589529 Z-0.249992
G01 X187.481126 Y245.985992 Z-0.249992
G01 X187.250015 Y246.093547 Z0.000000
G01 X187.481126 Y245.985992 Z-0.249992
G01 X187.354663 Y246.044836 Z-0.113199
G01 X188.299232 Y247.102068 Z-0.249992
G01 X189.133481 Y248.240186 Z-0.249992
G01 X189.981079 Y249.396479 Z-0.249992
G01 X190.259576 Y249.776406 Z-0.249992
G01 X191.372068 Y251.294084 Z-0.249992
G01 X191.540667 Y251.522600 Z-0.249992
G01 X192.539198 Y252.876081 Z-0.249992
G01 X192.541794 Y252.946411 Z-0.204272
G01 X192.551333 Y252.889261 Z-0.249992
G01 X192.729867 Y252.792741 Z-0.249992
G01 X193.224405 Y252.357441 Z-0.249992
G01 X193.662583 Y251.971728 Z-0.249992
G01 X194.105277 Y251.078946 Z-0.249992
G01 X194.316972 Y250.128281 Z-0.249992
G01 X194.542411 Y249.115978 Z-0.249992
G01 X194.549608 Y248.816145 Z-0.249992
G01 X194.590671 Y247.104552 Z-0.249992
G01 X194.414790 Y246.034027 Z-0.249992
G01 X194.306417 Y245.374389 Z-0.249992
G01 X193.973310 Y243.346763 Z-0.249992
G01 X193.835698 Y242.981850 Z-0.249992
G01 X192.341896 Y239.020833 Z-0.249992
G01 X191.703312 Y237.327584 Z-0.249992
G01 X191.394815 Y236.750157 Z-0.249992
G01 X190.729843 Y235.505557 Z-0.249992
G01 X189.748726 Y233.669165 Z-0.249992
G01 X189.705941 Y233.589099 Z-0.249992
G01 X189.040997 Y232.344499 Z-0.249992
G01 X188.335724 Y231.024489 Z-0.249992
G01 X188.103652 Y230.630902 Z-0.249992
G01 X187.156881 Y229.025453 Z-0.249992
G01 X186.787340 Y228.494960 Z-0.249992
G01 X185.980748 Y227.337086 Z-0.249992
G01 X184.806196 Y225.650950 Z-0.249992
G01 X184.683429 Y225.506932 Z-0.249992
G01 X183.644090 Y224.287562 Z-0.249992
G01 X183.453872 Y224.098615 Z-0.249992
G01 X182.255189 Y222.907863 Z-0.249992
G01 X182.096806 Y222.750552 Z-0.249992
G01 X180.945114 Y221.606480 Z-0.249992
G01 X180.828838 Y221.509649 Z-0.249992
G01 X179.629309 Y220.510949 Z-0.249992
G01 X179.206314 Y220.225171 Z-0.249992
G01 X178.037011 Y219.435231 Z-0.249992
G01 X176.442738 Y218.358158 Z-0.249992
G01 X176.130459 Y218.182108 Z-0.249992
G01 X174.585462 Y217.311198 Z-0.249992
G01 X174.025392 Y217.030839 Z-0.249992
G01 X172.197946 Y216.116044 Z-0.249992
G01 X171.675779 Y215.854649 Z-0.249992
G01 X169.895154 Y214.963279 Z-0.249992
G01 X169.833150 Y214.934577 Z-0.249992
G01 X168.503827 Y214.319022 Z-0.249992
G01 X168.255951 Y214.245785 Z-0.249992
G01 X166.902695 Y213.845905 Z-0.249992
G01 X165.298742 Y213.371941 Z-0.249992
G01 X165.096953 Y213.338469 Z-0.249992
G01 X163.490488 Y213.071825 Z-0.249992
G01 X163.321973 Y213.047441 Z-0.249992
G01 X161.925396 Y212.845455 Z-0.249992
G01 X160.357708 Y212.618718 Z-0.249992
G01 X160.298357 Y212.610110 Z-0.249992
G01 X157.505203 Y212.206137 Z-0.249992
G01 X156.047638 Y211.995289 Z-0.249992
G01 X155.818474 Y211.959023 Z-0.249992
G01 X154.114275 Y211.689275 Z-0.249992
G01 X153.989392 Y211.559425 Z-0.249992
G01 X153.465164 Y211.014200 Z-0.249992
G01 X154.671833 Y211.124041 Z-0.249992
G01 X154.861910 Y211.143711 Z-0.249992
G01 X157.669146 Y211.434090 Z-0.249992
G01 X159.261303 Y211.598767 Z-0.249992
G01 X159.313768 Y211.604185 Z-0.249992
G01 X162.121004 Y211.894564 Z-0.249992
G01 X163.577610 Y212.045214 Z-0.249992
G01 X163.988892 Y212.089410 Z-0.249992
G01 X165.818257 Y212.285893 Z-0.249992
G01 X166.221778 Y212.381115 Z-0.249992
G01 X167.595184 Y212.705191 Z-0.249992
G01 X169.380861 Y213.126548 Z-0.249992
G01 X169.410748 Y213.140180 Z-0.249992
G01 X170.703185 Y213.729742 Z-0.249992
G01 X171.297375 Y214.007900 Z-0.249992
G01 X173.168509 Y214.883749 Z-0.249992
G01 X174.083812 Y215.312190 Z-0.249992
G01 X174.915379 Y215.679700 Z-0.249992
G01 X175.020169 Y215.706003 Z-0.249992
G01 X175.198420 Y215.750763 Z-0.249992
G01 X175.341394 Y215.686643 Z-0.249992
G01 X175.341394 Y215.665024 Z-0.249992
G01 X175.341394 Y215.529021 Z-0.249992
G01 X175.065606 Y215.350262 Z-0.249992
G01 X174.779941 Y215.183440 Z-0.249992
G01 X172.342839 Y213.760278 Z-0.249992
G01 X170.833599 Y212.878927 Z-0.249992
G01 X170.496880 Y212.682302 Z-0.249992
G01 X168.059778 Y211.259140 Z-0.249992
G01 X166.498553 Y210.347421 Z-0.249992
G01 X166.139002 Y210.109819 Z-0.249992
G01 X164.961740 Y209.331817 Z-0.249992
G01 X163.425464 Y208.316550 Z-0.249992
G01 X162.910323 Y207.937413 Z-0.249992
G01 X160.637390 Y206.264484 Z-0.249992
G01 X158.990878 Y205.052594 Z-0.249992
G01 X158.975327 Y205.041164 Z-0.249992
G01 X157.824933 Y204.194441 Z-0.249992
G01 X157.326839 Y203.840167 Z-0.249992
G01 X155.678520 Y202.667760 Z-0.249992
G01 X155.530466 Y202.565369 Z-0.249992
G01 X154.220391 Y201.659493 Z-0.249992
G01 X154.070982 Y201.556171 Z-0.249992
G01 X152.760342 Y200.649899 Z-0.249992
G01 X152.266369 Y200.304233 Z-0.249992
G01 X150.616102 Y199.149436 Z-0.249992
G01 X150.610768 Y199.145654 Z-0.249992
G01 X149.455689 Y198.325319 Z-0.249992
G01 X149.451089 Y198.322045 Z-0.249992
G01 X148.298183 Y197.503290 Z-0.249992
G01 X148.135397 Y197.392913 Z-0.249992
G01 X146.806413 Y196.491919 Z-0.249992
G01 X146.139296 Y196.076742 Z-0.249992
G01 X145.460185 Y195.654114 Z-0.249992
G01 X144.669059 Y195.076857 Z-0.249992
G01 X144.387910 Y194.795989 Z-0.249992
G01 X143.718224 Y194.126897 Z-0.249992
G01 X143.696296 Y194.093086 Z-0.249992
G01 X142.913016 Y192.885740 Z-0.249992
G01 X142.841868 Y192.743020 Z-0.249992
G01 X142.147601 Y191.349999 Z-0.249992
G01 X142.132361 Y191.319435 Z-0.249992
G01 X141.502921 Y190.056490 Z-0.249992
G01 X140.854318 Y188.755107 Z-0.249992
G01 X140.826321 Y188.687346 Z-0.249992
G01 X137.593184 Y180.862311 Z-0.249992
G01 X137.027243 Y179.492630 Z-0.249992
G01 X136.832256 Y178.942410 Z-0.249992
G01 X136.360945 Y177.612353 Z-0.249992
G01 X135.696763 Y175.738115 Z-0.249992
G01 X135.506291 Y175.200538 Z-0.249992
G01 X134.853483 Y173.358361 Z-0.249992
G01 X134.488231 Y172.770266 Z-0.249992
G01 X134.383668 Y172.682043 Z-0.249992
G01 X133.170395 Y171.658198 Z-0.249992
G01 X132.733204 Y171.289249 Z-0.249992
G01 X132.209315 Y170.789743 Z-0.249992
G01 X132.414491 Y170.584483 Z-0.249992
G01 X132.676421 Y170.322553 Z-0.249992
G01 X133.171749 Y170.598877 Z-0.249992
G01 X134.742457 Y171.475035 Z-0.249992
G01 X135.158170 Y171.748593 Z-0.249992
G01 X136.744993 Y172.792787 Z-0.249992
G01 X137.007883 Y172.965733 Z-0.249992
G01 X138.456022 Y173.918657 Z-0.249992
G01 X138.668845 Y174.078479 Z-0.249992
G01 X144.310976 Y178.314889 Z-0.249992
G01 X145.649669 Y179.320051 Z-0.249992
G01 X145.913123 Y179.533242 Z-0.249992
G01 X147.010093 Y180.420887 Z-0.249992
G01 X148.367017 Y181.518845 Z-0.249992
G01 X148.792354 Y181.863015 Z-0.249992
G01 X149.889324 Y182.750632 Z-0.249992
G01 X151.408582 Y183.979964 Z-0.249992
G01 X151.817466 Y184.290154 Z-0.249992
G01 X153.331334 Y185.438686 Z-0.249992
G01 X153.810209 Y185.656025 Z-0.249992
G01 X154.226910 Y185.845142 Z-0.249992
G01 X154.482547 Y185.868228 Z-0.249992
G01 X154.780376 Y185.755000 Z-0.249992
G01 X155.077866 Y185.641886 Z-0.249992
G01 X155.978550 Y184.784918 Z-0.249992
G01 X156.168684 Y184.425141 Z-0.249992
G01 X156.354019 Y184.074508 Z-0.249992
G01 X156.815114 Y183.762286 Z-0.249992
G01 X156.827644 Y184.409957 Z-0.249992
G01 X156.830720 Y184.574436 Z-0.249992
G01 X156.709139 Y184.936725 Z-0.249992
G01 X156.573701 Y185.203369 Z-0.249992
G01 X156.186548 Y185.965651 Z-0.249992
G01 X155.637033 Y186.479182 Z-0.249992
G01 X154.352696 Y186.835093 Z-0.249992
G01 X153.563716 Y186.703408 Z-0.249992
G01 X152.710615 Y186.294440 Z-0.249992
G01 X152.365711 Y186.129114 Z-0.249992
G01 X151.932980 Y185.922019 Z-0.249992
G01 X151.748971 Y185.834192 Z-0.249992
G01 X151.303793 Y185.621791 Z-0.249992
G01 X151.263972 Y185.592384 Z-0.249992
G01 X150.100003 Y184.732791 Z-0.249992
G01 X149.277522 Y184.013661 Z-0.249992
G01 X148.941706 Y183.720037 Z-0.249992
G01 X148.675260 Y183.527674 Z-0.249992
G01 X148.683360 Y183.502585 Z-0.224903
G01 X148.524977 Y183.527674 Z-0.249992
G01 X147.887098 Y183.032318 Z-0.249992
G01 X147.264347 Y182.491721 Z-0.249992
G01 X146.646929 Y181.955781 Z-0.249992
G01 X146.472375 Y181.804933 Z-0.249992
G01 X145.230061 Y180.731332 Z-0.249992
G01 X145.207314 Y180.711717 Z-0.249992
G01 X144.115678 Y179.770647 Z-0.249992
G01 X144.092818 Y179.750920 Z-0.249992
G01 X142.999997 Y178.808862 Z-0.249992
G01 X142.878895 Y178.701843 Z-0.249992
G01 X141.698840 Y177.659258 Z-0.249992
G01 X141.225045 Y177.216649 Z-0.249992
G01 X140.363505 Y176.411836 Z-0.249992
G01 X140.298622 Y176.383670 Z-0.249992
G01 X140.107530 Y176.574763 Z-0.249992
G01 X140.031217 Y176.651076 Z-0.249992
G01 X140.027068 Y176.686071 Z-0.249992
G01 X140.074030 Y177.270525 Z-0.249992
G01 X140.135244 Y178.032243 Z-0.249992
G01 X140.338529 Y178.739887 Z-0.249992
G01 X140.426525 Y178.972974 Z-0.249992
G01 X141.016455 Y180.535780 Z-0.249992
G01 X141.237576 Y181.121560 Z-0.249992
G01 X141.955267 Y183.022863 Z-0.249992
G01 X142.056669 Y183.262272 Z-0.249992
G01 X142.706204 Y184.795642 Z-0.249992
G01 X142.765809 Y184.908136 Z-0.249992
G01 X143.426322 Y186.155107 Z-0.249992
G01 X144.143138 Y187.508334 Z-0.249992
G01 X144.814686 Y188.429225 Z-0.249992
G01 X145.614193 Y189.234292 Z-0.249992
G01 X146.313879 Y189.938804 Z-0.249992
G01 X146.471726 Y190.049886 Z-0.249992
G01 X147.736843 Y190.940241 Z-0.249992
G01 X147.965782 Y191.084964 Z-0.105269
G01 X147.834069 Y190.940241 Z-0.249992
G01 X147.842761 Y190.848236 Z-0.249992
G01 X147.850071 Y189.765237 Z-0.249992
G01 X147.857098 Y188.724966 Z-0.249992
G01 X147.898810 Y188.077830 Z-0.249992
G01 X148.417986 Y187.520836 Z-0.249992
G01 X148.521844 Y188.540138 Z-0.249992
G01 X148.552324 Y189.542225 Z-0.249992
G01 X148.584977 Y190.616193 Z-0.249992
G01 X148.660048 Y191.446886 Z-0.249992
G01 X148.760774 Y191.872393 Z-0.249992
G01 X148.827152 Y192.538183 Z-0.161205
G01 X148.827152 Y192.538183 Z-0.161205
G01 X149.692925 Y193.247633 Z-0.249992
G01 X150.635350 Y194.153962 Z-0.249992
G01 X151.066049 Y194.429354 Z-0.249992
G01 X152.039377 Y194.751454 Z-0.249992
G01 X152.070591 Y194.761784 Z-0.249992
G01 X153.398701 Y195.201317 Z-0.249992
G01 X153.574102 Y195.194826 Z-0.249992
G01 X155.168573 Y195.135954 Z-0.249992
G01 X155.328593 Y195.082247 Z-0.249992
G01 X156.860608 Y194.567982 Z-0.249992
G01 X156.889451 Y194.558302 Z-0.249992
G01 X158.229244 Y194.108524 Z-0.249992
G01 X158.619840 Y193.869736 Z-0.249992
G01 X160.213380 Y192.895448 Z-0.249992
G01 X160.194781 Y192.913934 Z-0.249992
G01 X161.197686 Y191.916871 Z-0.249992
G01 X161.403313 Y191.712457 Z-0.249992
G01 X161.744604 Y191.231607 Z-0.249992
G01 X161.959347 Y190.840334 Z-0.249992
G01 X162.255427 Y190.300838 Z-0.249992
G01 X162.492465 Y189.941202 Z-0.249992
G01 X163.116571 Y189.745199 Z-0.249992
G01 X162.980823 Y190.411272 Z-0.249992
G01 X162.806099 Y190.919074 Z-0.249992
G01 X162.484365 Y191.854218 Z-0.249992
G01 X161.965246 Y192.777084 Z-0.249992
G01 X161.798650 Y192.986521 Z-0.249992
G01 X160.752396 Y194.302128 Z-0.249992
G01 X160.023811 Y194.943930 Z-0.249992
G01 X159.301124 Y195.313415 Z-0.249992
G01 X159.223654 Y195.353011 Z-0.249992
G01 X157.849176 Y196.055716 Z-0.249992
G01 X157.286594 Y196.118878 Z-0.249992
G01 X155.340333 Y196.337318 Z-0.249992
G01 X154.704994 Y196.272124 Z-0.249992
G01 X152.692637 Y196.065622 Z-0.249992
G01 X152.135502 Y196.008444 Z-0.249992
G01 X151.754897 Y195.905207 Z-0.152710
G01 X151.749479 Y195.905602 Z-0.149183
G01 X151.754897 Y195.905207 Z-0.152710
G01 X151.745669 Y195.905856 Z-0.146699
G01 X152.940654 Y196.663425 Z-0.249992
G01 X182.410666 Y218.517360 Z-0.249992
G01 X183.648295 Y219.435146 Z-0.249992
G01 X184.126520 Y219.592570 Z-0.249992
G01 X184.700080 Y219.781405 Z-0.249992
G01 X185.231985 Y219.586276 Z-0.249992
G01 X185.998133 Y218.869601 Z-0.249992
G01 X186.085961 Y218.787446 Z-0.249992
G01 X187.188152 Y217.756404 Z-0.249992
G01 X187.347212 Y217.543721 Z-0.249992
G01 X188.192326 Y216.413647 Z-0.249992
G01 X189.186962 Y215.083618 Z-0.249992
G01 X189.500116 Y214.199219 Z-0.249992
G01 X189.702046 Y213.628876 Z-0.249992
G01 X189.702385 Y212.735360 Z-0.249992
G01 X189.499664 Y212.132787 Z-0.249992
G01 X189.356973 Y211.708579 Z-0.249992
G01 X189.008739 Y211.342255 Z-0.249992
G01 X188.872454 Y211.206816 Z-0.249992
G01 X184.868511 Y207.228386 Z-0.249992
G01 X183.728700 Y206.095828 Z-0.249992
G01 X183.673695 Y206.041162 Z-0.249992
G01 X181.671723 Y204.051947 Z-0.249992
G01 X180.616438 Y203.003378 Z-0.249992
G01 X180.607237 Y202.994375 Z-0.249992
G01 X178.589546 Y201.021078 Z-0.249992
G01 X177.574590 Y200.028446 Z-0.249992
G01 X176.968207 Y199.483728 Z-0.249992
G01 X176.647744 Y199.195862 Z-0.249992
G01 X175.597990 Y198.252844 Z-0.249992
G01 X174.221169 Y197.016062 Z-0.249992
G01 X174.155157 Y196.947680 Z-0.249992
G01 X167.292952 Y189.842707 Z-0.249992
G01 X166.217403 Y188.729114 Z-0.249992
G01 X165.960186 Y188.058554 Z-0.249992
G01 X165.882265 Y187.855354 Z-0.249992
G01 X165.927335 Y187.316028 Z-0.249992
G01 X166.065963 Y186.506332 Z-0.249992
G01 X166.146820 Y186.034033 Z-0.249992
G01 X166.463953 Y184.181527 Z-0.249992
G01 X166.509927 Y183.626904 Z-0.249992
G01 X166.509052 Y183.126044 Z-0.249992
G01 X166.505637 Y181.203489 Z-0.249992
G01 X166.504621 Y180.617935 Z-0.249992
G01 X166.501121 Y178.632501 Z-0.249992
G01 X166.399888 Y177.529831 Z-0.249992
G01 X166.379089 Y177.406077 Z-0.249992
G01 X166.145296 Y176.014467 Z-0.249992
G01 X165.889123 Y174.489846 Z-0.249992
G01 X165.737202 Y173.585521 Z-0.249992
G01 X165.564736 Y172.440348 Z-0.249992
G01 X165.506175 Y171.946347 Z-0.249992
G01 X165.491867 Y171.825471 Z-0.249992
G01 X165.312966 Y170.316090 Z-0.249992
G01 X165.260642 Y170.083369 Z-0.249992
G01 X164.898156 Y168.470808 Z-0.249992
G01 X164.718578 Y167.888358 Z-0.249992
G01 X164.302893 Y166.539844 Z-0.249992
G01 X163.707319 Y164.607863 Z-0.249992
G01 X163.576086 Y164.267644 Z-0.249992
G01 X162.937135 Y162.611056 Z-0.249992
G01 X162.786654 Y162.290508 Z-0.249992
G01 X162.032782 Y160.684579 Z-0.249992
G01 X161.945914 Y160.499554 Z-0.249992
G01 X161.265165 Y159.049355 Z-0.249992
G01 X161.091316 Y158.763577 Z-0.249992
G01 X160.182307 Y157.269436 Z-0.249992
G01 X160.173022 Y157.256652 Z-0.249992
G01 X158.515559 Y154.972401 Z-0.249992
G01 X157.677302 Y153.817153 Z-0.249992
G01 X157.430471 Y153.527480 Z-0.249992
G01 X156.269804 Y152.165306 Z-0.249992
G01 X156.071599 Y151.973000 Z-0.249992
G01 X154.852173 Y150.789755 Z-0.249992
G01 X154.646546 Y150.590224 Z-0.249992
G01 X153.434966 Y149.414599 Z-0.249992
G01 X153.436631 Y149.415982 Z-0.249992
G01 X152.363735 Y148.521027 Z-0.249992
G01 X151.876987 Y148.238353 Z-0.249992
G01 X150.173522 Y147.249023 Z-0.249992
G01 X149.075480 Y146.879482 Z-0.249992
G01 X149.026853 Y146.869152 Z-0.249992
G01 X147.583766 Y146.562631 Z-0.249992
G01 X146.228309 Y146.274708 Z-0.249992
G01 X145.708286 Y146.260371 Z-0.249992
G01 X143.776673 Y146.207115 Z-0.249992
G01 X143.765666 Y146.208724 Z-0.249992
G01 X142.337001 Y146.418302 Z-0.249992
G01 X141.873676 Y146.486290 Z-0.249992
G01 X140.036720 Y146.755755 Z-0.249992
G01 X139.805891 Y146.834128 Z-0.249992
G01 X138.248504 Y147.362900 Z-0.249992
G01 X137.893976 Y147.600108 Z-0.249992
G01 X136.721145 Y148.384770 Z-0.249992
G01 X135.193984 Y149.406499 Z-0.249992
G01 X135.045169 Y149.577244 Z-0.249992
G01 X133.962536 Y150.819332 Z-0.249992
G01 X133.743249 Y151.191950 Z-0.249992
G01 X132.796450 Y152.800673 Z-0.249992
G01 X132.667333 Y153.020044 Z-0.249992
G01 X131.833028 Y154.437647 Z-0.249992
G01 X131.682321 Y154.830782 Z-0.249992
G01 X131.028949 Y156.534953 Z-0.249992
G01 X131.030642 Y156.523354 Z-0.249992
G01 X130.824930 Y157.935622 Z-0.249992
G01 X130.789455 Y158.179208 Z-0.249992
G01 X130.735720 Y158.469304 Z-0.249992
G01 X130.698551 Y158.574516 Z-0.242937
G01 X130.706397 Y158.572682 Z-0.249992
G01 X131.194726 Y159.112517 Z-0.249992
G01 X131.553910 Y159.474100 Z-0.249992
G01 X132.911681 Y160.840930 Z-0.249992
G01 X133.052143 Y160.982324 Z-0.249992
G01 X134.189555 Y162.127299 Z-0.249992
G01 X134.335041 Y162.282098 Z-0.249992
G01 X135.454645 Y163.473189 Z-0.249992
G01 X135.719059 Y163.829889 Z-0.249992
G01 X136.074348 Y164.309187 Z-0.249992
G01 X136.145440 Y164.370712 Z-0.249992
G01 X136.300606 Y164.385980 Z-0.249992
G01 X136.560194 Y164.411493 Z-0.249992
G01 X136.606676 Y164.352085 Z-0.249992
G01 X136.851165 Y163.522126 Z-0.249992
G01 X137.214329 Y162.289295 Z-0.249992
G01 X137.398450 Y161.925849 Z-0.249992
G01 X138.225418 Y160.293222 Z-0.249992
G01 X138.821471 Y159.643828 Z-0.249992
G01 X139.702117 Y158.684329 Z-0.249992
G01 X139.778910 Y158.640048 Z-0.249992
G01 X141.074790 Y157.892837 Z-0.249992
G01 X142.464480 Y157.540708 Z-0.249992
G01 X143.191739 Y157.356445 Z-0.249992
G01 X143.491064 Y157.339314 Z-0.249992
G01 X143.551685 Y157.341403 Z-0.249992
G01 X145.011141 Y157.391526 Z-0.249992
G01 X146.001007 Y157.425533 Z-0.249992
G01 X146.984608 Y157.513643 Z-0.249992
G01 X147.354376 Y157.603926 Z-0.249992
G01 X148.002809 Y157.762224 Z-0.249992
G01 X149.000550 Y158.216461 Z-0.249992
G01 X149.767686 Y158.700359 Z-0.249992
G01 X150.849274 Y159.382575 Z-0.249992
G01 X151.218082 Y159.716754 Z-0.249992
G01 X152.639862 Y161.005071 Z-0.249992
G01 X153.138125 Y161.759902 Z-0.249992
G01 X154.020380 Y163.096479 Z-0.249992
G01 X152.769204 Y162.183461 Z-0.249992
G01 X152.458336 Y161.858511 Z-0.249992
G01 X152.212972 Y161.601999 Z-0.249992
G01 X151.007686 Y160.342018 Z-0.249992
G01 X150.618219 Y160.058892 Z-0.249992
G01 X149.103250 Y158.957605 Z-0.249992
G01 X148.040260 Y158.634743 Z-0.249992
G01 X147.809910 Y158.564780 Z-0.249992
G01 X146.254076 Y158.092199 Z-0.249992
G01 X145.882728 Y158.059066 Z-0.249992
G01 X144.123016 Y157.902094 Z-0.249992
G01 X143.044673 Y158.179913 Z-0.249992
G01 X141.919255 Y158.469840 Z-0.249992
G01 X141.824852 Y158.524986 Z-0.249992
G01 X140.509837 Y159.293336 Z-0.249992
G01 X139.617423 Y160.179796 Z-0.246295
G01 X138.997042 Y160.804890 Z-0.249992
G01 X138.497537 Y161.800712 Z-0.249992
G01 X138.393594 Y162.108334 Z-0.249992
G01 X137.832395 Y163.769296 Z-0.249992
G01 X137.430962 Y164.957395 Z-0.249992
G01 X137.404546 Y165.093709 Z-0.249992
G01 X137.396842 Y166.007262 Z-0.249992
G01 X137.389024 Y166.935745 Z-0.249992
G01 X137.394443 Y166.965576 Z-0.249992
G01 X137.646975 Y167.426417 Z-0.249992
G01 X138.030402 Y168.126045 Z-0.249992
G01 X138.439512 Y168.508880 Z-0.249992
G01 X139.257956 Y168.929927 Z-0.249992
G01 X139.669408 Y169.141594 Z-0.249992
G01 X139.788675 Y169.218104 Z-0.249992
G01 X141.088534 Y170.051817 Z-0.249992
G01 X141.166823 Y170.105044 Z-0.249992
G01 X142.409221 Y170.949876 Z-0.249992
G01 X142.524791 Y171.028475 Z-0.249992
G01 X144.858572 Y172.615439 Z-0.249992
G01 X146.142118 Y173.488239 Z-0.249992
G01 X146.665245 Y173.852165 Z-0.249992
G01 X150.140332 Y176.269765 Z-0.249992
G01 X151.832339 Y177.446858 Z-0.249992
G01 X152.163414 Y177.737688 Z-0.249992
G01 X154.254681 Y179.574559 Z-0.249992
G01 X151.779225 Y178.180184 Z-0.249992
G01 X151.558160 Y178.055639 Z-0.249992
G01 X151.461527 Y177.990418 Z-0.249992
G01 X150.202506 Y177.140562 Z-0.249992
G01 X150.065176 Y177.045594 Z-0.249992
G01 X148.768394 Y176.148777 Z-0.249992
G01 X148.426171 Y175.912105 Z-0.249992
G01 X147.265560 Y175.109465 Z-0.249992
G01 X145.765408 Y174.071960 Z-0.249992
G01 X145.285461 Y173.758044 Z-0.249992
G01 X144.855834 Y173.491880 Z-0.249992
G01 X143.656277 Y172.748676 Z-0.249992
G01 X142.024496 Y171.737700 Z-0.249992
G01 X141.623035 Y171.488977 Z-0.249992
G01 X140.423477 Y170.745801 Z-0.249992
G01 X138.826241 Y169.756189 Z-0.249992
G01 X138.535298 Y169.589876 Z-0.249992
G01 X137.021176 Y168.724272 Z-0.249992
G01 X136.522574 Y168.472897 Z-0.249992
G01 X134.758092 Y167.583360 Z-0.249992
G01 X134.398682 Y167.402145 Z-0.249992
G01 X132.784286 Y166.588273 Z-0.249992
G01 X132.661463 Y166.533240 Z-0.249992
G01 X131.255573 Y165.903122 Z-0.249992
G01 X131.245498 Y165.899623 Z-0.249992
G01 X129.912901 Y165.435480 Z-0.249992
G01 X128.574575 Y164.969333 Z-0.249992
G01 X127.442130 Y164.725211 Z-0.249992
G01 X126.241670 Y164.611758 Z-0.249992
G01 X125.195754 Y164.314013 Z-0.051985
G01 X125.195754 Y164.314013 Z-0.051985
G01 X125.194964 Y164.629115 Z-0.249992
G01 X124.922902 Y164.765625 Z-0.124799
G01 X124.922902 Y164.765625 Z-0.124799
G01 X125.349198 Y164.873604 Z-0.249992
G01 X125.743519 Y165.108215 Z-0.249992
G01 X126.185931 Y165.526892 Z-0.249992
G01 X127.819885 Y167.073018 Z-0.249992
G01 X127.571275 Y167.321571 Z-0.249992
G01 X127.377388 Y167.515514 Z-0.249992
G01 X126.042731 Y166.726618 Z-0.249992
G01 X124.971585 Y166.002521 Z-0.249992
G01 X124.112980 Y165.422103 Z-0.249992
G01 X123.480153 Y165.121141 Z-0.249992
G01 X122.702405 Y165.024734 Z-0.249992
G01 X122.633233 Y165.085045 Z-0.249992
G01 X122.643618 Y165.451369 Z-0.249992
G01 X122.660326 Y166.041044 Z-0.249992
G01 X122.856047 Y166.278393 Z-0.249992
G01 X123.154892 Y166.586015 Z-0.249992
G01 X125.121332 Y168.610367 Z-0.249992
G01 X126.410495 Y169.937432 Z-0.249992
G01 X126.742219 Y170.278949 Z-0.249992
G01 X127.725453 Y171.291111 Z-0.249992
G01 X129.099113 Y172.705214 Z-0.249992
G01 X129.173027 Y173.314080 Z-0.249992
G01 X129.241466 Y173.877988 Z-0.249992
G01 X129.481637 Y175.856733 Z-0.249992
G01 X129.487028 Y176.536663 Z-0.249992
G01 X129.503594 Y178.625672 Z-0.249992
G01 X129.494817 Y178.724195 Z-0.249992
G01 X129.119123 Y182.940821 Z-0.249992
G01 X128.985237 Y184.443514 Z-0.249992
G01 X128.959300 Y184.590608 Z-0.249992
G01 X128.714331 Y185.980298 Z-0.249992
G01 X128.443596 Y187.516152 Z-0.249992
G01 X128.387518 Y187.733378 Z-0.249992
G01 X128.034797 Y189.099672 Z-0.249992
G01 X127.628453 Y190.673767 Z-0.249992
G01 X127.494257 Y191.193507 Z-0.249992
G01 X127.141535 Y192.559830 Z-0.249992
G01 X126.652501 Y194.454162 Z-0.249992
G01 X126.593121 Y194.632808 Z-0.249992
G01 X125.257645 Y198.649959 Z-0.249992
G01 X124.732515 Y200.229529 Z-0.249992
G01 X124.292869 Y200.582307 Z-0.249992
G01 X123.850457 Y200.937258 Z-0.249992
G01 X123.393624 Y201.246573 Z-0.249992
G01 X121.056683 Y202.828880 Z-0.249992
G01 X119.438703 Y203.924411 Z-0.249992
G01 X119.386802 Y203.958785 Z-0.249992
G01 X117.033633 Y205.516849 Z-0.249992
G01 X115.806221 Y206.329537 Z-0.249992
G01 X115.296189 Y206.667244 Z-0.249992
G01 X111.766435 Y209.004326 Z-0.249992
G01 X110.084673 Y210.117834 Z-0.249992
G01 X110.000260 Y210.179584 Z-0.249992
G01 X108.861437 Y211.012817 Z-0.249992
G01 X107.652764 Y211.897160 Z-0.249992
G01 X107.572387 Y211.983718 Z-0.249992
G01 X106.515550 Y213.121835 Z-0.249992
G01 X106.158736 Y213.506109 Z-0.249992
G01 X106.016553 Y213.689299 Z-0.249992
G01 X105.986242 Y213.894165 Z-0.249992
G01 X106.018754 Y213.929612 Z-0.249992
G01 X106.273629 Y214.106170 Z-0.249992
G01 X106.587686 Y214.323735 Z-0.249992
G01 X106.643030 Y214.337903 Z-0.249992
G01 X107.163560 Y214.327432 Z-0.249992
G01 X108.008788 Y214.310386 Z-0.249992
G01 X109.058033 Y214.042416 Z-0.249992
G01 X109.559542 Y213.870599 Z-0.249992
G01 X111.405473 Y213.238139 Z-0.249992
G01 X111.673979 Y213.146135 Z-0.249992
G01 X114.343858 Y212.231368 Z-0.249992
G01 X115.948404 Y211.681599 Z-0.249992
G01 X116.532548 Y211.487571 Z-0.249992
G01 X118.471386 Y210.843625 Z-0.249992
G01 X118.807598 Y210.782185 Z-0.249992
G01 X119.403284 Y210.890389 Z-0.036520
G01 X118.876968 Y211.425228 Z-0.249992
G01 X117.765802 Y212.039428 Z-0.249992
G01 X117.316843 Y212.204669 Z-0.249992
G01 X114.668329 Y213.179578 Z-0.249992
G01 X112.905258 Y213.828548 Z-0.249992
G01 X112.873283 Y213.837974 Z-0.249992
G01 X111.519745 Y214.236923 Z-0.249992
G01 X110.142162 Y214.642928 Z-0.249992
G01 X109.299926 Y214.891199 Z-0.249992
G01 X108.627475 Y214.972649 Z-0.099850
G01 X108.604276 Y214.956308 Z-0.076680
G01 X108.627475 Y214.972649 Z-0.099850
G01 X109.122295 Y215.308295 Z-0.249992
G01 X109.620305 Y215.821517 Z-0.249992
G01 X110.610651 Y216.842117 Z-0.249992
G01 X111.189940 Y217.646704 Z-0.249992
G01 X111.189940 Y218.077629 Z-0.249992
G01 X111.189940 Y218.471188 Z-0.249992
G01 X110.222962 Y219.230027 Z-0.249992
G01 X110.048379 Y219.349238 Z-0.249992
G01 X108.882971 Y220.144907 Z-0.249992
G01 X107.549838 Y221.055074 Z-0.249992
G01 X106.486368 Y221.781147 Z-0.249992
G01 X106.328916 Y221.895306 Z-0.249992
G01 X105.030214 Y222.836968 Z-0.249992
G01 X104.312382 Y223.402401 Z-0.249992
G01 X103.589498 Y223.971784 Z-0.249992
G01 X102.635192 Y224.705703 Z-0.249992
G01 X102.192357 Y225.032742 Z-0.249992
G01 X102.137465 Y225.073297 Z-0.249992
G01 X100.956985 Y225.945110 Z-0.249992
G01 X100.482513 Y226.370504 Z-0.249992
G01 X99.031637 Y227.671266 Z-0.249992
G01 X99.031637 Y227.756299 Z-0.249992
G01 X99.031637 Y227.812546 Z-0.249992
G01 X99.109107 Y228.052463 Z-0.249992
G01 X99.218214 Y228.299126 Z-0.249992
G01 X99.467501 Y228.862667 Z-0.249992
G01 X99.704116 Y229.704564 Z-0.249992
G01 X99.705951 Y230.058245 Z-0.249992
G01 X99.707334 Y230.357626 Z-0.249992
G01 X99.475714 Y230.548606 Z-0.249992
G01 X98.957046 Y230.783246 Z-0.249992
G01 X98.618605 Y230.936323 Z-0.249992
G01 X98.155196 Y231.113784 Z-0.249992
G01 X97.931083 Y231.175280 Z-0.249992
G01 X96.546981 Y231.555123 Z-0.249992
G01 X97.667911 Y230.527863 Z-0.249992
G01 X97.847263 Y230.363468 Z-0.249992
G01 X97.990350 Y230.171331 Z-0.249992
G01 X98.009965 Y230.093184 Z-0.249992
G01 X98.069429 Y229.856258 Z-0.249992
G01 X97.854799 Y229.239716 Z-0.249992
G01 X97.334550 Y228.268392 Z-0.249992
G01 X97.117267 Y227.862725 Z-0.249992
G01 X96.243874 Y226.232102 Z-0.249992
G01 X96.055463 Y225.990971 Z-0.249992
G01 X95.014176 Y224.658402 Z-0.249992
G01 X94.119559 Y224.131748 Z-0.249992
G01 X93.762577 Y223.921577 Z-0.249992
G01 X93.706753 Y223.911784 Z-0.249992
G01 X92.849842 Y223.920815 Z-0.249992
G01 X91.988161 Y223.929902 Z-0.249992
G01 X91.841236 Y223.959818 Z-0.249992
G01 X90.661462 Y224.368730 Z-0.249992
G01 X89.941485 Y224.618270 Z-0.249992
G01 X89.799669 Y224.662777 Z-0.249992
G01 X88.312978 Y225.129177 Z-0.249992
G01 X87.043797 Y225.503743 Z-0.249992
G01 X86.643662 Y225.621824 Z-0.249992
G01 X85.290237 Y226.021225 Z-0.249992
G01 X83.550619 Y226.534616 Z-0.249992
G01 X82.506312 Y226.979652 Z-0.249992
G01 X81.941868 Y227.650466 Z-0.249992
G01 X81.681828 Y227.959528 Z-0.249992
G01 X81.690352 Y228.154233 Z-0.249992
G01 X82.069432 Y229.279170 Z-0.249992
G01 X82.157514 Y229.540480 Z-0.249992
G01 X82.688910 Y231.117481 Z-0.249992
G01 X82.709117 Y231.153860 Z-0.249992
G01 X83.404739 Y232.407717 Z-0.249992
G01 X84.186014 Y233.113583 Z-0.249992
G01 X84.656902 Y233.538976 Z-0.249992
G01 X85.007563 Y233.732637 Z-0.249992
G01 X86.197215 Y233.813240 Z-0.249992
G01 X87.010551 Y233.671649 Z-0.249992
G01 X88.347551 Y233.353105 Z-0.249992
G01 X88.862973 Y233.230310 Z-0.249992
G01 X90.743279 Y233.038060 Z-0.001214
G01 X90.743279 Y233.038060 Z-0.001214
G01 X90.804408 Y233.328495 Z-0.249992
G01 X90.563362 Y233.568948 Z-0.249992
G01 X90.118467 Y233.681357 Z-0.249992
G01 X88.750338 Y234.026938 Z-0.249992
G01 X86.990937 Y234.471382 Z-0.249992
G01 X85.693279 Y234.654375 Z-0.249992
G01 X84.530918 Y234.818290 Z-0.249992
G01 X84.086051 Y234.834292 Z-0.249992
G01 X82.174052 Y234.902984 Z-0.249992
G01 X81.910146 Y234.755298 Z-0.249992
G01 X81.438468 Y234.491335 Z-0.249992
G01 X81.802902 Y234.193365 Z-0.249992
G01 X82.224457 Y234.087786 Z-0.249992
G01 X82.885478 Y234.057249 Z-0.119013
G01 X82.885478 Y234.057249 Z-0.119013
G01 X82.725006 Y233.703427 Z-0.249992
G01 X82.671751 Y233.054796 Z-0.249992
G01 X82.343978 Y232.228872 Z-0.249992
G01 X82.247317 Y232.067216 Z-0.249992
G01 X81.426812 Y230.695220 Z-0.249992
G01 X80.879414 Y230.054632 Z-0.249992
G01 X80.380050 Y229.769588 Z-0.249992
G01 X79.990894 Y229.547479 Z-0.249992
G01 X79.136636 Y229.257750 Z-0.249992
G01 X79.043107 Y229.231729 Z-0.249992
G01 X77.583454 Y228.825555 Z-0.249992
G01 X76.356408 Y228.484122 Z-0.249992
G01 X76.099106 Y228.384328 Z-0.249992
G01 X73.467892 Y227.363728 Z-0.249992
G01 X71.896986 Y226.754439 Z-0.249992
G01 X71.834164 Y226.723987 Z-0.249992
G01 X70.510598 Y226.082609 Z-0.249992
G01 X69.899700 Y225.786586 Z-0.249992
G01 X69.118283 Y225.332152 Z-0.249992
G01 X68.779616 Y225.074567 Z-0.249992
G01 X68.453057 Y224.826212 Z-0.249992
G01 X67.975988 Y224.461806 Z-0.249992
G01 X67.719561 Y224.264872 Z-0.249992
G01 X67.212098 Y223.875123 Z-0.249992
G01 X67.046885 Y223.859036 Z-0.249992
G01 X66.896686 Y224.088285 Z-0.249992
G01 X66.820147 Y224.205069 Z-0.249992
G01 X66.803496 Y224.292501 Z-0.249992
G01 X66.831521 Y224.432738 Z-0.249992
G01 X66.955981 Y225.054953 Z-0.249992
G01 X67.234196 Y225.635315 Z-0.249992
G01 X68.127147 Y227.498010 Z-0.249992
G01 X68.696784 Y228.313321 Z-0.249992
G01 X69.249093 Y229.103854 Z-0.249992
G01 X69.388595 Y229.267797 Z-0.249992
G01 X70.439252 Y230.502463 Z-0.249992
G01 X70.935230 Y230.945636 Z-0.249992
G01 X71.104337 Y231.096738 Z-0.249992
G01 X72.299153 Y232.164385 Z-0.249992
G01 X72.604292 Y232.310576 Z-0.249992
G01 X74.195545 Y233.072914 Z-0.249992
G01 X74.345772 Y233.116490 Z-0.249992
G01 X75.700975 Y233.509710 Z-0.249992
G01 X77.226189 Y233.952262 Z-0.249992
G01 X77.379351 Y233.996684 Z-0.249992
G01 X77.595448 Y234.280430 Z-0.249992
G01 X77.408278 Y234.467600 Z-0.249992
G01 X77.298861 Y234.577018 Z-0.249992
G01 X76.332109 Y234.544421 Z-0.249992
G01 X75.316701 Y234.476264 Z-0.249992
G01 X74.310325 Y234.408700 Z-0.249992
G01 X73.518551 Y234.272810 Z-0.136200
G01 X73.514346 Y234.262312 Z-0.125843
G01 X73.518551 Y234.272810 Z-0.136200
G01 X73.405267 Y234.250063 Z-0.078938
G01 X74.608154 Y235.070766 Z-0.249992
G01 X74.781918 Y235.199092 Z-0.249992
G01 X76.098937 Y236.171714 Z-0.249992
G01 X76.838331 Y236.717758 Z-0.249992
G01 X76.943515 Y236.798756 Z-0.249992
G01 X78.166327 Y237.740503 Z-0.249992
G01 X79.049260 Y238.443857 Z-0.249992
G01 X79.377794 Y238.705562 Z-0.249992
G01 X80.797767 Y239.836709 Z-0.249992
G01 X81.342654 Y240.168828 Z-0.249992
G01 X82.247289 Y240.403270 Z-0.249992
G01 X83.282226 Y240.671494 Z-0.249992
G01 X84.340080 Y240.443176 Z-0.249992
G01 X84.428528 Y240.407927 Z-0.249992
G01 X85.739309 Y239.885279 Z-0.249992
G01 X87.157927 Y239.319649 Z-0.249992
G01 X87.460667 Y239.198943 Z-0.249992
G01 X89.093549 Y238.547884 Z-0.249992
G01 X89.946678 Y238.363452 Z-0.249992
G01 X90.597257 Y238.614602 Z-0.249992
G01 X91.302135 Y238.886749 Z-0.249992
G01 X90.976705 Y239.328116 Z-0.249992
G01 X90.271883 Y239.484524 Z-0.249992
G01 X89.977158 Y239.549943 Z-0.249992
G01 X89.265168 Y239.773181 Z-0.249992
G01 X88.686443 Y239.982392 Z-0.249992
G01 X88.617524 Y240.007284 Z-0.249992
G01 X85.963394 Y240.966670 Z-0.249992
G01 X84.552282 Y241.476759 Z-0.249992
G01 X83.606358 Y241.670532 Z-0.234414
G01 X82.288126 Y241.378122 Z-0.249992
G01 X81.935490 Y241.295628 Z-0.249992
G01 X81.705620 Y241.261762 Z-0.249992
G01 X81.680304 Y241.139221 Z-0.132447
G01 X81.599391 Y241.327407 Z-0.249992
G01 X81.618470 Y241.677616 Z-0.249992
G01 X81.719928 Y243.539069 Z-0.249992
G01 X82.018012 Y244.208416 Z-0.249992
G01 X82.316151 Y244.877931 Z-0.249992
G01 X82.365653 Y244.915636 Z-0.249992
G01 X83.551635 Y245.818889 Z-0.249992
G01 X84.528406 Y246.102861 Z-0.249992
G01 X85.033358 Y246.249644 Z-0.249992
G01 X85.052098 Y246.249616 Z-0.249992
G01 X85.879432 Y246.093801 Z-0.249992
G01 X86.524028 Y245.972389 Z-0.249992
G01 X87.014163 Y245.939454 Z-0.249992
G01 X87.473593 Y245.988645 Z-0.249992
G01 X88.236270 Y246.070320 Z-0.249992
G01 X88.770969 Y246.576966 Z-0.249992
G01 X87.807688 Y246.775932 Z-0.249992
G01 X87.664093 Y246.805566 Z-0.249992
G01 X87.268530 Y246.991183 Z-0.249992
G01 X86.921849 Y247.197798 Z-0.249992
G01 X86.186801 Y247.635863 Z-0.249992
G01 X85.388507 Y247.457866 Z-0.249992
G01 X85.331385 Y247.445138 Z-0.249992
G01 X83.861092 Y247.117280 Z-0.249992
G01 X83.295152 Y246.799526 Z-0.249992
G01 X82.064748 Y246.108646 Z-0.249992
G01 X80.286917 Y245.110398 Z-0.249992
G01 X79.981976 Y244.885213 Z-0.249992
G01 X78.846765 Y244.047041 Z-0.249992
G01 X77.419088 Y242.992969 Z-0.249992
G01 X76.916365 Y242.621762 Z-0.249992
G01 X76.320622 Y242.117403 Z-0.249992
G01 X76.541800 Y241.896254 Z-0.249992
G01 X76.702949 Y241.735105 Z-0.249992
G01 X77.948875 Y242.412353 Z-0.249992
G01 X77.985762 Y242.433689 Z-0.249992
G01 X79.241312 Y243.159875 Z-0.249992
G01 X79.275348 Y243.179546 Z-0.249992
G01 X80.526467 Y243.903192 Z-0.249992
G01 X81.478770 Y244.564665 Z-0.107019
G01 X81.482269 Y244.588400 Z-0.087658
G01 X81.478770 Y244.564665 Z-0.107019
G01 X81.307545 Y244.253543 Z-0.249992
G01 X81.220988 Y243.826287 Z-0.249992
G01 X81.130451 Y243.379501 Z-0.249992
G01 X81.029952 Y242.484405 Z-0.249992
G01 X80.997637 Y241.841418 Z-0.249992
G01 X80.945990 Y240.814609 Z-0.249992
G01 X81.189238 Y240.673780 Z0.000000
G01 X80.945990 Y240.814609 Z-0.249992
G01 X80.562648 Y240.568172 Z-0.249992
G01 X80.292336 Y240.394408 Z-0.249992
G01 X79.615200 Y239.958713 Z-0.249992
G01 X79.057924 Y239.599981 Z-0.249992
G01 X78.891610 Y239.492934 Z-0.249992
G01 X77.530876 Y238.617029 Z-0.249992
G01 X77.424534 Y238.536652 Z-0.249992
G01 X76.191110 Y237.604303 Z-0.249992
G01 X75.961636 Y237.396136 Z-0.249992
G01 X74.916426 Y236.448095 Z-0.249992
G01 X73.642277 Y235.292366 Z-0.249992
G01 X73.511580 Y235.152187 Z-0.249992
G01 X72.420339 Y233.981896 Z-0.249992
G01 X72.217619 Y233.735205 Z-0.249992
G01 X71.123923 Y232.404358 Z-0.249992
G01 X70.429713 Y231.559639 Z-0.249992
G01 X70.366749 Y231.487277 Z-0.249992
G01 X69.377899 Y230.351220 Z-0.249992
G01 X68.785374 Y229.717603 Z-0.249992
G01 X68.447920 Y229.356725 Z-0.249992
G01 X67.129519 Y227.946884 Z-0.249992
G01 X66.943563 Y227.644991 Z-0.249992
G01 X66.014121 Y226.136344 Z-0.249992
G01 X65.927732 Y225.859653 Z-0.249992
G01 X65.430090 Y224.265916 Z-0.249992
G01 X65.232760 Y223.633992 Z-0.249992
G01 X65.192741 Y223.274723 Z-0.249992
G01 X65.192741 Y222.162852 Z-0.249992
G01 X65.192741 Y220.865110 Z-0.249992
G01 X65.208433 Y220.767941 Z-0.249992
G01 X65.532734 Y220.109347 Z-0.249992
G01 X65.788766 Y219.589353 Z-0.249992
G01 X66.089643 Y219.201466 Z-0.249992
G01 X66.930581 Y218.682036 Z-0.249992
G01 X67.493078 Y218.523540 Z-0.249992
G01 X68.266790 Y218.398064 Z-0.249992
G01 X68.358484 Y218.383191 Z-0.249992
G01 X69.864450 Y218.138956 Z-0.249992
G01 X70.104311 Y218.141863 Z-0.249992
G01 X75.748360 Y218.210528 Z-0.249992
G01 X77.396792 Y218.230565 Z-0.249992
G01 X77.605128 Y218.265448 Z-0.249992
G01 X79.186222 Y218.530116 Z-0.249992
G01 X79.686320 Y218.613823 Z-0.249992
G01 X79.917827 Y218.903722 Z-0.249992
G01 X80.053547 Y219.557066 Z-0.249992
G01 X80.260275 Y220.552323 Z-0.249992
G01 X79.623525 Y219.965668 Z-0.249992
G01 X79.428086 Y219.575016 Z-0.249992
G01 X79.433251 Y219.030694 Z-0.001863
G01 X79.433251 Y219.030694 Z-0.001863
G01 X78.781798 Y219.213404 Z-0.249992
G01 X78.446433 Y219.179086 Z-0.249992
G01 X77.934764 Y219.166443 Z-0.249992
G01 X76.003997 Y219.118719 Z-0.249992
G01 X75.383927 Y219.109631 Z-0.249992
G01 X73.351644 Y219.079913 Z-0.249992
G01 X72.971858 Y219.074382 Z-0.249992
G01 X71.560888 Y219.053751 Z-0.249992
G01 X69.774591 Y219.027617 Z-0.249992
G01 X68.421392 Y219.038568 Z-0.249992
G01 X68.052386 Y219.117872 Z-0.249992
G01 X67.528892 Y219.230366 Z-0.249992
G01 X67.060234 Y219.502569 Z-0.249992
G01 X66.329335 Y220.228388 Z-0.249992
G01 X66.126981 Y220.606707 Z-0.249992
G01 X66.126981 Y220.981555 Z-0.249992
G01 X66.126981 Y221.525030 Z-0.249992
G01 X66.384932 Y221.958100 Z-0.249992
G01 X67.246952 Y222.808774 Z-0.249992
G01 X67.545007 Y223.102935 Z-0.249992
G01 X68.824969 Y224.366077 Z-0.249992
G01 X69.124746 Y224.540716 Z-0.249992
G01 X70.344030 Y225.251069 Z-0.249992
G01 X71.868990 Y226.139505 Z-0.249992
G01 X71.861088 Y226.136795 Z-0.249992
G01 X73.195858 Y226.594644 Z-0.249992
G01 X74.546094 Y227.057771 Z-0.249992
G01 X74.880724 Y227.172551 Z-0.249992
G01 X76.540191 Y227.741765 Z-0.249992
G01 X77.061230 Y227.872942 Z-0.249992
G01 X78.429641 Y228.217507 Z-0.249992
G01 X80.196098 Y228.677190 Z-0.235571
G01 X80.348865 Y228.726974 Z-0.092371
G01 X80.196098 Y228.677190 Z-0.235571
G01 X80.158675 Y228.531507 Z-0.249992
G01 X80.075674 Y228.235626 Z-0.249992
G01 X79.984205 Y227.909687 Z-0.249992
G01 X79.908175 Y227.377896 Z-0.249992
G01 X79.908175 Y227.061638 Z-0.249992
G01 X79.908175 Y226.520138 Z-0.249992
G01 X79.975259 Y226.348349 Z-0.249992
G01 X80.355130 Y225.909437 Z-0.249992
G01 X80.680419 Y225.533574 Z-0.249992
G01 X80.930130 Y225.627074 Z0.000000
G01 X80.680419 Y225.533574 Z-0.249992
G01 X80.683072 Y224.691338 Z-0.249992
G01 X80.684878 Y224.117608 Z-0.249992
G01 X80.773412 Y223.455487 Z-0.249992
G01 X81.300038 Y223.792065 Z-0.249992
G01 X81.401356 Y224.230187 Z-0.249992
G01 X81.487462 Y224.853982 Z-0.249992
G01 X81.547067 Y225.285952 Z-0.249992
G01 X81.497904 Y225.664412 Z-0.127734
G01 X81.484104 Y225.705193 Z-0.090904
G01 X81.497904 Y225.664412 Z-0.127734
G01 X81.489240 Y225.690009 Z-0.104620
G01 X82.893888 Y225.228830 Z-0.249992
G01 X83.105922 Y225.175800 Z-0.249992
G01 X84.690120 Y224.779589 Z-0.249992
G01 X84.905371 Y224.725741 Z-0.249992
G01 X86.490895 Y224.329190 Z-0.249992
G01 X87.132725 Y224.176198 Z-0.249992
G01 X89.147538 Y223.695884 Z-0.249992
G01 X89.182646 Y223.688010 Z-0.249992
G01 X90.593108 Y223.372344 Z-0.249992
G01 X91.032500 Y223.274018 Z-0.249992
G01 X92.409547 Y222.965831 Z-0.249992
G01 X94.215402 Y222.561661 Z-0.249992
G01 X94.246842 Y222.551698 Z-0.249992
G01 X95.568206 Y222.132909 Z-0.249992
G01 X95.941191 Y221.713329 Z-0.249992
G01 X96.067344 Y221.571399 Z-0.249992
G01 X96.072227 Y221.499517 Z-0.249992
G01 X96.077250 Y220.816455 Z-0.249992
G01 X96.092801 Y218.714774 Z-0.249992
G01 X96.097260 Y218.108899 Z-0.249992
G01 X96.112218 Y216.085451 Z-0.249992
G01 X96.138097 Y215.651393 Z-0.249992
G01 X96.320074 Y214.988058 Z-0.249992
G01 X96.329162 Y214.954925 Z-0.249992
G01 X96.722693 Y213.520531 Z-0.249992
G01 X97.355322 Y212.595914 Z-0.249992
G01 X97.656735 Y212.316796 Z-0.249992
G01 X98.972850 Y211.097907 Z-0.249992
G01 X99.312646 Y210.783201 Z-0.249992
G01 X100.347950 Y209.824379 Z-0.249992
G01 X101.731093 Y208.543401 Z-0.249992
G01 X101.995591 Y208.338310 Z-0.249992
G01 X104.225824 Y206.608880 Z-0.249992
G01 X105.618027 Y205.529295 Z-0.249992
G01 X105.700407 Y205.489982 Z-0.249992
G01 X107.032016 Y204.854474 Z-0.249992
G01 X108.264283 Y204.266351 Z-0.249992
G01 X109.036838 Y204.125183 Z-0.249992
G01 X109.341751 Y204.124111 Z-0.249992
G01 X111.035564 Y204.118100 Z-0.249992
G01 X111.222593 Y204.117422 Z-0.249992
G01 X112.765643 Y204.111947 Z-0.249992
G01 X112.821608 Y204.361742 Z0.000000
G01 X112.765643 Y204.111947 Z-0.249992
G01 X113.438602 Y203.797523 Z-0.249992
G01 X113.534981 Y203.752481 Z-0.249992
G01 X114.880616 Y203.123746 Z-0.249992
G01 X114.939544 Y203.074752 Z-0.249992
G01 X116.024576 Y202.172516 Z-0.249992
G01 X117.184396 Y201.208078 Z-0.249992
G01 X117.252864 Y201.139498 Z-0.249992
G01 X119.246453 Y199.141873 Z-0.249992
G01 X120.319885 Y198.066267 Z-0.249992
G01 X120.465343 Y197.920528 Z-0.249992
G01 X121.462152 Y196.921715 Z-0.249992
G01 X122.598519 Y195.783061 Z-0.249992
G01 X122.648501 Y195.725855 Z-0.249992
G01 X123.614124 Y194.620390 Z-0.249992
G01 X124.071973 Y193.779114 Z-0.249992
G01 X124.368617 Y193.234115 Z-0.249992
G01 X124.423312 Y193.017622 Z-0.249992
G01 X124.827228 Y191.418184 Z-0.249992
G01 X124.970992 Y190.196077 Z-0.249992
G01 X125.030315 Y189.691774 Z-0.249992
G01 X125.117889 Y188.953312 Z-0.249992
G01 X125.165585 Y188.555124 Z-0.249992
G01 X125.212067 Y188.167323 Z-0.249992
G01 X125.219320 Y187.970812 Z-0.249992
G01 X125.278953 Y186.356105 Z-0.249992
G01 X125.282876 Y186.148305 Z-0.249992
G01 X125.313525 Y184.527390 Z-0.249992
G01 X125.315727 Y184.411143 Z-0.249992
G01 X125.342397 Y183.000286 Z-0.249992
G01 X125.371155 Y181.479136 Z-0.249992
G01 X125.359697 Y181.082557 Z-0.249992
G01 X125.351992 Y181.019819 Z-0.249992
G01 X125.170354 Y179.544954 Z-0.249992
G01 X125.107475 Y179.034273 Z-0.249992
G01 X124.872977 Y177.129922 Z-0.249992
G01 X124.830022 Y176.890711 Z-0.249992
G01 X124.538543 Y175.266945 Z-0.249992
G01 X124.531572 Y175.241658 Z-0.249992
G01 X124.147722 Y173.844771 Z-0.249992
G01 X124.070957 Y173.565314 Z-0.249992
G01 X123.622704 Y171.934070 Z-0.249992
G01 X123.406776 Y171.327066 Z-0.249992
G01 X122.933856 Y169.997546 Z-0.249992
G01 X122.245092 Y168.061275 Z-0.249992
G01 X122.142392 Y167.829684 Z-0.249992
G01 X121.463788 Y166.299475 Z-0.249992
G01 X120.932195 Y165.100708 Z-0.249992
G01 X120.637160 Y164.351154 Z-0.249992
G01 X120.484364 Y163.315935 Z-0.249992
G01 X120.754000 Y162.999733 Z-0.249992
G01 X121.157295 Y162.866637 Z-0.249992
G01 X121.680281 Y162.694001 Z-0.249992
G01 X121.910800 Y162.706504 Z-0.249992
G01 X123.519015 Y162.793626 Z-0.249992
G01 X123.557990 Y162.800738 Z-0.249992
G01 X124.969666 Y163.057983 Z-0.249992
G01 X125.142894 Y163.089536 Z-0.249992
G01 X126.722633 Y163.377374 Z-0.249992
G01 X126.836368 Y163.416180 Z-0.249992
G01 X129.507461 Y164.327278 Z-0.249992
G01 X130.951535 Y164.819840 Z-0.249992
G01 X131.455330 Y165.053012 Z-0.249992
G01 X133.227855 Y165.873348 Z-0.249992
G01 X133.346868 Y165.928437 Z-0.249992
