%
(Header)
(Generated by gcodetools from Inkscape.)
(Using default header. To add your own header create file "header" in the output dir.)
M3
(Header end.)
G21 (All units in mm)
(Tool diameter should be at least 10.0 mm)
(Depth, as a function of radius w, must be 10)
(Rapid feeds use safe Z=5.0 mm)
(Material surface at Z=0.0 mm)
(Change tool to Cylindrical cutter)

G00 Z5.000000
G00 X421.436746 Y155.908146

G01 Z-1.600990 F100.0(Penetrate)
G01 X420.770532 Y157.368561 Z-2.366151 F400.000000
G01 X419.730600 Y158.333253 Z-2.510451
G01 X418.387589 Y158.895891 Z-2.151295
G01 X417.034785 Y159.445519 Z-1.775855
G01 X415.796563 Y160.147152 Z-1.590746
G01 X414.562603 Y160.854457 Z-1.412776
G01 X412.967850 Y161.989414 Z-1.359069
G01 X412.413650 Y162.383819 Z-1.340414
G01 X411.275730 Y163.218520 Z-1.321985
G01 X409.021847 Y164.917018 Z-1.321534
G01 X407.343838 Y166.181543 Z-1.321195
G01 X406.932302 Y166.486766 Z-1.325005
G01 X405.798897 Y167.327421 Z-1.335532
G01 X404.177220 Y168.538917 Z-1.357630
G01 X403.587460 Y168.921949 Z-1.433435
G01 X402.410565 Y169.721682 Z-1.616258
G01 X400.633130 Y170.946583 Z-1.907653
G01 X399.445426 Y171.725036 Z-2.269942
G01 X398.959242 Y172.052781 Z-2.507827
G01 X396.964721 Y171.761245 Z-1.872770
G01 X395.691645 Y171.534508 Z-1.603361
G01 X394.290411 Y171.490566 Z-1.559419
G01 X394.127654 Y171.490566 Z-1.559419
G01 X392.716543 Y171.519748 Z-1.588601
G01 X391.305431 Y171.770531 Z-1.839383
G01 X391.028007 Y171.901651 Z-1.970532
G01 X389.731563 Y169.931147 Z0.000000
G01 X391.028007 Y171.901651 Z-1.970532
G01 X389.885035 Y170.164404 Z-0.233257
G01 X390.887065 Y172.132904 Z-1.932630
G01 X390.145413 Y173.349846 Z-1.733240
G01 X389.567225 Y174.637231 Z-1.711819
G01 X389.089902 Y175.968106 Z-1.800267
G01 X388.634198 Y177.308295 Z-1.912253
G01 X388.128936 Y178.794223 Z-2.036403
G01 X387.914842 Y179.423833 Z-2.089009
G01 X387.521960 Y180.791115 Z-2.269405
G01 X387.262824 Y182.216027 Z-2.595428
G01 X387.161760 Y184.452864 Z-3.387993
G01 X387.159361 Y184.500108 Z-3.405011
G01 X387.441075 Y186.170129 Z-4.341566
G01 X385.931215 Y187.763951 Z-3.610412
G01 X385.054774 Y188.287219 Z-3.342527
G01 X383.290038 Y190.504498 Z-3.610695
G01 X380.848251 Y189.462562 Z-2.033806
G01 X379.260723 Y188.183616 Z-1.399258
G01 X378.545882 Y187.471992 Z-1.329238
G01 X377.805218 Y186.798017 Z-1.337479
G01 X377.275911 Y186.388964 Z-1.396661
G01 X377.231884 Y186.366217 Z-1.392089
G01 X375.973032 Y185.715413 Z-1.261646
G01 X374.438082 Y185.007261 Z-1.181693
G01 X373.913318 Y184.816817 Z-1.176528
G01 X372.578745 Y184.358206 Z-1.187676
G01 X371.233984 Y183.928551 Z-1.229529
G01 X369.889224 Y183.498896 Z-1.271355
G01 X368.544491 Y183.069213 Z-1.313180
G01 X367.201819 Y182.633603 Z-1.348684
G01 X365.319989 Y182.019910 Z-1.395504
G01 X365.066159 Y181.940691 Z-1.398411
G01 X362.371924 Y181.099809 Z-1.429314
G01 X361.024821 Y180.679383 Z-1.444752
G01 X359.418187 Y180.177959 Z-1.463181
G01 X359.366879 Y180.162408 Z-1.463350
G01 X358.017094 Y179.750900 Z-1.465382
G01 X355.317639 Y178.927573 Z-1.469136
G01 X352.618183 Y178.104275 Z-1.472890
G01 X351.268427 Y177.692625 Z-1.474752
G01 X349.918699 Y177.280948 Z-1.476643
G01 X348.568972 Y176.869298 Z-1.478506
G01 X347.167400 Y176.441816 Z-1.480453
G01 X346.710200 Y176.306152 Z-1.477490
G01 X344.004563 Y175.503230 Z-1.459907
G01 X342.651731 Y175.101797 Z-1.451130
G01 X340.840288 Y174.582762 Z-1.457142
G01 X340.181130 Y174.406599 Z-1.457650
G01 X337.454581 Y173.678014 Z-1.459710
G01 X334.728032 Y172.949429 Z-1.461770
G01 X333.359282 Y172.605626 Z-1.484009
G01 X331.948171 Y172.419811 Z-1.669796
G01 X329.842596 Y172.246978 Z-2.047946
G01 X329.657599 Y172.242632 Z-2.086412
G01 X328.348652 Y171.646720 Z-1.808593
G01 X326.998050 Y171.226547 Z-1.711367
G01 X325.437333 Y171.208429 Z-2.053872
G01 X324.979822 Y171.272832 Z-2.179913
G01 X322.981661 Y171.456191 Z-2.633416
G01 X322.661310 Y171.434291 Z-2.655316
G01 X321.250199 Y171.337856 Z-2.751751
G01 X319.583761 Y170.507501 Z-2.155839
G01 X319.016241 Y170.214950 Z-1.961416
G01 X317.686353 Y169.613986 Z-1.589278
G01 X314.914451 Y169.079203 Z-1.521460
G01 X312.142521 Y168.544420 Z-1.453614
G01 X310.756556 Y168.277015 Z-1.419719
G01 X308.796014 Y167.911396 Z-1.384187
G01 X308.719363 Y167.897397 Z-1.383905
G01 X305.942974 Y167.390752 Z-1.373914
G01 X303.166584 Y166.884107 Z-1.363952
G01 X300.390195 Y166.377461 Z-1.353961
G01 X298.932404 Y166.111439 Z-1.348712
G01 X298.301158 Y165.996236 Z-1.346454
G01 X295.524768 Y165.489590 Z-1.336463
G01 X294.136574 Y165.236268 Z-1.331468
G01 X292.745783 Y164.997367 Z-1.341148
G01 X289.961886 Y164.532744 Z-1.373858
G01 X287.177990 Y164.068150 Z-1.406567
G01 X285.786013 Y163.835825 Z-1.422936
G01 X284.352691 Y163.834921 Z-1.674368
G01 X282.900347 Y163.940247 Z-2.033722
G01 X281.345247 Y164.106730 Z-2.471364
G01 X281.237635 Y161.576918 Z0.000000
G01 X281.345247 Y164.106730 Z-2.471364
G01 X281.338614 Y163.950463 Z-2.318710
G01 X279.886920 Y163.985092 Z-1.976176
G01 X278.444059 Y164.052543 Z-1.667595
G01 X277.044349 Y164.281002 Z-1.525750
G01 X275.655816 Y164.551060 Z-1.426944
G01 X274.283030 Y164.879934 Z-1.389013
G01 X272.919304 Y165.242533 Z-1.386050
G01 X271.058896 Y165.749997 Z-1.394347
G01 X270.886571 Y165.797015 Z-1.395137
G01 X269.525187 Y166.168391 Z-1.401205
G01 X268.162336 Y166.534292 Z-1.401657
G01 X266.799485 Y166.900165 Z-1.402052
G01 X265.318608 Y167.294401 Z-1.399314
G01 X265.183791 Y167.336029 Z-1.393021
G01 X263.834148 Y167.752674 Z-1.330283
G01 X262.490064 Y168.184869 Z-1.284083
G01 X261.186678 Y168.730743 Z-1.358590
G01 X259.975549 Y169.349403 Z-1.532749
G01 X260.154930 Y169.215657 Z-1.541695
G01 X259.093972 Y170.206624 Z-1.644142
G01 X258.668550 Y170.718575 Z-1.774303
G01 X258.619104 Y170.824465 Z-1.823720
G01 X258.068630 Y170.825989 Z-1.330904
G01 X258.068630 Y170.825989 Z-1.330904
G01 X258.618512 Y170.955388 Z-1.824341
G01 X258.860038 Y172.685777 Z-1.582787
G01 X258.833763 Y172.580113 Z-1.609062
G01 X259.376391 Y173.889568 Z-1.475232
G01 X260.002981 Y175.221657 Z-1.405043
G01 X260.040686 Y175.298139 Z-1.402306
G01 X260.664962 Y176.564470 Z-1.357207
G01 X261.293104 Y177.828713 Z-1.316538
G01 X261.957934 Y179.073397 Z-1.317385
G01 X262.680790 Y180.385787 Z-1.337620
G01 X262.954630 Y180.870730 Z-1.351026
G01 X264.342740 Y183.328942 Z-1.418985
G01 X265.342343 Y185.003394 Z-1.512993
G01 X265.400933 Y185.098532 Z-1.516944
G01 X266.185256 Y186.275878 Z-1.617613
G01 X266.965432 Y187.438605 Z-1.721866
G01 X267.112102 Y187.621542 Z-1.719439
G01 X268.047387 Y188.679508 Z-1.772666
G01 X269.128016 Y189.618462 Z-2.013768
G01 X270.175907 Y190.715798 Z-2.129226
G01 X270.187901 Y190.744387 Z-2.113026
G01 X271.318907 Y192.011988 Z-1.744952
G01 X271.428324 Y192.122986 Z-1.708602
G01 X272.551908 Y192.988110 Z-1.568478
G01 X273.916988 Y193.862294 Z-1.548356
G01 X273.928954 Y193.869942 Z-1.548186
G01 X275.146235 Y194.584641 Z-1.585299
G01 X276.507450 Y195.198954 Z-1.783701
G01 X276.776379 Y195.302050 Z-1.855668
G01 X278.689027 Y195.864463 Z-2.506839
G01 X279.596767 Y196.208943 Z-2.932797
G01 X282.973753 Y197.186843 Z-4.725247
G01 X284.156011 Y199.698310 Z-4.999990
G01 X284.156011 Y201.628033 Z-4.999990
G01 X284.156011 Y201.658767 Z-4.999990
G01 X284.156011 Y202.501088 Z-4.999990
G01 X282.499027 Y202.362488 Z-3.422735
G01 X284.256566 Y203.387181 Z-4.888230
G01 X284.343773 Y204.512147 Z-4.707015
G01 X284.349559 Y204.549033 Z-4.698153
G01 X284.641771 Y206.397137 Z-4.255262
G01 X284.733973 Y206.799501 Z-4.185214
G01 X285.236668 Y208.993299 Z-3.803283
G01 X285.356273 Y209.871208 Z-3.758382
G01 X285.581882 Y211.264652 Z-3.722201
G01 X285.990765 Y213.469795 Z-3.715907
G01 X286.074190 Y214.361872 Z-3.799332
G01 X286.283458 Y216.318208 Z-4.008600
G01 X286.308943 Y216.533374 Z-4.034084
G01 X286.490242 Y217.897749 Z-4.215384
G01 X286.597487 Y218.390566 Z-4.260794
G01 X286.626302 Y218.470322 Z-4.257181
G01 X287.157331 Y219.938978 Z-4.190746
G01 X286.941713 Y219.511044 Z-4.268188
G01 X287.511153 Y220.634684 Z-4.067556
G01 X287.593901 Y220.764958 Z-4.042833
G01 X288.551085 Y222.272024 Z-3.756914
G01 X288.897767 Y222.687907 Z-3.739727
G01 X290.543377 Y224.430799 Z-3.811609
G01 X291.241002 Y225.214699 Z-4.053191
G01 X291.751909 Y226.542470 Z-3.872145
G01 X292.988973 Y228.374685 Z-4.090557
G01 X293.386286 Y229.001670 Z-4.218404
G01 X294.153055 Y230.211726 Z-4.465179
G01 X294.907887 Y231.426692 Z-4.699056
G01 X295.763359 Y233.322718 Z-4.765971
G01 X295.697347 Y233.628393 Z-4.604568
G01 X295.303534 Y235.564832 Z-3.605276
G01 X295.393337 Y236.331545 Z-3.515473
G01 X295.659501 Y238.604224 Z-3.249309
G01 X294.749758 Y240.614776 Z-2.204833
G01 X293.811087 Y241.461725 Z-1.851632
G01 X293.013160 Y242.192962 Z-1.557387
G01 X292.343813 Y242.540914 Z-1.631583
G01 X291.131951 Y243.310478 Z-1.895461
G01 X289.559748 Y244.054077 Z-2.001351
G01 X289.061654 Y244.084444 Z-1.886063
G01 X287.634117 Y244.239102 Z-1.620407
G01 X285.828996 Y244.522086 Z-1.368129
G01 X285.827133 Y244.522368 Z-1.367875
G01 X284.457367 Y244.867865 Z-1.301609
G01 X283.159089 Y245.276889 Z-1.316849
G01 X282.997150 Y245.353117 Z-1.328900
G01 X281.683603 Y246.022803 Z-1.474216
G01 X281.399885 Y246.212428 Z-1.467725
G01 X280.226461 Y246.996667 Z-1.440970
G01 X278.778407 Y248.018706 Z-1.452400
G01 X278.651746 Y248.146468 Z-1.447010
G01 X277.452894 Y249.355508 Z-1.395815
G01 X277.342263 Y249.474239 Z-1.385909
G01 X276.438474 Y250.557944 Z-1.377470
G01 X275.418298 Y251.811688 Z-1.387320
G01 X275.126395 Y252.170421 Z-1.390142
G01 X274.235758 Y253.264992 Z-1.398722
G01 X273.095185 Y254.750355 Z-1.462955
G01 X272.954893 Y254.940601 Z-1.475034
G01 X272.238472 Y256.104571 Z-1.658648
G01 X272.263307 Y256.034805 Z-1.659184
G01 X271.789992 Y257.364185 Z-1.648883
G01 X271.396744 Y258.584683 Z-1.678488
G01 X271.399735 Y258.342085 Z-1.699937
G01 X271.380939 Y259.864392 Z-1.565317
G01 X271.381701 Y260.065249 Z-1.550077
G01 X271.441194 Y261.476106 Z-1.496963
G01 X271.509294 Y263.090022 Z-1.436229
G01 X271.526735 Y263.503958 Z-1.420650
G01 X271.686332 Y265.250236 Z-1.440603
G01 X271.729766 Y265.536014 Z-1.432391
G01 X272.064538 Y267.194860 Z-1.466201
G01 X272.057116 Y267.166186 Z-1.467217
G01 X272.411192 Y268.533016 Z-1.418703
G01 X272.820132 Y269.883591 Z-1.427424
G01 X273.270530 Y271.193412 Z-1.487452
G01 X273.400098 Y271.496858 Z-1.491290
G01 X274.088212 Y273.108262 Z-1.511723
G01 X274.284018 Y273.502216 Z-1.503539
G01 X275.224580 Y275.174326 Z-1.565910
G01 X275.502597 Y275.615383 Z-1.608921
G01 X276.257626 Y276.813219 Z-1.725704
G01 X277.453430 Y278.515696 Z-2.000476
G01 X277.536573 Y278.645631 Z-2.034258
G01 X278.455658 Y279.813044 Z-2.499416
G01 X278.216757 Y281.401221 Z-1.732506
G01 X278.372374 Y283.108863 Z-1.295626
G01 X278.392327 Y283.372063 Z-1.315551
G01 X278.654314 Y284.818255 Z-1.577566
G01 X278.655471 Y284.822996 Z-1.578723
G01 X279.212775 Y286.539613 Z-2.135999
G01 X279.386963 Y287.276100 Z-2.506839
G01 X278.287312 Y288.935764 Z-1.908302
G01 X278.234226 Y289.188127 Z-1.961388
G01 X277.937413 Y290.599238 Z-2.258201
G01 X277.640600 Y292.010349 Z-2.555014
G01 X276.655532 Y293.398883 Z-2.212763
G01 X276.355388 Y293.943459 Z-2.232039
G01 X275.475645 Y295.895138 Z-2.469727
G01 X274.889865 Y296.017284 Z-2.109301
G01 X273.041168 Y296.606395 Z-1.106001
G01 X272.816773 Y296.909840 Z-1.136932
G01 X272.613432 Y297.338987 Z-1.083733
G01 X272.544034 Y297.531406 Z-1.041400
G01 X272.130606 Y299.153140 Z-0.854428
G01 X272.095921 Y300.312678 Z-0.836309
G01 X272.095752 Y300.307457 Z-0.836450
G01 X272.143080 Y301.718342 Z-0.796544
G01 X272.190381 Y303.129228 Z-0.756581
G01 X272.308858 Y304.521035 Z-0.788839
G01 X272.367588 Y304.878469 Z-0.787569
G01 X272.596386 Y306.270897 Z-0.782659
G01 X272.886341 Y308.035661 Z-0.776422
G01 X272.967367 Y308.389370 Z-0.773317
G01 X273.598726 Y311.140134 Z-0.750372
G01 X274.230114 Y313.890926 Z-0.727456
G01 X274.628216 Y315.625351 Z-0.713006
G01 X274.808444 Y316.279231 Z-0.697569
G01 X275.210667 Y317.631809 Z-0.693815
G01 X275.805845 Y319.633160 Z-0.688284
G01 X276.027615 Y320.061884 Z-0.747042
G01 X276.743895 Y321.301206 Z-0.987326
G01 X277.628831 Y322.477932 Z-1.407499
G01 X278.512328 Y323.655194 Z-1.826147
G01 X278.728990 Y325.079936 Z-1.533511
G01 X279.289483 Y326.857936 Z-1.440321
G01 X279.505073 Y327.272492 Z-1.465778
G01 X280.296593 Y328.463160 Z-1.695817
G01 X280.969016 Y330.171253 Z-1.603925
G01 X280.984002 Y330.280981 Z-1.560068
G01 X281.363930 Y331.699769 Z-1.152539
G01 X282.202355 Y333.071115 Z-1.162106
G01 X282.234811 Y333.110457 Z-1.169557
G01 X283.334913 Y334.285771 Z-1.504442
G01 X283.837382 Y334.735182 Z-1.796627
G01 X284.109895 Y336.732412 Z-1.283857
G01 X284.185785 Y337.195934 Z-1.207968
G01 X284.416812 Y338.607045 Z-0.976940
G01 X284.808791 Y339.964026 Z-0.915726
G01 X285.636323 Y342.663256 Z-0.839272
G01 X286.198876 Y344.418424 Z-0.812715
G01 X286.395049 Y345.034910 Z-0.821323
G01 X287.251029 Y347.724460 Z-0.858859
G01 X287.873244 Y349.679582 Z-0.886121
G01 X287.969962 Y349.990394 Z-0.892528
G01 X288.389372 Y351.338033 Z-0.920355
G01 X288.814314 Y352.684035 Z-0.953911
G01 X289.727670 Y355.357724 Z-1.087120
G01 X290.287796 Y356.997492 Z-1.168795
G01 X290.467318 Y357.299159 Z-1.257272
G01 X290.528701 Y357.359555 Z-1.264553
G01 X291.291858 Y357.869502 Z-1.169614
G01 X291.776039 Y358.102448 Z-1.039650
G01 X292.613787 Y358.325996 Z-0.816074
G01 X293.867475 Y358.313861 Z-0.828238
G01 X294.638308 Y358.084104 Z-0.973130
G01 X294.585787 Y358.116898 Z-0.966583
G01 X295.603141 Y357.376290 Z-1.188381
G01 X295.740951 Y357.203994 Z-1.184402
G01 X295.762004 Y357.161435 Z-1.173424
G01 X296.330456 Y355.646917 Z-0.959527
G01 X296.372564 Y354.439260 Z-0.909066
G01 X296.339798 Y353.998711 Z-0.891992
G01 X296.235065 Y352.590422 Z-0.837382
G01 X296.029862 Y350.725526 Z-0.831201
G01 X295.950726 Y350.239314 Z-0.825895
G01 X295.623490 Y348.346731 Z-0.824145
G01 X295.596848 Y348.206015 Z-0.823637
G01 X295.334466 Y346.819514 Z-0.818529
G01 X295.044059 Y345.284790 Z-0.812913
G01 X294.986909 Y344.982755 Z-0.811784
G01 X294.724527 Y343.596254 Z-0.806676
G01 X294.404036 Y341.902582 Z-0.800439
G01 X294.293094 Y341.294675 Z-0.802217
G01 X293.856637 Y339.283644 Z-0.876498
G01 X293.736637 Y338.641843 Z-0.929781
G01 X293.476428 Y337.250120 Z-1.045295
G01 X292.933489 Y335.172062 Z-1.371374
G01 X292.895586 Y335.061346 Z-1.412946
G01 X292.248479 Y333.285688 Z-2.118783
G01 X292.461923 Y332.562296 Z-2.157956
G01 X293.001730 Y330.208083 Z-2.431514
G01 X294.618750 Y329.143485 Z-2.055396
G01 X295.468437 Y328.916550 Z-1.896703
G01 X297.516382 Y328.355661 Z-1.526766
G01 X297.743063 Y328.315134 Z-1.514489
G01 X299.227298 Y328.049761 Z-1.434225
G01 X299.551854 Y327.998057 Z-1.422936
G01 X301.239797 Y327.707397 Z-1.385626
G01 X301.702077 Y327.626794 Z-1.376370
G01 X304.482897 Y327.141993 Z-1.320744
G01 X305.872051 Y326.893045 Z-1.299633
G01 X307.258496 Y326.630239 Z-1.292606
G01 X308.643191 Y326.358572 Z-1.294610
G01 X310.470439 Y325.969218 Z-1.327545
G01 X311.144978 Y325.818935 Z-1.333331
G01 X312.522364 Y325.512047 Z-1.345128
G01 X314.698354 Y324.944441 Z-1.444752
G01 X315.320738 Y324.667525 Z-1.703832
G01 X316.714747 Y324.047257 Z-2.284194
G01 X319.027219 Y322.050422 Z-4.214424
G01 X320.661596 Y322.630275 Z-3.951393
G01 X321.244780 Y322.899798 Z-3.912729
G01 X323.036158 Y323.727753 Z-3.793885
G01 X324.158866 Y324.351549 Z-3.811834
G01 X324.157822 Y324.351013 Z-3.811863
G01 X325.495865 Y325.049484 Z-3.793631
G01 X325.687043 Y325.149278 Z-3.791006
G01 X326.938049 Y325.802340 Z-3.773960
G01 X328.606462 Y326.673250 Z-3.751213
G01 X328.851911 Y326.823392 Z-3.767272
G01 X330.057536 Y327.560895 Z-3.846124
G01 X333.103137 Y329.423985 Z-4.045289
G01 X331.821905 Y332.080825 Z-2.764056
G01 X331.400829 Y333.882109 Z-2.342981
G01 X329.655906 Y334.484992 Z-1.890861
G01 X327.657151 Y335.170227 Z-1.368467
G01 X326.929724 Y335.456683 Z-1.336153
G01 X325.011121 Y336.261129 Z-1.295710
G01 X323.930435 Y336.829158 Z-1.378006
G01 X323.227448 Y337.282576 Z-1.501168
G01 X323.240374 Y337.273009 Z-1.499814
G01 X322.155794 Y338.076185 Z-1.611940
G01 X321.925303 Y338.281840 Z-1.609485
G01 X321.805499 Y338.436272 Z-1.594019
G01 X320.917205 Y339.700092 Z-1.544433
G01 X320.912831 Y339.714965 Z-1.543699
G01 X320.435536 Y341.334497 Z-1.461262
G01 X320.295723 Y341.818085 Z-1.434112
G01 X319.903237 Y343.175658 Z-1.357828
G01 X319.445952 Y345.041937 Z-1.333133
G01 X319.437570 Y345.081815 Z-1.333952
G01 X318.856785 Y347.844235 Z-1.390989
G01 X318.570781 Y349.204630 Z-1.419070
G01 X318.545551 Y349.357426 Z-1.415429
G01 X318.331824 Y350.752365 Z-1.398496
G01 X317.938491 Y353.547043 Z-1.399060
G01 X317.741810 Y354.944381 Z-1.399371
G01 X317.522467 Y356.502813 Z-1.399681
G01 X317.495769 Y356.765674 Z-1.389521
G01 X317.210639 Y359.575563 Z-1.280809
G01 X317.035916 Y361.297345 Z-1.214205
G01 X317.004617 Y361.614196 Z-1.202775
G01 X316.793571 Y364.428741 Z-1.168259
G01 X316.661040 Y366.195989 Z-1.146612
G01 X316.623758 Y366.527177 Z-1.154938
G01 X316.561867 Y367.943114 Z-1.287187
G01 X316.596383 Y369.372372 Z-1.516803
G01 X316.772743 Y371.456018 Z-1.976374
G01 X316.777682 Y373.065786 Z-2.718844
G01 X315.636347 Y373.777099 Z-2.030758
G01 X315.529498 Y373.878191 Z-1.951002
G01 X314.581909 Y375.099028 Z-1.320800
G01 X314.234408 Y376.466733 Z-1.308382
G01 X313.907764 Y377.839575 Z-1.317413
G01 X313.253545 Y380.584976 Z-1.334572
G01 X312.599354 Y383.330377 Z-1.351732
G01 X311.945135 Y386.075779 Z-1.368862
G01 X311.618011 Y387.448479 Z-1.377442
G01 X311.208083 Y389.168850 Z-1.388195
G01 X311.198488 Y389.209969 Z-1.388223
G01 X310.878306 Y390.584279 Z-1.389098
G01 X310.233203 Y393.331769 Z-1.385937
G01 X309.588071 Y396.079287 Z-1.382776
G01 X308.942939 Y398.826776 Z-1.379643
G01 X308.297836 Y401.574266 Z-1.376482
G01 X307.652704 Y404.321784 Z-1.373350
G01 X307.007600 Y407.069274 Z-1.370189
G01 X306.685020 Y408.443047 Z-1.368637
G01 X306.039917 Y411.190537 Z-1.365476
G01 X305.394813 Y413.938055 Z-1.362343
G01 X304.749682 Y416.685545 Z-1.359182
G01 X304.429359 Y418.059826 Z-1.359916
G01 X304.115754 Y419.435659 Z-1.367508
G01 X303.792722 Y420.852753 Z-1.375354
G01 X303.709326 Y421.227657 Z-1.375410
G01 X303.096508 Y423.982541 Z-1.375890
G01 X302.790100 Y425.359983 Z-1.376116
G01 X302.499016 Y426.740840 Z-1.392033
G01 X301.921420 Y429.503570 Z-1.428581
G01 X301.343824 Y432.266300 Z-1.465100
G01 X300.766228 Y435.029030 Z-1.501648
G01 X300.447288 Y436.631205 Z-1.538478
G01 X300.454880 Y436.506378 Z-1.546070
G01 X300.366573 Y437.961855 Z-1.457762
G01 X300.364964 Y437.988327 Z-1.456154
G01 X300.292490 Y439.182776 Z-1.383679
G01 X300.313713 Y439.369353 Z-1.340048
G01 X301.109354 Y440.903655 Z-1.564979
G01 X301.094085 Y440.883363 Z-1.561451
G01 X302.090358 Y441.944970 Z-1.919704
G01 X303.074862 Y443.004743 Z-2.268502
G01 X303.136979 Y443.833149 Z-1.853494
G01 X303.125408 Y443.753817 Z-1.898283
G01 X303.362785 Y445.383509 Z-0.978069
G01 X303.448186 Y445.711084 Z-0.759150
G01 X303.612890 Y445.973043 Z-0.497191
G01 X303.448186 Y445.711084 Z-0.759150
G01 X303.674302 Y446.079187 Z-0.395845
G01 X303.203047 Y444.286737 Z-1.597378
G01 X303.189472 Y442.501597 Z-2.383282
G01 X303.430772 Y442.347278 Z-2.222246
G01 X304.572982 Y441.301503 Z-1.584254
G01 X305.358209 Y440.102764 Z-1.334601
G01 X305.975768 Y438.832200 Z-1.267375
G01 X307.052587 Y436.223197 Z-1.305137
G01 X307.591010 Y434.918709 Z-1.324046
G01 X308.234392 Y433.359911 Z-1.346595
G01 X308.246979 Y433.328500 Z-1.346708
G01 X309.297439 Y430.709054 Z-1.356134
G01 X310.347926 Y428.089608 Z-1.365532
G01 X310.886519 Y426.746541 Z-1.370358
G01 X311.020490 Y426.404234 Z-1.368524
G01 X311.531736 Y425.088994 Z-1.364714
G01 X312.546663 Y422.455578 Z-1.365222
G01 X313.054099 Y421.138870 Z-1.365504
G01 X313.697876 Y419.468510 Z-1.365814
G01 X313.716728 Y419.419544 Z-1.365843
G01 X314.731628 Y416.786129 Z-1.366351
G01 X315.746555 Y414.152713 Z-1.366859
G01 X316.761455 Y411.519298 Z-1.367395
G01 X317.776354 Y408.885882 Z-1.367903
G01 X318.791281 Y406.252466 Z-1.368411
G01 X319.324710 Y404.868307 Z-1.368693
G01 X319.376074 Y404.740574 Z-1.370697
G01 X320.429130 Y402.121834 Z-1.412071
G01 X321.482157 Y399.503122 Z-1.453473
G01 X322.008671 Y398.193752 Z-1.474160
G01 X322.529738 Y396.882096 Z-1.500745
G01 X323.569219 Y394.257683 Z-1.556822
G01 X324.526376 Y391.841127 Z-1.608469
G01 X326.086726 Y390.758071 Z-2.691525
G01 X327.376961 Y391.296325 Z-2.153243
G01 X328.277278 Y393.194891 Z-1.302681
G01 X328.326837 Y394.202001 Z-1.335617
G01 X328.347128 Y394.584101 Z-1.346595
G01 X328.387345 Y395.063230 Z-1.345692
G01 X328.623311 Y397.875603 Z-1.340330
G01 X328.742070 Y399.281690 Z-1.338411
G01 X328.861083 Y400.687778 Z-1.336774
G01 X329.023925 Y402.611715 Z-1.334544
G01 X329.067021 Y403.110232 Z-1.333077
G01 X329.310071 Y405.921984 Z-1.324751
G01 X329.553149 Y408.733736 Z-1.316454
G01 X329.674673 Y410.139626 Z-1.312277
G01 X329.839491 Y412.046376 Z-1.306661
G01 X329.882784 Y412.547292 Z-1.305165
G01 X330.125834 Y415.359016 Z-1.296868
G01 X330.368884 Y418.170767 Z-1.288542
G01 X330.490409 Y419.576657 Z-1.284365
G01 X330.655791 Y421.489842 Z-1.278721
G01 X330.670128 Y421.665807 Z-1.279088
G01 X330.802772 Y423.070822 Z-1.300282
G01 X331.072379 Y425.880542 Z-1.347018
G01 X331.341986 Y428.690234 Z-1.393726
G01 X331.498055 Y430.316568 Z-1.420763
G01 X331.577416 Y431.663671 Z-1.492758
G01 X331.610436 Y432.220495 Z-1.522278
G01 X331.661461 Y432.432021 Z-1.495270
G01 X331.619862 Y432.338831 Z-1.526173
G01 X332.461533 Y433.480730 Z-1.395420
G01 X333.106580 Y433.984243 Z-1.335109
G01 X333.023268 Y433.940809 Z-1.338439
G01 X334.359788 Y434.422054 Z-1.479352
G01 X334.767120 Y434.494952 Z-1.588883
G01 X336.442165 Y434.737974 Z-2.090505
G01 X336.505044 Y434.833817 Z-2.014079
G01 X337.309688 Y436.060326 Z-1.035897
G01 X337.376264 Y436.307920 Z-0.813760
G01 X337.309716 Y436.060326 Z-1.035897
G01 X337.822090 Y436.426651 Z-0.474698
G01 X336.481535 Y434.797974 Z-2.042640
G01 X336.663709 Y433.398378 Z-2.070721
G01 X337.074173 Y432.033156 Z-1.867944
G01 X337.352247 Y430.630455 Z-1.801650
G01 X337.412163 Y430.163208 Z-1.792224
G01 X337.771121 Y427.363338 Z-1.735780
G01 X337.950614 Y425.963403 Z-1.707557
G01 X338.194793 Y424.058826 Z-1.669147
G01 X338.259507 Y423.554184 Z-1.658987
G01 X338.402819 Y422.150355 Z-1.667143
G01 X338.672228 Y419.340832 Z-1.700728
G01 X338.858947 Y417.393697 Z-1.724039
G01 X338.869615 Y417.302708 Z-1.727031
G01 X339.033812 Y415.900431 Z-1.773456
G01 X339.197896 Y414.498097 Z-1.819966
G01 X339.353710 Y413.094549 Z-1.874859
G01 X339.586770 Y410.995239 Z-1.956957
G01 X340.080912 Y409.913566 Z-2.372388
G01 X342.019271 Y408.397666 Z-2.073712
G01 X343.462499 Y410.244020 Z-1.672449
G01 X344.716328 Y411.664021 Z-1.460387
G01 X345.137178 Y412.239529 Z-1.445966
G01 X346.383471 Y413.790820 Z-1.496088
G01 X346.474713 Y413.902438 Z-1.500942
G01 X347.368314 Y414.995598 Z-1.548497
G01 X348.261547 Y416.088306 Z-1.596023
G01 X348.561972 Y416.394658 Z-1.571724
G01 X349.556382 Y417.398523 Z-1.498769
G01 X350.952790 Y418.685795 Z-1.486831
G01 X351.205943 Y418.893736 Z-1.466088
G01 X352.311803 Y419.772802 Z-1.399286
G01 X354.588602 Y421.440650 Z-1.376934
G01 X355.726974 Y422.274561 Z-1.365786
G01 X357.137521 Y423.302612 Z-1.356191
G01 X357.566188 Y423.545407 Z-1.353566
G01 X358.794052 Y424.240888 Z-1.346031
G01 X360.435259 Y425.105758 Z-1.392428
G01 X360.446463 Y425.109709 Z-1.392315
G01 X361.777959 Y425.577238 Z-1.379220
G01 X363.240294 Y426.090713 Z-1.364827
G01 X364.613728 Y426.572974 Z-1.351308
G01 X364.687304 Y426.597048 Z-1.360452
G01 X366.129826 Y427.038839 Z-1.567575
G01 X366.665484 Y427.232641 Z-1.673888
G01 X368.903986 Y427.535211 Z-2.554704
G01 X369.783334 Y428.964384 Z-1.998924
G01 X370.105942 Y429.870854 Z-1.876185
G01 X370.525719 Y431.050515 Z-1.716504
G01 X370.731826 Y431.910615 Z-1.697792
G01 X371.389602 Y434.655763 Z-1.637990
G01 X371.888853 Y436.739296 Z-1.592608
G01 X371.918119 Y436.872703 Z-1.592326
G01 X372.523091 Y439.629337 Z-1.586569
G01 X372.825577 Y441.007653 Z-1.583690
G01 X373.150810 Y442.489602 Z-1.580586
G01 X373.173557 Y442.593206 Z-1.580360
G01 X373.480868 Y443.970451 Z-1.582392
G01 X374.098935 Y446.724177 Z-1.590012
G01 X374.429700 Y448.197801 Z-1.594104
G01 X374.585317 Y448.877335 Z-1.592947
G01 X375.215378 Y451.628325 Z-1.588318
G01 X375.704074 Y453.645847 Z-1.610896
G01 X376.017369 Y454.596992 Z-1.653427
G01 X375.517045 Y455.034662 Z-1.052802
G01 X375.517045 Y455.034662 Z-1.052802
G01 X376.143353 Y454.802478 Z-1.608102
G01 X376.274981 Y454.931623 Z-1.530519
G01 X376.567702 Y455.151954 Z-1.361835
G01 X378.305316 Y455.555842 Z-1.252079
G01 X378.804370 Y455.592164 Z-1.227526
G01 X380.788956 Y455.736577 Z-1.129848
G01 X380.886577 Y455.742532 Z-1.123894
G01 X382.297688 Y455.780152 Z-1.086273
G01 X383.708799 Y455.784132 Z-1.082294
G01 X385.230824 Y455.760143 Z-1.106283
G01 X385.298868 Y455.759070 Z-1.107355
G01 X386.709979 Y455.736831 Z-1.129594
G01 X388.121090 Y455.682334 Z-1.184120
G01 X389.583537 Y455.592813 Z-1.273641
G01 X390.164802 Y455.535692 Z-1.315438
G01 X392.073443 Y455.348183 Z-1.452767
G01 X392.202983 Y455.326650 Z-1.453360
G01 X393.581243 Y455.010081 Z-1.545929
G01 X394.796182 Y454.705874 Z-1.652355
G01 X394.796182 Y454.705874 Z-1.652355
G01 X394.922589 Y454.217883 Z-1.769392
G01 X395.481502 Y453.461753 Z-1.630003
G01 X395.504672 Y453.420634 Z-1.617303
G01 X395.884035 Y452.060746 Z-1.572260
G01 X396.571501 Y449.323472 Z-1.555552
G01 X396.967543 Y447.746499 Z-1.545929
G01 X397.045690 Y447.404107 Z-1.536248
G01 X397.344846 Y446.024859 Z-1.512570
G01 X397.889196 Y443.255638 Z-1.520246
G01 X398.235567 Y441.493697 Z-1.525129
G01 X398.309735 Y441.116365 Z-1.526201
G01 X398.581911 Y439.731755 Z-1.530040
G01 X398.854114 Y438.347145 Z-1.533850
G01 X399.126289 Y436.962506 Z-1.537688
G01 X399.483667 Y435.144543 Z-1.542740
G01 X399.522614 Y434.979020 Z-1.549485
G01 X399.846125 Y433.604344 Z-1.605562
G01 X400.170370 Y432.229893 Z-1.660878
G01 X400.504352 Y430.858124 Z-1.706033
G01 X400.982634 Y428.893744 Z-1.770747
G01 X401.706619 Y427.606670 Z-2.214965
G01 X402.384799 Y426.400904 Z-2.631101
G01 X402.930503 Y426.243819 Z-2.537883
G01 X404.522999 Y426.304581 Z-1.797248
G01 X406.176793 Y425.992669 Z-1.366605
G01 X406.311836 Y425.968285 Z-1.342926
G01 X407.668450 Y425.568969 Z-1.250047
G01 X409.049730 Y425.029529 Z-1.280216
G01 X409.115911 Y425.002182 Z-1.283067
G01 X410.421161 Y424.463025 Z-1.339201
G01 X411.656222 Y423.919380 Z-1.423755
G01 X412.133149 Y423.640855 Z-1.416163
G01 X413.339311 Y422.908460 Z-1.420989
G01 X414.536441 Y422.161079 Z-1.443313
G01 X416.228871 Y421.104467 Z-1.474865
G01 X416.615008 Y420.823684 Z-1.448731
G01 X417.749005 Y419.981533 Z-1.385542
G01 X419.301001 Y418.732502 Z-1.373886
G01 X419.687504 Y418.421437 Z-1.370979
G01 X421.195728 Y417.183977 Z-1.377922
G01 X421.365908 Y417.033779 Z-1.401233
G01 X422.644798 Y415.904918 Z-1.576522
G01 X423.088056 Y415.562582 Z-1.670445
G01 X424.916602 Y414.150512 Z-2.057880
G01 X427.708514 Y413.597554 Z-2.362115
G01 X428.192384 Y415.853469 Z-2.047663
G01 X428.398942 Y416.816383 Z-1.913382
G01 X428.452085 Y417.306180 Z-1.896872
G01 X428.605360 Y418.709699 Z-1.850559
G01 X428.767553 Y420.111948 Z-1.813250
G01 X428.966717 Y421.833786 Z-1.767417
G01 X429.014272 Y422.309500 Z-1.762196
G01 X429.294970 Y425.117893 Z-1.731433
G01 X429.525771 Y426.965433 Z-1.757003
G01 X429.588396 Y427.411795 Z-1.769985
G01 X429.980629 Y430.207827 Z-1.851350
G01 X430.248853 Y431.981989 Z-1.922187
G01 X430.279446 Y432.106223 Z-1.929779
G01 X430.654688 Y433.471981 Z-2.051445
G01 X431.267421 Y434.793967 Z-2.414609
G01 X430.523511 Y436.108586 Z-1.444893
G01 X430.424282 Y436.487498 Z-1.106819
G01 X430.738903 Y435.285683 Z-2.179151
G01 X430.185889 Y437.116430 Z-0.565545
G01 X431.073450 Y435.226980 Z-2.145425
G01 X431.095999 Y435.176632 Z-2.176724
G01 X432.968459 Y434.884955 Z-1.453049
G01 X433.745501 Y434.385055 Z-1.476389
G01 X434.202673 Y434.086661 Z-1.486549
G01 X434.871088 Y433.400890 Z-1.515279
G01 X435.002886 Y433.194134 Z-1.513925
G01 X435.144505 Y432.895571 Z-1.471055
G01 X435.759439 Y431.244091 Z-1.394234
G01 X435.807784 Y430.835207 Z-1.375946
G01 X436.019535 Y428.858749 Z-1.309483
G01 X436.051652 Y428.467137 Z-1.303951
G01 X436.282425 Y425.654087 Z-1.264271
G01 X436.430253 Y423.852380 Z-1.238871
G01 X436.480009 Y423.155461 Z-1.236416
G01 X436.657414 Y420.338798 Z-1.250273
G01 X436.772363 Y418.215782 Z-1.279426
G01 X436.802279 Y417.743031 Z-1.293537
G01 X436.980728 Y414.925212 Z-1.377555
G01 X437.108490 Y412.907662 Z-1.437725
G01 X437.249234 Y412.081512 Z-1.550755
G01 X437.413177 Y411.053885 Z-1.701913
G01 X438.288433 Y409.504993 Z-2.561336
G01 X438.573110 Y409.104548 Z-2.841921
G01 X440.306886 Y408.881846 Z-2.465098
G01 X441.687940 Y409.147643 Z-1.909120
G01 X442.132694 Y409.153090 Z-1.845564
G01 X443.981758 Y409.119223 Z-1.637256
G01 X445.227233 Y409.091678 Z-1.604179
G01 X445.522183 Y409.102233 Z-1.613408
G01 X447.282996 Y409.117586 Z-1.716165
G01 X448.704493 Y409.203382 Z-1.964295
G01 X449.741123 Y409.516903 Z-2.434534
G01 X450.229876 Y410.726733 Z-1.874012
G01 X450.440498 Y411.327076 Z-1.830832
G01 X450.908733 Y412.661705 Z-1.734848
G01 X451.403920 Y413.984734 Z-1.668159
G01 X452.411087 Y416.623625 Z-1.553125
G01 X452.914684 Y417.943070 Z-1.495608
G01 X453.517454 Y419.497635 Z-1.436483
G01 X453.585188 Y419.675746 Z-1.434451
G01 X454.588572 Y422.313733 Z-1.404197
G01 X455.097616 Y423.629848 Z-1.396972
G01 X456.124454 Y426.258635 Z-1.391948
G01 X456.637901 Y427.573029 Z-1.389436
G01 X457.212505 Y429.044056 Z-1.386614
G01 X457.273691 Y429.200661 Z-1.386332
G01 X457.787505 Y430.514913 Z-1.384244
G01 X458.837992 Y433.134415 Z-1.404620
G01 X459.365409 Y434.443306 Z-1.417122
G01 X460.454759 Y437.047568 Z-1.479240
G01 X461.049203 Y438.468641 Z-1.513106
G01 X461.090605 Y438.560843 Z-1.512711
G01 X461.668681 Y439.848115 Z-1.507208
G01 X462.277886 Y441.121276 Z-1.535825
G01 X462.892876 Y442.391812 Z-1.570821
G01 X464.013270 Y443.432987 Z-2.160863
G01 X464.265126 Y444.868312 Z-1.797078
G01 X464.095651 Y446.106816 Z-1.130949
G01 X464.176621 Y446.585014 Z-0.702874
G01 X464.112105 Y446.164982 Z-1.080968
G01 X464.112076 Y446.164954 Z-1.080996
G01 X464.111004 Y445.994548 Z-1.191316
G01 X464.356622 Y444.199756 Z-2.156658
G01 X464.952845 Y443.370785 Z-2.098661
G01 X465.981065 Y442.470609 Z-1.567208
G01 X466.254030 Y442.168405 Z-1.453727
G01 X466.924054 Y440.925103 Z-1.394375
G01 X467.416560 Y439.595555 Z-1.532382
G01 X467.682300 Y438.453147 Z-1.792563
G01 X469.582418 Y438.644155 Z0.000000
G01 X467.682300 Y438.453147 Z-1.792563
G01 X468.767022 Y438.562170 Z-0.769253
G01 X467.527360 Y437.424080 Z-1.686165
G01 X467.316174 Y436.021351 Z-1.541103
G01 X467.025259 Y434.639140 Z-1.478393
G01 X466.708662 Y433.263532 Z-1.442212
G01 X466.386280 Y431.889392 Z-1.411958
G01 X465.673612 Y429.158610 Z-1.421638
G01 X465.317278 Y427.793247 Z-1.426464
G01 X464.960944 Y426.427856 Z-1.431290
G01 X464.604582 Y425.062465 Z-1.436144
G01 X464.176903 Y423.423628 Z-1.441930
G01 X464.105190 Y423.148857 Z-1.442918
G01 X463.748828 Y421.783466 Z-1.447744
G01 X463.393172 Y420.417905 Z-1.451892
G01 X462.682706 Y417.686559 Z-1.459258
G01 X462.253897 Y416.038070 Z-1.463717
G01 X462.083915 Y415.369091 Z-1.469418
G01 X461.737967 Y414.000990 Z-1.479381
G01 X461.206175 Y411.888585 Z-1.492476
G01 X461.138978 Y411.538573 Z-1.514941
G01 X460.841798 Y410.153906 Z-1.634942
G01 X460.377148 Y408.790547 Z-1.923740
G01 X459.708027 Y407.453209 Z-2.418644
G01 X459.573125 Y406.047883 Z-2.375069
G01 X460.047625 Y404.176355 Z-1.668103
G01 X460.140843 Y403.738233 Z-1.579711
G01 X460.332698 Y402.329154 Z-1.403519
G01 X460.508578 Y400.585359 Z-1.246942
G01 X460.529914 Y400.300287 Z-1.233565
G01 X460.581674 Y398.890079 Z-1.221006
G01 X460.616190 Y397.479391 Z-1.225691
G01 X460.575917 Y396.066615 Z-1.305221
G01 X460.436555 Y394.375821 Z-1.491516
G01 X460.421174 Y394.189216 Z-1.512090
G01 X460.188905 Y392.771106 Z-1.783673
G01 X459.638262 Y391.344134 Z-2.373771
G01 X460.140081 Y389.946428 Z-1.910983
G01 X460.397129 Y388.541921 Z-1.693108
G01 X460.505502 Y387.133294 Z-1.623935
G01 X460.518682 Y385.721985 Z-1.649984
G01 X460.465060 Y384.308842 Z-1.742863
G01 X460.401362 Y382.895416 Z-1.845818
G01 X460.227429 Y380.032046 Z-2.099282
G01 X460.227429 Y380.032046 Z-2.099282
G01 X461.765314 Y378.865170 Z-2.458861
G01 X463.234845 Y378.650907 Z-1.996073
G01 X464.615166 Y378.257348 Z-1.733522
G01 X465.919992 Y377.712038 Z-1.640473
G01 X467.209691 Y377.136390 Z-1.581291
G01 X469.033411 Y376.205169 Z-1.602571
G01 X469.188690 Y376.127332 Z-1.603079
G01 X470.450223 Y375.495098 Z-1.607143
G01 X471.711785 Y374.862836 Z-1.611235
G01 X473.063319 Y374.185446 Z-1.615581
G01 X473.319774 Y374.043799 Z-1.601724
G01 X474.559068 Y373.365139 Z-1.529644
G01 X475.720102 Y372.559423 Z-1.606804
G01 X476.854156 Y371.709905 Z-1.735413
G01 X477.891887 Y370.703981 Z-2.047692
G01 X479.202414 Y369.624622 Z-2.279452
G01 X479.514552 Y369.585111 Z-2.126036
G01 X480.925663 Y369.121222 Z-1.662148
G01 X482.227103 Y368.508546 Z-1.383086
G01 X483.675665 Y367.472593 Z-1.357432
G01 X484.112996 Y367.159862 Z-1.349700
G01 X485.701794 Y365.950286 Z-1.380575
G01 X486.291413 Y365.529352 Z-1.419804
G01 X488.027560 Y364.289916 Z-1.535289
G01 X488.346245 Y364.075738 Z-1.566926
G01 X489.509480 Y363.264547 Z-1.708094
G01 X490.662951 Y362.435857 Z-1.869242
G01 X492.097119 Y361.250242 Z-2.205256
G01 X492.447160 Y360.926392 Z-2.350572
G01 X494.127539 Y359.759629 Z-2.696774
G01 X495.645838 Y359.517426 Z-2.531054
G01 X495.954448 Y359.363361 Z-2.598533
G01 X497.415851 Y358.633788 Z-2.918008
G01 X497.923992 Y358.347191 Z-3.003070
G01 X497.993052 Y358.288602 Z-2.999147
G01 X499.134218 Y357.151190 Z-3.058075
G01 X498.919023 Y357.452773 Z-3.095216
G01 X499.746781 Y356.292755 Z-2.952327
G01 X500.051524 Y355.835724 Z-2.879965
G01 X501.135117 Y354.084817 Z-2.678063
G01 X501.151514 Y354.054619 Z-2.676652
G01 X501.825206 Y352.813350 Z-2.618373
G01 X502.316019 Y351.490066 Z-2.760359
G01 X502.325389 Y351.446773 Z-2.769729
G01 X502.548260 Y350.416549 Z-2.992600
G01 X502.528758 Y350.748047 Z-2.973098
G01 X502.611788 Y349.336936 Z-3.056128
G01 X502.586840 Y348.256590 Z-3.207540
G01 X502.652061 Y348.603356 Z-3.204266
G01 X502.376725 Y347.139215 Z-3.218124
G01 X502.363771 Y347.075066 Z-3.217841
G01 X502.084202 Y345.691923 Z-3.211830
G01 X501.763710 Y344.205882 Z-3.225123
G01 X501.686579 Y343.868683 Z-3.232460
G01 X501.371873 Y342.492793 Z-3.262404
G01 X501.006480 Y340.895359 Z-3.297146
G01 X500.986273 Y340.819667 Z-3.296017
G01 X500.258450 Y338.092582 Z-3.254446
G01 X499.851542 Y336.741189 Z-3.278350
G01 X499.914393 Y335.257011 Z-2.814122
G01 X499.948457 Y333.780960 Z-2.379754
G01 X499.986500 Y332.133065 Z-1.894840
G01 X499.987121 Y332.023534 Z-1.860832
G01 X499.976566 Y330.545198 Z-1.420029
G01 X499.151405 Y327.846053 Z-1.382663
G01 X498.738824 Y326.496466 Z-1.363980
G01 X498.282527 Y325.017339 Z-1.347385
G01 X498.184935 Y324.720216 Z-1.349728
G01 X497.304063 Y322.038907 Z-1.370838
G01 X496.423219 Y319.357570 Z-1.391920
G01 X495.542347 Y316.676261 Z-1.413030
G01 X495.101939 Y315.335593 Z-1.423585
G01 X494.641381 Y314.001387 Z-1.455251
G01 X493.839362 Y311.712339 Z-1.520924
G01 X493.839362 Y311.712339 Z-1.520924
G01 X493.978977 Y310.242893 Z-2.174663
G01 X494.909351 Y309.159047 Z-1.953062
G01 X496.333783 Y307.648593 Z-1.535458
G01 X496.459061 Y307.382768 Z-1.568676
G01 X497.061549 Y305.782117 Z-1.897662
G01 X497.146075 Y305.261727 Z-2.086610
G01 X498.021726 Y305.766736 Z-1.195437
G01 X497.034682 Y304.323733 Z-2.227580
G01 X497.097928 Y303.131881 Z-2.201982
G01 X497.127561 Y303.065728 Z-2.159113
G01 X497.918574 Y301.120906 Z-0.977364
G01 X497.920380 Y300.507214 Z-0.842857
G01 X497.716474 Y299.107053 Z-0.738999
G01 X497.225803 Y297.153878 Z-0.795472
G01 X497.108483 Y296.783743 Z-0.829931
G01 X496.680465 Y295.433253 Z-0.955661
G01 X496.104026 Y293.737408 Z-1.151523
G01 X496.091777 Y293.706928 Z-1.155898
G01 X495.427229 Y292.419713 Z-1.483501
G01 X494.631757 Y291.175000 Z-1.948434
G01 X494.531484 Y291.028103 Z-1.999262
G01 X493.940962 Y289.735384 Z-2.168539
G01 X494.292441 Y288.141817 Z-1.348909
G01 X494.242996 Y286.481870 Z-0.891032
G01 X494.211105 Y286.340703 Z-0.864221
G01 X493.607008 Y284.949573 Z-0.865942
G01 X493.286404 Y284.483116 Z-0.869922
G01 X492.083319 Y283.026228 Z-1.049387
G01 X491.614096 Y282.679264 Z-1.051927
G01 X491.639157 Y282.687138 Z-1.055201
G01 X490.261631 Y282.327390 Z-0.947589
G01 X489.528869 Y282.443722 Z-0.870797
G01 X488.337863 Y282.825738 Z-0.645612
G01 X487.474206 Y283.310906 Z-0.665847
G01 X486.488207 Y283.919857 Z-1.023564
G01 X485.941965 Y284.174873 Z-1.281035
G01 X483.908667 Y285.428814 Z-2.544092
G01 X482.352042 Y284.573879 Z-1.946346
G01 X482.075211 Y284.396502 Z-1.838452
G01 X480.606978 Y283.455686 Z-1.266134
G01 X480.588746 Y283.444002 Z-1.259022
G01 X479.225895 Y283.075843 Z-1.218918
G01 X477.920730 Y282.929934 Z-1.381506
G01 X477.794520 Y282.927563 Z-1.385457
G01 X474.971395 Y282.874844 Z-1.474216
G01 X472.148270 Y282.822153 Z-1.563003
G01 X470.544203 Y282.792210 Z-1.613436
G01 X469.996890 Y282.803047 Z-1.609570
G01 X467.175147 Y282.858927 Z-1.589730
G01 X465.764262 Y282.886867 Z-1.579795
G01 X463.743974 Y282.926886 Z-1.565600
G01 X463.268712 Y282.936312 Z-1.562241
G01 X460.446969 Y282.992221 Z-1.542401
G01 X459.036084 Y283.020161 Z-1.532467
G01 X457.625283 Y283.049850 Z-1.524254
G01 X454.803626 Y283.109512 Z-1.508167
G01 X453.393022 Y283.146596 Z-1.507405
G01 X450.362238 Y283.249466 Z-1.528882
G01 X450.362238 Y283.249466 Z-1.528882
G01 X448.471603 Y281.930049 Z-2.924669
G01 X447.017679 Y280.915404 Z-3.998073
G01 X445.631770 Y279.878886 Z-4.999990
G01 X444.767577 Y277.192243 Z-4.999990
G01 X444.124506 Y275.193038 Z-4.999990
G01 X443.913545 Y274.537125 Z-4.999990
G01 X442.617242 Y270.507133 Z-4.999990
G01 X442.792163 Y268.968570 Z-4.362365
G01 X444.318957 Y265.243660 Z-1.768292
G01 X444.480811 Y265.275466 Z-1.623991
G01 X445.508580 Y264.054065 Z-1.623991
G01 X446.509086 Y263.051753 Z-1.503765
G01 X447.900696 Y261.466539 Z-1.459569
G01 X448.684257 Y260.498855 Z-1.483078
G01 X449.260076 Y259.591088 Z-1.462193
G01 X449.436860 Y259.226118 Z-1.434931
G01 X450.112189 Y257.551467 Z-1.435777
G01 X450.359613 Y256.667209 Z-1.373463
G01 X450.455625 Y255.681435 Z-1.277451
G01 X450.500470 Y254.540805 Z-1.232606
G01 X450.561289 Y253.499801 Z-1.237460
G01 X450.801376 Y251.685394 Z-1.535910
G01 X451.139901 Y250.335779 Z-2.062028
G01 X451.538286 Y249.506102 Z-2.579060
G01 X453.831201 Y249.214087 Z-1.679025
G01 X454.604348 Y249.212535 Z-1.622806
G01 X456.437692 Y249.008206 Z-1.689580
G01 X457.030556 Y248.876944 Z-1.809609
G01 X458.437321 Y248.634007 Z-2.025848
G01 X460.411381 Y249.400579 Z-1.222022
G01 X460.776351 Y249.478614 Z-1.137102
G01 X462.190962 Y249.650713 Z-0.938248
G01 X463.602863 Y249.678766 Z-0.883468
G01 X465.006806 Y249.286590 Z-1.249003
G01 X465.821355 Y248.940134 Z-1.579965
G01 X466.804674 Y250.501754 Z0.000000
G01 X465.821355 Y248.940134 Z-1.579965
G01 X466.263880 Y249.642895 Z-0.868934
G01 X466.331500 Y248.097503 Z-1.502636
G01 X466.800441 Y246.753871 Z-1.687181
G01 X466.961731 Y245.255553 Z-2.216037
G01 X467.849178 Y244.122290 Z-1.932150
G01 X468.975838 Y242.522344 Z-1.644170
G01 X469.081897 Y242.355409 Z-1.624386
G01 X469.812260 Y241.143180 Z-1.516324
G01 X470.498624 Y239.639077 Z-1.578666
G01 X470.660817 Y239.264879 Z-1.624584
G01 X471.296241 Y237.389879 Z-2.008350
G01 X471.376223 Y237.036113 Z-2.172123
G01 X471.901241 Y235.639282 Z-2.657433
G01 X473.714603 Y234.699031 Z-1.858885
G01 X475.288077 Y234.157700 Z-1.507913
G01 X476.686967 Y233.815308 Z-1.494677
G01 X476.785717 Y233.784913 Z-1.499785
G01 X478.085294 Y233.384722 Z-1.567039
G01 X478.011944 Y233.415569 Z-1.571018
G01 X479.240373 Y232.881238 Z-1.520585
G01 X479.224992 Y232.891115 Z-1.521912
G01 X480.403637 Y232.110799 Z-1.438938
G01 X481.491265 Y231.232128 Z-1.489315
G01 X481.447746 Y231.274857 Z-1.493012
G01 X482.401036 Y230.295122 Z-1.440801
G01 X482.453671 Y230.216467 Z-1.437471
G01 X483.236922 Y229.041745 Z-1.390622
G01 X483.985432 Y227.721002 Z-1.450227
G01 X484.004764 Y227.679374 Z-1.448336
G01 X484.625427 Y226.342092 Z-1.386755
G01 X484.738937 Y226.025721 Z-1.353820
G01 X485.151969 Y224.674526 Z-1.282672
G01 X485.593421 Y222.964541 Z-1.271383
G01 X485.630420 Y222.758801 Z-1.258993
G01 X485.919811 Y221.149203 Z-1.161881
G01 X485.951984 Y220.857498 Z-1.129820
G01 X486.066002 Y219.086356 Z-1.016706
G01 X486.066482 Y218.774557 Z-1.016226
G01 X486.067103 Y216.989332 Z-1.015605
G01 X486.074469 Y216.869331 Z-1.022886
G01 X486.135852 Y215.259367 Z-1.157986
G01 X486.185749 Y214.790200 Z-1.274967
G01 X486.265844 Y213.314263 Z-1.714980
G01 X486.272335 Y211.237643 Z-2.433630
G01 X486.720645 Y210.903408 Z-2.217815
G01 X488.084568 Y209.661517 Z-1.675751
G01 X488.182612 Y209.569710 Z-1.646259
G01 X489.101669 Y208.488122 Z-1.493746
G01 X490.055270 Y207.335159 Z-1.352804
G01 X490.428678 Y206.875363 Z-1.302286
G01 X491.209841 Y205.700105 Z-1.316538
G01 X492.257732 Y204.072473 Z-1.364319
G01 X492.402456 Y203.797221 Z-1.369258
G01 X493.716144 Y201.298990 Z-1.413905
G01 X494.487570 Y199.831914 Z-1.440124
G01 X494.578728 Y199.612317 Z-1.422372
G01 X495.184151 Y197.938683 Z-1.371967
G01 X495.187114 Y197.930414 Z-1.371741
G01 X495.631896 Y196.687310 Z-1.338947
G01 X495.634239 Y196.678815 Z-1.338072
G01 X495.916150 Y195.252407 Z-1.301101
G01 X495.950158 Y195.011446 Z-1.283490
G01 X496.147940 Y193.610523 Z-1.181072
G01 X496.284225 Y191.948375 Z-1.157732
G01 X496.285636 Y191.792617 Z-1.152765
G01 X496.219511 Y190.221768 Z-1.182822
G01 X496.189088 Y189.871615 Z-1.177064
G01 X496.047412 Y188.467616 Z-1.173565
G01 X495.783901 Y186.726559 Z-1.256594
G01 X495.752405 Y186.584432 Z-1.261533
G01 X495.417605 Y185.074740 Z-1.314168
G01 X495.364999 Y184.881249 Z-1.311515
G01 X494.955127 Y183.530787 Z-1.334093
G01 X494.421248 Y182.024144 Z-1.432927
G01 X494.422687 Y182.027418 Z-1.432842
G01 X493.874160 Y180.777991 Z-1.467922
G01 X493.249122 Y179.728463 Z-1.447856
G01 X493.087070 Y179.467831 Z-1.448703
G01 X492.102679 Y178.131537 Z-1.583549
G01 X491.604529 Y177.530460 Z-1.628817
G01 X491.589768 Y177.518805 Z-1.625939
G01 X490.376100 Y176.744302 Z-1.551009
G01 X489.627167 Y176.525947 Z-1.396690
G01 X489.405651 Y176.477405 Z-1.348147
G01 X487.713926 Y176.260291 Z-1.131034
G01 X487.210921 Y176.195719 Z-1.066461
G01 X485.185610 Y176.076649 Z-0.947392
G01 X485.003125 Y176.051898 Z-0.965567
G01 X483.569521 Y175.980693 Z-1.228231
G01 X481.711934 Y175.925096 Z-1.604292
G01 X479.747893 Y175.656477 Z-2.574826
G01 X479.048010 Y174.853978 Z-2.356951
G01 X479.079281 Y174.886574 Z-2.376734
G01 X477.973252 Y173.750573 Z-1.693446
G01 X477.050385 Y173.431183 Z-1.387884
G01 X476.088374 Y173.228942 Z-1.200037
G01 X475.092694 Y173.028734 Z-1.196396
G01 X473.118888 Y172.784442 Z-1.945047
G01 X472.087479 Y171.941529 Z-2.150787
G01 X471.941147 Y171.067148 Z-1.906016
G01 X471.570758 Y168.853510 Z-1.286284
G01 X471.563533 Y168.102093 Z-1.193659
G01 X471.401481 Y166.102549 Z-1.088757
G01 X471.374445 Y165.505423 Z-1.089999
G01 X471.310606 Y164.095779 Z-1.092962
G01 X471.221960 Y162.137976 Z-1.097054
G01 X471.217755 Y162.045491 Z-1.097252
G01 X471.090106 Y159.226148 Z-1.103178
G01 X471.026295 Y157.816476 Z-1.106142
G01 X470.515699 Y156.426080 Z-1.556286
G01 X470.500431 Y156.411292 Z-1.570905
G01 X472.005663 Y154.856642 Z0.000000
G01 X470.500431 Y156.411292 Z-1.570905
G01 X471.929801 Y154.934987 Z-0.079163
G01 X470.502604 Y156.409034 Z-1.568619
G01 X469.091549 Y156.395290 Z-1.570228
G01 X466.269524 Y156.363257 Z-1.568845
G01 X463.447471 Y156.331225 Z-1.567490
G01 X460.625418 Y156.299193 Z-1.566136
G01 X457.803394 Y156.267161 Z-1.564781
G01 X454.981341 Y156.235128 Z-1.563426
G01 X452.159316 Y156.203096 Z-1.562044
G01 X449.337263 Y156.171064 Z-1.560689
G01 X447.926237 Y156.155062 Z-1.560012
G01 X446.440252 Y156.138185 Z-1.559306
G01 X446.365237 Y156.137338 Z-1.559250
G01 X444.954211 Y156.121308 Z-1.558572
G01 X442.132158 Y156.089276 Z-1.557218
G01 X440.721132 Y156.073274 Z-1.556540
G01 X439.310133 Y156.055692 Z-1.554282
G01 X436.488335 Y156.002634 Z-1.531902
G01 X435.077421 Y155.976105 Z-1.520726
G01 X433.666310 Y155.968146 Z-1.528092
G01 X430.843834 Y155.975315 Z-1.565938
G01 X428.021386 Y155.982455 Z-1.603756
G01 X426.609879 Y156.011270 Z-1.647896
G01 X425.197950 Y156.079455 Z-1.731433
G01 X423.784778 Y156.260133 Z-1.927437
G01 X422.370365 Y156.555451 Z-2.238107
G01 X421.695798 Y156.696280 Z-2.386274
G01 X420.908652 Y154.301314 Z0.000000
G01 X421.695798 Y156.696280 Z-2.386274
G01 X421.436746 Y155.908146 Z-1.600990
G00 Z5.000000

G00 Z5.000000
G00 X419.637664 Y162.873306

G01 Z-0.851888 F100.0(Penetrate)
G01 X419.615199 Y162.986561 Z-0.844494 F400.000000
G01 X419.391933 Y164.380429 Z-0.805829
G01 X419.234961 Y165.783073 Z-0.834080
G01 X419.034160 Y167.298607 Z-0.833628
G01 X418.990500 Y167.599201 Z-0.831540
G01 X418.787724 Y168.995693 Z-0.821859
G01 X418.538888 Y170.709347 Z-0.809950
G01 X418.420552 Y171.407508 Z-0.821859
G01 X418.184756 Y172.798977 Z-0.845594
G01 X417.962111 Y174.192929 Z-0.882735
G01 X417.685420 Y176.315127 Z-1.000478
G01 X417.632165 Y176.745262 Z-1.058954
G01 X417.397864 Y178.636941 Z-1.316172
G01 X417.377403 Y179.397163 Z-1.584678
G01 X416.876853 Y180.716975 Z-1.620351
G01 X415.738482 Y182.553931 Z-1.261110
G01 X415.533476 Y182.835815 Z-1.228739
G01 X414.516911 Y184.233605 Z-1.068239
G01 X414.391830 Y184.387811 Z-1.060224
G01 X412.612786 Y186.581638 Z-0.946122
G01 X411.612195 Y187.815485 Z-0.881944
G01 X411.192023 Y188.294670 Z-0.880731
G01 X409.860950 Y189.812687 Z-0.876864
G01 X409.669660 Y190.028643 Z-0.877768
G01 X408.733952 Y191.084888 Z-0.882227
G01 X407.635966 Y192.377043 Z-0.922500
G01 X407.436548 Y192.616565 Z-0.933027
G01 X406.533155 Y193.701653 Z-0.980779
G01 X405.788991 Y194.928698 Z-1.241834
G01 X405.059390 Y196.168670 Z-1.522363
G01 X402.699335 Y200.244439 Z-2.472916
G01 X402.699335 Y200.244439 Z-2.472916
G01 X402.712233 Y199.610285 Z-2.060533
G01 X400.799274 Y197.280146 Z-2.060533
G01 X399.978657 Y196.128115 Z-1.963787
G01 X398.737584 Y194.536522 Z-1.913128
G01 X398.609427 Y194.374696 Z-1.909487
G01 X397.548808 Y193.035270 Z-1.879374
G01 X396.586769 Y191.752231 Z-1.963448
G01 X396.125364 Y190.831678 Z-2.235426
G01 X394.716680 Y188.627551 Z-3.184708
G01 X394.454947 Y188.070360 Z-3.483610
G01 X394.650386 Y186.483452 Z-3.396178
G01 X394.705109 Y186.409934 Z-3.349865
G01 X395.552904 Y185.083997 Z-2.653002
G01 X396.253803 Y183.734580 Z-2.104729
G01 X396.457285 Y183.222431 Z-1.958792
G01 X397.069256 Y181.328043 Z-1.558798
G01 X397.144101 Y181.085077 Z-1.513558
G01 X397.563596 Y179.412967 Z-1.297206
G01 X397.612336 Y179.195007 Z-1.294384
G01 X397.915019 Y177.816662 Z-1.281825
G01 X398.088981 Y176.144269 Z-1.455787
G01 X398.352323 Y174.596789 Z-1.719128
G01 X398.504892 Y173.803603 Z-1.996468
G01 X399.393553 Y171.753823 Z-2.289246
G01 X400.833056 Y170.793618 Z-1.861340
G01 X401.178722 Y170.558725 Z-1.807633
G01 X402.355645 Y169.758992 Z-1.624810
G01 X403.832796 Y168.755240 Z-1.395307
G01 X404.170419 Y168.543178 Z-1.358364
G01 X405.582800 Y167.487695 Z-1.337564
G01 X406.125033 Y167.085529 Z-1.332512
G01 X407.793813 Y165.842425 Z-1.321280
G01 X408.126723 Y165.591557 Z-1.321336
G01 X410.380606 Y163.893059 Z-1.321788
G01 X411.869272 Y162.771226 Z-1.322098
G01 X412.048878 Y162.643407 Z-1.328138
G01 X413.198990 Y161.824906 Z-1.366859
G01 X414.618483 Y160.814692 Z-1.414639
G01 X415.255684 Y160.453617 Z-1.509917
G01 X417.252971 Y159.321878 Z-1.808480
G01 X418.885993 Y158.708750 Z-2.301889
G01 X419.863470 Y160.879547 Z-1.146302
G01 X419.810440 Y162.001860 Z-0.908981
G01 X419.637664 Y162.873306 Z-0.851888
G00 Z5.000000

G00 Z5.000000
G00 X398.184796 Y175.581377

G01 Z-1.551601 F100.0(Penetrate)
G01 X398.123441 Y175.941916 Z-1.490246 F400.000000
G01 X397.910222 Y177.862805 Z-1.277027
G01 X397.811133 Y178.305922 Z-1.282813
G01 X397.432448 Y180.149031 Z-1.339314
G01 X397.232098 Y180.799412 Z-1.460387
G01 X396.619224 Y182.814789 Z-1.842629
G01 X396.184602 Y183.908767 Z-2.154372
G01 X395.191349 Y185.756646 Z-2.938413
G01 X393.903654 Y187.330655 Z-3.884450
G01 X392.561828 Y187.149948 Z-3.703743
G01 X391.623552 Y187.084868 Z-3.638663
G01 X390.308961 Y187.006580 Z-3.716980
G01 X387.982688 Y186.559935 Z-4.217472
G01 X387.158006 Y184.526326 Z-3.414437
G01 X387.290566 Y181.602052 Z-2.377863
G01 X387.462637 Y180.999056 Z-2.297204
G01 X387.897993 Y179.473391 Z-2.093158
G01 X388.117252 Y178.828598 Z-2.039281
G01 X388.758517 Y176.942704 Z-1.881688
G01 X388.829185 Y176.734904 Z-1.864332
G01 X389.381240 Y175.111336 Z-1.728696
G01 X389.939899 Y173.687073 Z-1.677980
G01 X390.159637 Y173.326506 Z-1.737050
G01 X391.458847 Y171.698028 Z-1.766880
G01 X392.922339 Y171.490566 Z-1.559419
G01 X394.160561 Y171.490566 Z-1.559419
G01 X395.297945 Y171.490566 Z-1.559419
G01 X396.618293 Y171.622166 Z-1.722148
G01 X398.672109 Y172.793445 Z-2.372896
G01 X398.405127 Y174.406232 Z-1.771932
G01 X398.184796 Y175.581377 Z-1.551601
G00 Z5.000000

G00 Z5.000000
G00 X397.452711 Y192.901101

G01 Z-1.884426 F100.0(Penetrate)
G01 X398.623341 Y194.392279 Z-1.909882 F400.000000
G01 X398.746136 Y194.547332 Z-1.913382
G01 X399.806445 Y195.886335 Z-1.943495
G01 X399.965900 Y196.110194 Z-1.962291
G01 X400.952464 Y197.495199 Z-2.078595
G01 X401.062700 Y197.668738 Z-2.103487
G01 X401.825095 Y198.868577 Z-2.275586
G01 X402.837737 Y200.264194 Z-2.589361
G01 X403.077654 Y202.079194 Z-2.285972
G01 X402.734500 Y203.287161 Z-1.942818
G01 X402.707745 Y203.381282 Z-1.916063
G01 X402.381017 Y204.658648 Z-1.589334
G01 X402.390133 Y204.550727 Z-1.628394
G01 X402.507763 Y205.533255 Z-1.465213
G01 X402.573210 Y205.637254 Z-1.411139
G01 X403.007127 Y206.207399 Z-1.154289
G01 X403.350478 Y206.380289 Z-1.036235
G01 X404.710987 Y206.814826 Z-0.815904
G01 X406.097827 Y207.079974 Z-0.767024
G01 X407.494291 Y207.283202 Z-0.780796
G01 X410.289730 Y207.673487 Z-0.824710
G01 X411.687464 Y207.868616 Z-0.846667
G01 X413.679163 Y208.095353 Z-0.928680
G01 X414.068037 Y208.114798 Z-0.962858
G01 X415.483155 Y208.183322 Z-1.089406
G01 X416.913881 Y208.139182 Z-1.329690
G01 X418.365350 Y207.945691 Z-1.720737
G01 X419.675651 Y208.769921 Z-1.084354
G01 X421.037656 Y209.221391 Z-0.824286
G01 X422.448767 Y209.318786 Z-0.921681
G01 X423.952023 Y208.751802 Z-1.689862
G01 X425.318656 Y209.169858 Z-1.463520
G01 X426.641742 Y209.901914 Z-0.920157
G01 X428.021442 Y210.225707 Z-0.789009
G01 X429.432553 Y210.323102 Z-0.886404
G01 X430.850917 Y210.368173 Z-1.036630
G01 X432.303882 Y210.163901 Z-1.438600
G01 X433.644494 Y210.769521 Z-1.022886
G01 X435.409117 Y211.142337 Z-0.896056
G01 X435.898913 Y211.220315 Z-0.877824
G01 X437.295039 Y211.429188 Z-0.839103
G01 X438.699094 Y211.572641 Z-0.866281
G01 X440.108173 Y211.674806 Z-0.935059
G01 X441.519002 Y211.762746 Z-1.018201
G01 X442.937507 Y211.787582 Z-1.164872
G01 X444.363351 Y211.751881 Z-1.372531
G01 X445.727443 Y211.659509 Z-1.628987
G01 X445.728093 Y211.660045 Z-1.628196
G01 X445.727443 Y211.659509 Z-1.628987
G01 X446.334306 Y212.227792 Z-0.854597
G01 X446.384654 Y210.604704 Z-1.410095
G01 X446.417703 Y210.487581 Z-1.402278
G01 X446.867339 Y208.893985 Z-1.295739
G01 X446.742399 Y208.450671 Z-1.510594
G01 X447.255733 Y206.589443 Z-1.397762
G01 X447.397860 Y206.427730 Z-1.322945
G01 X447.942352 Y204.771904 Z-1.407386
G01 X448.223304 Y204.001804 Z-1.688338
G01 X448.224066 Y200.066469 Z-4.222016
G01 X451.094830 Y199.560163 Z-3.638522
G01 X453.166229 Y199.696024 Z-3.498511
G01 X453.154375 Y199.800306 Z-3.394258
G01 X453.642112 Y199.799515 Z-3.394258
G01 X453.730080 Y201.058481 Z-2.210844
G01 X454.742750 Y199.873147 Z-2.873671
G01 X456.418388 Y199.878679 Z-2.178276
G01 X456.371229 Y199.885593 Z-2.198624
G01 X457.811070 Y199.502589 Z-1.720483
G01 X459.236292 Y198.856018 Z-1.469898
G01 X459.236434 Y198.855962 Z-1.469870
G01 X460.440196 Y198.117781 Z-1.418223
G01 X461.725944 Y197.216251 Z-1.457226
G01 X461.884073 Y197.127633 Z-1.482683
G01 X463.127431 Y196.430967 Z-1.682778
G01 X464.533886 Y195.534968 Z-2.009761
G01 X464.995545 Y195.265813 Z-2.197777
G01 X466.293090 Y194.478272 Z-2.756860
G01 X468.084072 Y193.285742 Z-3.632510
G01 X469.812711 Y192.339648 Z-4.531868
G01 X470.378765 Y192.603724 Z-4.375743
G01 X472.304875 Y193.729000 Z-3.621588
G01 X473.254496 Y195.872506 Z-2.181296
G01 X473.455721 Y197.164548 Z-1.673211
G01 X473.606371 Y198.131667 Z-1.292916
G01 X473.358608 Y199.709486 Z-1.151297
G01 X473.305607 Y199.940203 Z-1.146866
G01 X472.993469 Y201.316545 Z-1.124289
G01 X472.680428 Y202.895550 Z-1.142436
G01 X472.596185 Y203.250613 Z-1.160159
G01 X472.189051 Y204.966581 Z-1.245701
G01 X472.023161 Y205.600847 Z-1.292465
G01 X471.665190 Y206.969512 Z-1.393388
G01 X471.536243 Y208.415929 Z-1.736203
G01 X471.102467 Y209.758884 Z-1.757087
G01 X469.756380 Y211.489583 Z-1.038691
G01 X469.460413 Y212.140105 Z-1.015464
G01 X468.291026 Y214.710303 Z-0.923713
G01 X467.407726 Y216.651653 Z-0.854400
G01 X467.302175 Y216.856801 Z-0.858040
G01 X466.656451 Y218.111730 Z-0.880223
G01 X466.010755 Y219.366631 Z-0.902406
G01 X465.278360 Y220.790047 Z-0.927580
G01 X464.996730 Y221.337361 Z-0.937260
G01 X464.351034 Y222.592262 Z-0.959443
G01 X463.460566 Y224.418776 Z-1.035304
G01 X463.316182 Y224.720895 Z-1.053028
G01 X462.479336 Y226.471886 Z-1.155700
G01 X462.168412 Y226.912689 Z-1.274149
G01 X461.148376 Y228.841142 Z-2.020514
G01 X460.402181 Y230.181923 Z-2.926390
G01 X458.628075 Y231.830694 Z-4.212759
G01 X457.452225 Y231.410239 Z-3.780141
G01 X456.411389 Y231.092965 Z-3.462867
G01 X456.224981 Y231.036153 Z-3.406055
G01 X454.513755 Y230.599612 Z-2.969514
G01 X452.742557 Y230.426948 Z-2.932769
G01 X450.500329 Y228.403923 Z-2.217900
G01 X450.553415 Y226.567814 Z-1.699486
G01 X450.722100 Y225.384879 Z-1.530802
G01 X450.758563 Y224.322482 Z-1.494338
G01 X450.631196 Y223.552072 Z-1.442833
G01 X450.539022 Y223.459390 Z-1.443172
G01 X450.386227 Y223.305776 Z-1.443736
G01 X450.786644 Y222.764502 Z-0.841558
G01 X449.353294 Y222.768905 Z-1.092990
G01 X447.992559 Y222.358526 Z-0.923375
G01 X445.216875 Y221.847534 Z-0.898567
G01 X442.441191 Y221.336542 Z-0.873732
G01 X439.665508 Y220.825551 Z-0.848924
G01 X436.889824 Y220.314559 Z-0.824117
G01 X435.350189 Y220.031773 Z-0.810994
G01 X435.063479 Y219.984839 Z-0.810570
G01 X432.278285 Y219.529050 Z-0.806224
G01 X429.493118 Y219.073261 Z-0.801878
G01 X426.707952 Y218.617472 Z-0.797532
G01 X423.922757 Y218.161655 Z-0.793214
G01 X421.137590 Y217.705866 Z-0.788868
G01 X419.744993 Y217.477972 Z-0.786694
G01 X416.959827 Y217.022183 Z-0.782348
G01 X414.174660 Y216.566366 Z-0.778002
G01 X411.389466 Y216.110577 Z-0.773656
G01 X408.604299 Y215.654788 Z-0.769338
G01 X405.819133 Y215.198971 Z-0.764992
G01 X404.139487 Y214.924284 Z-0.762536
G01 X404.008310 Y214.903823 Z-0.761661
G01 X401.219701 Y214.469144 Z-0.743063
G01 X398.431091 Y214.034437 Z-0.724464
G01 X395.642481 Y213.599759 Z-0.705894
G01 X392.853872 Y213.165052 Z-0.687296
G01 X391.459581 Y212.947713 Z-0.677982
G01 X390.050728 Y212.827881 Z-0.767306
G01 X388.924605 Y213.263068 Z-1.363839
G01 X388.843776 Y213.341328 Z-1.387912
G01 X388.772205 Y213.410585 Z-1.409220
G01 X388.665750 Y213.607181 Z-1.389154
G01 X388.521168 Y214.106319 Z-1.244572
G01 X388.358298 Y214.931255 Z-1.081701
G01 X387.919103 Y215.843962 Z-1.141081
G01 X387.009332 Y217.114921 Z-1.499560
G01 X386.241828 Y217.984702 Z-1.972479
G01 X384.679757 Y219.108313 Z-2.737358
G01 X383.442466 Y218.878669 Z-2.484064
G01 X381.622359 Y218.443623 Z-2.428946
G01 X380.200834 Y218.126208 Z-2.746333
G01 X379.088596 Y217.665537 Z-3.207032
G01 X378.265410 Y217.373239 Z-3.582416
G01 X378.070197 Y215.987839 Z-2.947077
G01 X378.129605 Y214.127966 Z-2.402219
G01 X378.293152 Y213.059896 Z-2.211804
G01 X378.466183 Y212.325751 Z-2.138313
G01 X378.910372 Y210.245999 Z-1.975725
G01 X379.131465 Y209.454197 Z-1.974060
G01 X379.672909 Y207.405658 Z-1.999149
G01 X379.757124 Y207.088102 Z-2.009479
G01 X380.119074 Y205.723473 Z-2.053844
G01 X380.481024 Y204.358844 Z-2.098181
G01 X380.921968 Y202.696442 Z-2.152227
G01 X380.975167 Y202.495895 Z-2.158746
G01 X381.337117 Y201.131266 Z-2.203083
G01 X381.697910 Y199.766298 Z-2.248662
G01 X382.050913 Y198.399016 Z-2.302369
G01 X382.457511 Y196.799691 Z-2.371231
G01 X382.584285 Y196.153966 Z-2.451552
G01 X382.858153 Y194.758857 Z-2.625090
G01 X383.105662 Y193.355084 Z-2.826399
G01 X383.239182 Y190.820954 Z-3.487505
G01 X383.769872 Y189.886629 Z-3.527383
G01 X384.974848 Y188.334943 Z-3.318087
G01 X386.236918 Y187.499960 Z-3.782314
G01 X388.184392 Y186.573058 Z-4.150501
G01 X388.875950 Y186.714169 Z-4.009390
G01 X390.409178 Y187.012534 Z-3.710996
G01 X392.078579 Y187.084868 Z-3.638663
G01 X394.197080 Y187.521438 Z-3.778081
G01 X394.811281 Y188.774589 Z-3.120757
G01 X396.092061 Y190.765243 Z-2.255068
G01 X396.253803 Y191.087908 Z-2.159734
G01 X397.126208 Y192.445256 Z-1.901557
G01 X397.452711 Y192.901101 Z-1.884426
G00 Z5.000000

G00 Z5.000000
G00 X404.389903 Y214.965093

G01 Z-0.762762 F100.0(Penetrate)
G01 X407.175069 Y215.420882 Z-0.767108 F400.000000
G01 X409.960236 Y215.876671 Z-0.771454
G01 X412.745430 Y216.332488 Z-0.775772
G01 X415.530597 Y216.788277 Z-0.780119
G01 X418.315763 Y217.244066 Z-0.784465
G01 X419.827938 Y217.491547 Z-0.786836
G01 X419.947544 Y217.511133 Z-0.787005
G01 X422.732739 Y217.966922 Z-0.791351
G01 X425.517905 Y218.422711 Z-0.795697
G01 X428.303072 Y218.878500 Z-0.800015
G01 X431.088266 Y219.334317 Z-0.804362
G01 X433.873433 Y219.790106 Z-0.808708
G01 X435.396417 Y220.039647 Z-0.810768
G01 X435.756532 Y220.105941 Z-0.814014
G01 X438.532216 Y220.616932 Z-0.838821
G01 X441.307900 Y221.127924 Z-0.863628
G01 X444.083584 Y221.638915 Z-0.888436
G01 X446.859267 Y222.149907 Z-0.913243
G01 X448.876987 Y222.521340 Z-0.931277
G01 X449.852037 Y223.028098 Z-1.262324
G01 X450.692636 Y223.662533 Z-1.408176
G01 X450.744677 Y225.226496 Z-1.508224
G01 X450.652137 Y225.875438 Z-1.600764
G01 X450.535861 Y227.915707 Z-2.059376
G01 X450.519182 Y228.144900 Z-2.133798
G01 X450.930577 Y230.094011 Z-3.275753
G01 X450.536059 Y230.335000 Z-3.036993
G01 X448.964589 Y231.411622 Z-2.139781
G01 X448.651576 Y231.635339 Z-1.965339
G01 X447.621719 Y232.690173 Z-1.538591
G01 X446.618475 Y233.758892 Z-1.141871
G01 X445.598750 Y235.233644 Z-0.917900
G01 X445.466444 Y235.441416 Z-0.909743
G01 X444.708029 Y236.632310 Z-0.863064
G01 X443.795153 Y238.065744 Z-0.806902
G01 X443.591049 Y238.334872 Z-0.823327
G01 X442.789510 Y239.504288 Z-0.960148
G01 X442.002167 Y241.180321 Z-1.433209
G01 X441.568871 Y242.535552 Z-2.162782
G01 X441.429622 Y242.852629 Z-2.370356
G01 X440.043065 Y244.177718 Z-2.842034
G01 X438.658736 Y244.353515 Z-2.688562
G01 X437.645897 Y243.619906 Z-1.954953
G01 X437.630177 Y243.608533 Z-1.943580
G01 X436.219066 Y242.814275 Z-1.149322
G01 X434.718999 Y242.414083 Z-0.749131
G01 X434.327698 Y242.290724 Z-0.703890
G01 X432.930641 Y242.081626 Z-0.769394
G01 X431.508608 Y241.998878 Z-0.963704
G01 X430.052398 Y242.089302 Z-1.334488
G01 X428.611174 Y242.103837 Z-1.627971
G01 X427.326329 Y241.326455 Z-1.114185
G01 X425.983798 Y240.841090 Z-0.898088
G01 X423.222140 Y240.258385 Z-0.861399
G01 X420.460483 Y239.675653 Z-0.824710
G01 X417.698854 Y239.092921 Z-0.787993
G01 X416.316416 Y238.809654 Z-0.777861
G01 X413.549086 Y238.255736 Z-0.770523
G01 X410.781756 Y237.701791 Z-0.763185
G01 X408.014398 Y237.147873 Z-0.755848
G01 X406.630747 Y236.870928 Z-0.752179
G01 X405.247068 Y236.593956 Z-0.748510
G01 X402.479738 Y236.040038 Z-0.741172
G01 X399.712380 Y235.486149 Z-0.733834
G01 X396.945050 Y234.932231 Z-0.726496
G01 X395.561371 Y234.655258 Z-0.722828
G01 X394.176930 Y234.382180 Z-0.723082
G01 X391.406749 Y233.842712 Z-0.730504
G01 X390.021659 Y233.572992 Z-0.734201
G01 X388.176659 Y233.213724 Z-0.739112
G01 X387.972133 Y233.133996 Z-0.778849
G01 X386.557663 Y232.582703 Z-1.053536
G01 X385.374926 Y232.121721 Z-1.283180
G01 X384.977162 Y230.119496 Z-1.382522
G01 X385.118979 Y229.647479 Z-1.257244
G01 X385.434758 Y228.246528 Z-0.990431
G01 X385.648541 Y226.446627 Z-0.839470
G01 X385.707102 Y225.990584 Z-0.845820
G01 X385.808279 Y224.125604 Z-1.008662
G01 X385.816209 Y223.981557 Z-1.030958
G01 X385.813274 Y222.538104 Z-1.334883
G01 X385.516235 Y221.031912 Z-1.939516
G01 X385.087568 Y219.290911 Z-2.721808
G01 X385.327767 Y218.841557 Z-2.614817
G01 X386.836386 Y217.294612 Z-1.591254
G01 X387.106670 Y216.978975 Z-1.461206
G01 X387.941907 Y215.796577 Z-1.138005
G01 X388.532598 Y214.048436 Z-1.256002
G01 X389.924631 Y212.818539 Z-0.776647
G01 X390.969248 Y212.896009 Z-0.699206
G01 X391.271960 Y212.918474 Z-0.676741
G01 X391.522912 Y212.957590 Z-0.678406
G01 X394.311521 Y213.392269 Z-0.697004
G01 X397.100131 Y213.826976 Z-0.715603
G01 X399.888712 Y214.261655 Z-0.734201
G01 X402.677322 Y214.696361 Z-0.752800
G01 X404.269366 Y214.945366 Z-0.762564
G01 X404.389903 Y214.965093 Z-0.762762
G00 Z5.000000

G00 Z5.000000
G00 X418.004839 Y206.611485

G01 Z-1.618855 F100.0(Penetrate)
G01 X417.927369 Y208.066030 Z-1.541385 F400.000000
G01 X415.973601 Y208.207057 Z-1.133263
G01 X415.494557 Y208.183858 Z-1.090422
G01 X413.691750 Y208.096595 Z-0.929188
G01 X413.603160 Y208.087253 Z-0.925012
G01 X412.127928 Y207.930112 Z-0.853609
G01 X411.902461 Y207.898644 Z-0.850053
G01 X410.306833 Y207.675858 Z-0.824992
G01 X410.076060 Y207.643656 Z-0.821351
G01 X408.678354 Y207.448500 Z-0.799394
G01 X407.043300 Y207.220238 Z-0.773712
G01 X406.862226 Y207.193371 Z-0.772414
G01 X405.204791 Y206.947499 Z-0.760702
G01 X403.644610 Y206.528342 Z-0.935115
G01 X402.858396 Y206.090531 Z-1.175512
G01 X402.367131 Y204.822761 Z-1.529898
G01 X402.537029 Y203.982246 Z-1.745347
G01 X402.678225 Y203.485140 Z-1.886543
G01 X403.086826 Y202.007763 Z-2.315690
G01 X405.183201 Y200.882628 Z-3.185188
G01 X405.872557 Y201.420543 Z-2.670528
G01 X407.755149 Y202.889623 Z-1.264948
G01 X407.845799 Y202.966867 Z-1.199078
G01 X409.276242 Y203.465356 Z-0.874861
G01 X409.376205 Y203.484773 Z-0.873111
G01 X410.761634 Y203.753816 Z-0.848755
G01 X412.245897 Y204.042049 Z-0.822706
G01 X412.302850 Y204.054749 Z-0.823327
G01 X413.756520 Y204.361130 Z-0.856686
G01 X414.212676 Y204.469813 Z-0.897184
G01 X416.095888 Y204.918490 Z-1.064401
G01 X417.743727 Y205.459764 Z-1.357743
G01 X418.004839 Y206.611485 Z-1.618855
G00 Z5.000000

G00 Z5.000000
G00 X423.445576 Y206.528258

G01 Z-1.577227 F100.0(Penetrate)
G01 X424.733073 Y207.713986 Z-2.049103 F400.000000
G01 X422.936277 Y209.352455 Z-0.955350
G01 X421.706748 Y209.267591 Z-0.870486
G01 X420.903431 Y209.212135 Z-0.815030
G01 X419.573910 Y208.733288 Z-1.106678
G01 X418.709633 Y208.170057 Z-1.545816
G01 X417.942524 Y206.949249 Z-1.556540
G01 X419.158225 Y205.313009 Z-1.004852
G01 X420.421790 Y205.406311 Z-0.911550
G01 X421.235493 Y205.466397 Z-0.851464
G01 X422.578730 Y205.957491 Z-1.139952
G01 X423.445576 Y206.528258 Z-1.577227
G00 Z5.000000

G00 Z5.000000
G00 X432.726792 Y207.614446

G01 Z-1.488666 F100.0(Penetrate)
G01 X432.562369 Y208.646702 Z-0.806140 F400.000000
G01 X432.380505 Y209.799411 Z-1.149689
G01 X431.149085 Y210.360892 Z-1.084806
G01 X430.285542 Y210.382002 Z-0.945275
G01 X429.442600 Y210.323808 Z-0.887081
G01 X429.416551 Y210.322002 Z-0.885303
G01 X427.833200 Y210.212725 Z-0.775998
G01 X425.754690 Y209.670548 Z-1.027486
G01 X424.645697 Y208.397105 Z-2.136479
G01 X425.154572 Y206.832973 Z-1.627604
G01 X427.470008 Y206.449377 Z-0.908106
G01 X428.800093 Y206.547195 Z-0.810288
G01 X430.052313 Y206.601720 Z-0.755763
G01 X431.788516 Y207.007838 Z-1.009424
G01 X432.726792 Y207.614446 Z-1.488666
G00 Z5.000000

G00 Z5.000000
G00 X438.735388 Y197.571907

G01 Z-4.999990 F100.0(Penetrate)
G01 X440.137553 Y197.730403 Z-4.999990 F400.000000
G01 X441.638495 Y197.900047 Z-4.999990
G01 X441.840256 Y197.922850 Z-4.999990
G01 X443.619272 Y198.369552 Z-4.755896
G01 X445.406331 Y199.275344 Z-4.219674
G01 X445.980907 Y199.462429 Z-4.244933
G01 X448.141234 Y200.570095 Z-3.961074
G01 X448.368394 Y203.604181 Z-1.833428
G01 X447.918335 Y204.901557 Z-1.383369
G01 X447.699274 Y206.084774 Z-1.164308
G01 X446.516198 Y207.576008 Z-1.914652
G01 X445.636145 Y207.404925 Z-1.580473
G01 X443.570617 Y207.383419 Z-1.169360
G01 X443.311085 Y207.363946 Z-1.134082
G01 X441.679022 Y207.366683 Z-1.037280
G01 X441.155472 Y207.361208 Z-1.035897
G01 X439.744361 Y207.355705 Z-1.041400
G01 X438.333249 Y207.350202 Z-1.046903
G01 X436.922138 Y207.345771 Z-1.053479
G01 X434.977458 Y207.414718 Z-1.137610
G01 X434.665574 Y207.429873 Z-1.179802
G01 X433.243089 Y207.498933 Z-1.372221
G01 X431.865337 Y207.055138 Z-1.049895
G01 X430.479682 Y206.701683 Z-0.818190
G01 X428.786857 Y206.546630 Z-0.810853
G01 X428.073710 Y206.493968 Z-0.863515
G01 X426.633163 Y206.588032 Z-1.168146
G01 X425.170602 Y206.830320 Z-1.622608
G01 X423.758306 Y206.734195 Z-1.734989
G01 X421.793475 Y205.670387 Z-0.971296
G01 X421.686851 Y205.631412 Z-0.948408
G01 X420.295072 Y205.396970 Z-0.920891
G01 X418.854610 Y205.490583 Z-1.225098
G01 X417.447055 Y205.362313 Z-1.304939
G01 X416.086716 Y204.916317 Z-1.063583
G01 X414.708879 Y204.588036 Z-0.941239
G01 X413.193571 Y204.253575 Z-0.832951
G01 X413.048960 Y204.221289 Z-0.831398
G01 X411.668273 Y203.929866 Z-0.832838
G01 X410.282844 Y203.660823 Z-0.857165
G01 X408.226403 Y203.291253 Z-0.922415
G01 X405.349035 Y199.033423 Z-2.516830
G01 X409.234840 Y199.659336 Z-1.773851
G01 X410.644117 Y199.576814 Z-1.813758
G01 X412.749974 Y199.086142 Z-2.240590
G01 X413.474862 Y198.917232 Z-2.438598
G01 X414.905475 Y198.462431 Z-2.950718
G01 X416.339841 Y197.914638 Z-3.555915
G01 X417.775900 Y197.325104 Z-4.202882
G01 X419.211960 Y196.735598 Z-4.849820
G01 X421.265889 Y196.668175 Z-4.999990
G01 X421.743522 Y196.687451 Z-4.999990
G01 X427.383394 Y196.915091 Z-4.999990
G01 X429.320370 Y196.993267 Z-4.999990
G01 X429.646873 Y197.012910 Z-4.999990
G01 X436.689672 Y197.436694 Z-4.999990
G01 X438.506308 Y197.546027 Z-4.999990
G01 X438.735388 Y197.571907 Z-4.999990
G00 Z5.000000

G00 Z5.000000
G00 X446.511231 Y210.156055

G01 Z-1.380095 F100.0(Penetrate)
G01 X446.180777 Y211.146683 Z-1.398298 F400.000000
G01 X444.771641 Y211.741664 Z-1.431996
G01 X444.322654 Y211.752897 Z-1.366605
G01 X442.530966 Y211.797742 Z-1.105662
G01 X441.140006 Y211.749623 Z-0.985435
G01 X440.494535 Y211.702830 Z-0.953911
G01 X438.446618 Y211.554325 Z-0.853976
G01 X437.029552 Y211.400345 Z-0.835660
G01 X436.559906 Y211.325556 Z-0.853186
G01 X434.673081 Y211.018808 Z-0.917307
G01 X433.457409 Y210.724197 Z-1.042106
G01 X432.702690 Y210.348728 Z-1.310301
G01 X432.254324 Y209.041701 Z-0.703128
G01 X432.971451 Y207.512113 Z-1.408966
G01 X433.583788 Y207.482395 Z-1.326134
G01 X435.311383 Y207.385225 Z-1.105493
G01 X435.450152 Y207.381811 Z-1.101005
G01 X436.959787 Y207.344839 Z-1.052266
G01 X437.357438 Y207.346392 Z-1.050713
G01 X439.136341 Y207.353334 Z-1.043771
G01 X439.625150 Y207.355253 Z-1.041852
G01 X441.553207 Y207.362761 Z-1.034344
G01 X441.678091 Y207.366655 Z-1.037251
G01 X443.277105 Y207.361406 Z-1.129453
G01 X443.648425 Y207.384238 Z-1.184825
G01 X445.864773 Y207.407295 Z-1.625995
G01 X446.870161 Y208.883967 Z-1.295061
G01 X446.511231 Y210.156055 Z-1.380095
G00 Z5.000000

G00 Z5.000000
G00 X456.503252 Y235.285460

G01 Z-1.651282 F100.0(Penetrate)
G01 X456.051669 Y236.252918 Z-1.199698 F400.000000
G01 X455.474016 Y237.338232 Z-1.040723
G01 X455.258144 Y237.660502 Z-1.029631
G01 X454.271129 Y239.134153 Z-0.978888
G01 X453.499900 Y240.133982 Z-1.063216
G01 X453.204442 Y240.531548 Z-1.167271
G01 X452.234754 Y242.376604 Z-1.914962
G01 X450.999129 Y243.044314 Z-1.772356
G01 X450.520960 Y243.166036 Z-1.673606
G01 X448.941193 Y244.352414 Z-2.053308
G01 X447.471182 Y244.282761 Z-1.578187
G01 X446.393149 Y244.179835 Z-1.475260
G01 X445.426256 Y244.298792 Z-1.594189
G01 X444.337951 Y244.561174 Z-2.006402
G01 X442.399874 Y244.409479 Z-2.616652
G01 X441.292265 Y243.165415 Z-2.575108
G01 X442.153494 Y240.546280 Z-1.141956
G01 X442.350457 Y240.223587 Z-1.085652
G01 X443.141526 Y238.927623 Z-0.859536
G01 X443.450277 Y238.520489 Z-0.834672
G01 X444.474744 Y236.998578 Z-0.848727
G01 X444.655592 Y236.714634 Z-0.859846
G01 X445.618365 Y235.200935 Z-0.920186
G01 X446.492661 Y233.892948 Z-1.092115
G01 X446.940406 Y233.415964 Z-1.269182
G01 X448.531095 Y231.721445 Z-1.898198
G01 X450.088821 Y230.608163 Z-2.766286
G01 X450.426528 Y230.401887 Z-2.970699
G01 X451.975590 Y230.235376 Z-3.128603
G01 X453.287076 Y230.446281 Z-2.910445
G01 X454.903109 Y230.633225 Z-3.003127
G01 X457.853065 Y231.530155 Z-3.904206
G01 X457.042805 Y234.159535 Z-2.190835
G01 X456.503252 Y235.285460 Z-1.651282
G00 Z5.000000

G00 Z5.000000
G00 X460.971677 Y237.888960

G01 Z-0.921625 F100.0(Penetrate)
G01 X460.756257 Y239.314437 Z-0.706205 F400.000000
G01 X460.677460 Y239.503610 Z-0.725593
G01 X460.191840 Y241.057300 Z-1.027571
G01 X460.016411 Y241.475299 Z-1.205202
G01 X459.547527 Y243.708552 Z-2.480620
G01 X458.585319 Y244.320861 Z-2.454120
G01 X456.733715 Y243.938789 Z-1.455928
G01 X455.715288 Y243.820566 Z-1.269831
G01 X454.983881 Y243.568203 Z-1.296247
G01 X454.002594 Y243.344655 Z-1.439108
G01 X452.151499 Y242.840211 Z-1.943552
G01 X453.280585 Y240.386655 Z-1.108541
G01 X454.048371 Y239.414541 Z-0.997684
G01 X454.171420 Y239.259657 Z-0.987298
G01 X455.066487 Y237.946675 Z-1.019782
G01 X455.190665 Y237.761255 Z-1.026160
G01 X456.075770 Y236.177565 Z-1.223800
G01 X457.069983 Y234.057455 Z-2.253375
G01 X459.607866 Y231.660514 Z-4.229552
G01 X461.767374 Y233.111277 Z-3.626273
G01 X461.424220 Y236.022060 Z-1.628817
G01 X461.206683 Y237.070093 Z-1.156631
G01 X460.971677 Y237.888960 Z-0.921625
G00 Z5.000000

G00 Z5.000000
G00 X458.378365 Y244.617900

G01 Z-2.306941 F100.0(Penetrate)
G01 X458.392053 Y245.874467 Z-1.657999 F400.000000
G01 X458.345656 Y247.319529 Z-1.704396
G01 X457.418048 Y248.791149 Z-1.888038
G01 X456.262206 Y249.052232 Z-1.658789
G01 X454.826768 Y249.211011 Z-1.607707
G01 X453.866140 Y249.217586 Z-1.672900
G01 X452.090398 Y249.434107 Z-2.363780
G01 X451.063645 Y248.743030 Z-2.222839
G01 X450.557084 Y247.877821 Z-1.969234
G01 X449.900043 Y246.881125 Z-1.729034
G01 X448.878116 Y245.429938 Z-1.537547
G01 X450.157570 Y243.258521 Z-1.598563
G01 X451.683292 Y242.815714 Z-1.968048
G01 X453.008410 Y243.073721 Z-1.710041
G01 X453.061976 Y243.088341 Z-1.695422
G01 X454.722712 Y243.478089 Z-1.305673
G01 X454.999460 Y243.573565 Z-1.295682
G01 X457.083981 Y243.929222 Z-1.567942
G01 X458.378365 Y244.617900 Z-2.306941
G00 Z5.000000

G00 Z5.000000
G00 X463.748602 Y249.821796

G01 Z-0.737729 F100.0(Penetrate)
G01 X464.486331 Y248.040663 Z0.000000 F400.000000
G01 X463.748602 Y249.821796 Z-0.737729
G01 X464.046234 Y249.103258 Z-0.440097
G01 X462.681351 Y249.704250 Z-0.875425
G01 X462.497963 Y249.684241 Z-0.898934
G01 X460.945204 Y249.514710 Z-1.097816
G01 X460.171266 Y249.349243 Z-1.277902
G01 X458.841746 Y248.864442 Z-1.787793
G01 X458.153998 Y247.871669 Z-1.896054
G01 X458.356832 Y246.971916 Z-1.693220
G01 X458.220659 Y245.271104 Z-1.829393
G01 X460.115810 Y243.806399 Z-2.103007
G01 X460.862005 Y244.072619 Z-1.689467
G01 X462.838097 Y244.386393 Z-0.977279
G01 X464.435814 Y244.563573 Z-0.927523
G01 X465.658711 Y244.874920 Z-1.495834
G01 X466.738973 Y245.005053 Z-2.107099
G01 X466.924393 Y246.321789 Z-1.770493
G01 X466.517739 Y247.739193 Z-1.497189
G01 X466.078714 Y248.583856 Z-1.510030
G01 X464.179274 Y248.782033 Z-0.307058
G01 X463.748602 Y249.821796 Z-0.737729
G00 Z5.000000

G00 Z5.000000
G00 X451.303167 Y249.995758

G01 Z-2.273921 F100.0(Penetrate)
G01 X451.299018 Y250.004394 Z-2.268530 F400.000000
G01 X450.833380 Y251.575779 Z-1.574998
G01 X450.649343 Y253.000352 Z-1.298617
G01 X450.559652 Y253.527656 Z-1.237347
G01 X450.475268 Y255.479674 Z-1.257808
G01 X450.342878 Y256.750069 Z-1.373011
G01 X450.215257 Y257.193412 Z-1.407724
G01 X449.568742 Y258.953830 Z-1.414582
G01 X448.966875 Y260.089097 Z-1.454235
G01 X448.655160 Y260.534782 Z-1.482203
G01 X447.435057 Y262.041623 Z-1.445627
G01 X446.489274 Y263.073371 Z-1.505006
G01 X445.450132 Y264.112485 Z-1.631075
G01 X445.402069 Y264.160548 Z-1.636889
G01 X444.294714 Y265.328016 Z-1.817229
G01 X443.564972 Y267.351945 Z-3.131651
G01 X443.127979 Y268.266062 Z-3.827554
G01 X441.266583 Y270.239642 Z-4.999990
G01 X439.066943 Y270.513426 Z-4.999990
G01 X437.396131 Y270.346548 Z-4.999990
G01 X435.914887 Y270.198636 Z-4.999990
G01 X434.212720 Y269.772057 Z-4.999990
G01 X431.684517 Y268.545970 Z-4.999990
G01 X432.065771 Y265.142766 Z-2.476839
G01 X433.466722 Y263.155554 Z-0.953544
G01 X433.979802 Y262.347383 Z-0.944654
G01 X435.083348 Y261.112548 Z-1.262549
G01 X435.936449 Y260.276154 Z-1.636183
G01 X436.971104 Y259.393730 Z-2.149884
G01 X436.974349 Y259.390964 Z-2.151493
G01 X437.970029 Y258.541785 Z-2.645833
G01 X438.305197 Y258.139393 Z-2.851743
G01 X438.216409 Y258.295575 Z-2.797838
G01 X439.012361 Y257.478626 Z-2.853888
G01 X439.012361 Y257.478626 Z-2.853888
G01 X438.883442 Y256.773691 Z-3.129590
G01 X438.899585 Y256.698959 Z-3.129675
G01 X439.231111 Y255.166633 Z-3.131227
G01 X439.391413 Y254.558839 Z-3.135969
G01 X440.635590 Y252.800285 Z-2.396546
G01 X440.701348 Y252.705006 Z-2.363950
G01 X441.564553 Y251.454310 Z-1.936214
G01 X441.592352 Y251.414037 Z-1.922441
G01 X442.454117 Y250.165345 Z-1.495326
G01 X442.653733 Y249.875108 Z-1.395645
G01 X443.477003 Y248.304259 Z-1.100497
G01 X443.641341 Y247.255747 Z-1.264835
G01 X443.554191 Y246.025963 Z-1.724011
G01 X443.826649 Y244.616687 Z-2.255464
G01 X445.818912 Y244.174360 Z-1.469785
G01 X447.143465 Y244.186975 Z-1.482400
G01 X448.844249 Y244.745070 Z-1.928170
G01 X449.263519 Y245.898314 Z-1.557613
G01 X449.423313 Y246.145033 Z-1.600652
G01 X450.359980 Y247.543952 Z-1.872488
G01 X451.039148 Y248.694459 Z-2.205792
G01 X451.303167 Y249.995758 Z-2.273921
G00 Z5.000000

G00 Z5.000000
G00 X443.557267 Y247.792082

G01 Z-1.180761 F100.0(Penetrate)
G01 X443.399618 Y248.790641 Z-1.023112 F400.000000
G01 X442.699509 Y249.808531 Z-1.372757
G01 X441.864668 Y251.019434 Z-1.787454
G01 X440.559813 Y252.916617 Z-2.439162
G01 X440.307987 Y253.270580 Z-2.589361
G01 X439.436174 Y254.495932 Z-3.109270
G01 X437.864535 Y254.697044 Z-2.388701
G01 X435.969638 Y254.970207 Z-1.545251
G01 X435.860616 Y254.985926 Z-1.496737
G01 X434.379909 Y255.320134 Z-0.937288
G01 X433.176852 Y256.060657 Z-0.870006
G01 X431.979806 Y256.922789 Z-0.906526
G01 X431.806945 Y257.060260 Z-0.905369
G01 X430.702469 Y257.938563 Z-0.897862
G01 X429.450418 Y258.934215 Z-0.889367
G01 X429.205562 Y259.239382 Z-0.915077
G01 X428.333975 Y260.354724 Z-1.026301
G01 X427.435633 Y261.949393 Z-1.441732
G01 X427.133656 Y262.755617 Z-1.666099
G01 X427.123072 Y262.824225 Z-1.687096
G01 X426.995846 Y264.292261 Z-2.225435
G01 X427.094370 Y264.582413 Z-2.391438
G01 X427.312189 Y265.033376 Z-2.609257
G01 X428.197859 Y266.790351 Z-3.494927
G01 X425.605055 Y267.626095 Z-2.101963
G01 X425.054129 Y267.842334 Z-1.926280
G01 X423.332912 Y268.692049 Z-1.513247
G01 X422.027352 Y269.414425 Z-1.418590
G01 X421.414168 Y269.725913 Z-1.399258
G01 X419.551219 Y270.690069 Z-1.356162
G01 X418.234314 Y271.326508 Z-1.391299
G01 X417.849956 Y271.486077 Z-1.424855
G01 X416.086744 Y272.218020 Z-1.578808
G01 X414.283796 Y272.765983 Z-1.914596
G01 X412.757961 Y272.415604 Z-2.745768
G01 X412.648402 Y270.365796 Z-1.373914
G01 X413.384382 Y269.184583 Z-1.241270
G01 X414.117990 Y267.973483 Z-1.124119
G01 X415.081976 Y266.368062 Z-0.976348
G01 X415.128092 Y266.300723 Z-0.974767
G01 X416.723296 Y263.971938 Z-0.920665
G01 X417.533951 Y262.788468 Z-0.893177
G01 X417.630641 Y262.643801 Z-0.891822
G01 X418.390693 Y261.454714 Z-0.909687
G01 X419.264651 Y260.087432 Z-0.930204
G01 X419.554296 Y259.672142 Z-0.956987
G01 X420.632187 Y258.011659 Z-1.127337
G01 X420.836742 Y257.545202 Z-1.331891
G01 X421.455627 Y256.134091 Z-1.950776
G01 X422.129037 Y254.782218 Z-2.489087
G01 X423.727403 Y253.645738 Z-2.242453
G01 X424.328649 Y253.105028 Z-2.348625
G01 X426.201645 Y252.100486 Z-2.118558
G01 X426.777209 Y251.940269 Z-1.958340
G01 X428.188320 Y251.547472 Z-1.565543
G01 X429.930845 Y250.708369 Z-1.383623
G01 X430.065070 Y250.633975 Z-1.377950
G01 X431.296546 Y249.943518 Z-1.332823
G01 X432.493338 Y249.195545 Z-1.354864
G01 X433.858306 Y248.342443 Z-1.379982
G01 X434.105222 Y248.199103 Z-1.393726
G01 X435.324478 Y247.484968 Z-1.467217
G01 X436.806371 Y246.499673 Z-1.660708
G01 X437.040248 Y246.367001 Z-1.708771
G01 X438.287727 Y245.659329 Z-1.965142
G01 X439.681340 Y244.254201 Z-2.831648
G01 X441.098406 Y243.795731 Z-3.028555
G01 X443.404642 Y244.691758 Z-2.488043
G01 X443.713111 Y246.797813 Z-1.336604
G01 X443.557267 Y247.792082 Z-1.180761
G00 Z5.000000

G00 Z5.000000
G00 X437.897103 Y243.801855

G01 Z-2.136902 F100.0(Penetrate)
G01 X438.327041 Y245.637033 Z-1.973213 F400.000000
G01 X436.816757 Y246.493775 Z-1.662853
G01 X435.250085 Y247.534441 Z-1.457508
G01 X435.012792 Y247.672194 Z-1.444272
G01 X433.792407 Y248.383648 Z-1.378768
G01 X432.595643 Y249.131621 Z-1.356727
G01 X431.182218 Y250.014977 Z-1.330734
G01 X430.651781 Y250.308883 Z-1.353143
G01 X428.646875 Y251.419823 Z-1.437894
G01 X427.343375 Y251.782676 Z-1.800747
G01 X424.835718 Y252.345117 Z-2.363188
G01 X425.411874 Y249.290061 Z-1.216462
G01 X425.594331 Y248.782456 Z-1.146641
G01 X426.194053 Y247.083507 Z-0.923572
G01 X426.801339 Y245.647616 Z-0.947053
G01 X426.847002 Y245.563655 Z-0.957834
G01 X427.526340 Y244.314314 Z-1.118136
G01 X427.947641 Y243.431382 Z-1.279567
G01 X428.620572 Y242.378890 Z-1.698893
G01 X428.855493 Y242.243791 Z-1.717915
G01 X430.553794 Y242.024589 Z-1.173875
G01 X431.610857 Y241.996141 Z-0.941183
G01 X431.763398 Y242.006018 Z-0.921343
G01 X433.322874 Y242.107026 Z-0.718340
G01 X434.225731 Y242.258579 Z-0.692094
G01 X435.766100 Y242.635007 Z-0.970054
G01 X436.912515 Y243.088679 Z-1.423726
G01 X437.897103 Y243.801855 Z-2.136902
G00 Z5.000000

G00 Z5.000000
G00 X437.532133 Y258.915278

G01 Z-2.428409 F100.0(Penetrate)
G01 X436.108576 Y260.129342 Z-1.721640 F400.000000
G01 X435.898518 Y260.313351 Z-1.619560
G01 X434.659732 Y261.615637 Z-1.117346
G01 X434.531688 Y261.753446 Z-1.084806
G01 X433.367832 Y263.533422 Z-1.076029
G01 X432.558418 Y263.951195 Z-1.493802
G01 X432.615963 Y264.334199 Z-1.876834
G01 X432.178575 Y264.967054 Z-2.353197
G01 X431.762326 Y266.362586 Z-3.506978
G01 X430.651894 Y268.265413 Z-4.885634
G01 X428.123719 Y266.713643 Z-3.420787
G01 X426.937116 Y264.029230 Z-2.055961
G01 X427.203703 Y262.461711 Z-1.551771
G01 X427.360732 Y262.114832 Z-1.477264
G01 X428.156429 Y260.581913 Z-1.048964
G01 X428.370269 Y260.308271 Z-1.021673
G01 X429.427276 Y258.955692 Z-0.886799
G01 X429.738680 Y258.704994 Z-0.891314
G01 X431.044211 Y257.666812 Z-0.900176
G01 X431.446886 Y257.346574 Z-0.902914
G01 X433.040595 Y256.144533 Z-0.862386
G01 X434.635997 Y255.162485 Z-0.951625
G01 X439.243162 Y254.498303 Z-3.002365
G01 X438.079899 Y258.432481 Z-2.693218
G01 X437.532133 Y258.915278 Z-2.428409
G00 Z5.000000

G00 Z5.000000
G00 X430.501921 Y268.189383

G01 Z-4.814768 F100.0(Penetrate)
G01 X431.676276 Y269.382731 Z-4.999990 F400.000000
G01 X431.832627 Y269.581500 Z-4.999990
G01 X433.041555 Y271.118454 Z-4.999990
G01 X433.309948 Y271.556153 Z-4.999990
G01 X434.901060 Y274.151101 Z-4.999990
G01 X432.043758 Y275.988199 Z-2.142688
G01 X431.150835 Y277.027284 Z-1.249765
G01 X430.582270 Y277.384239 Z-1.153301
G01 X429.424030 Y278.200482 Z-1.024636
G01 X428.319751 Y279.080169 Z-0.979255
G01 X427.148754 Y280.045595 Z-0.956000
G01 X426.964633 Y280.190713 Z-0.956903
G01 X424.744842 Y281.933577 Z-0.962716
G01 X423.634947 Y282.805023 Z-0.965623
G01 X422.525080 Y283.676440 Z-0.968530
G01 X421.415184 Y284.547886 Z-0.971437
G01 X420.120913 Y285.564083 Z-0.974852
G01 X419.999840 Y285.655241 Z-0.978210
G01 X417.744743 Y287.353288 Z-1.041118
G01 X416.233104 Y288.491546 Z-1.083254
G01 X415.294066 Y288.817231 Z-1.408938
G01 X413.866248 Y289.110149 Z-1.701885
G01 X413.365332 Y287.996190 Z-1.420227
G01 X412.624978 Y286.271361 Z-0.956225
G01 X412.546972 Y286.113344 Z-0.942792
G01 X411.920495 Y284.844332 Z-0.834898
G01 X411.269944 Y283.589572 Z-0.755001
G01 X410.450089 Y282.249779 Z-0.777409
G01 X410.175430 Y281.793228 Z-0.837579
G01 X408.998112 Y279.968040 Z-1.150140
G01 X408.521128 Y278.723045 Z-1.627124
G01 X407.855338 Y277.339987 Z-2.292914
G01 X409.230070 Y275.705920 Z-2.346565
G01 X409.496770 Y275.477659 Z-2.368494
G01 X410.567267 Y274.553409 Z-2.462869
G01 X411.781303 Y273.409704 Z-2.646228
G01 X412.130722 Y273.112128 Z-2.719465
G01 X414.005750 Y272.722351 Z-2.080373
G01 X414.620204 Y272.663734 Z-1.851942
G01 X416.459644 Y272.063221 Z-1.546267
G01 X416.508271 Y272.043042 Z-1.542006
G01 X417.815807 Y271.500244 Z-1.427847
G01 X419.098422 Y270.908904 Z-1.368242
G01 X420.420323 Y270.230781 Z-1.367931
G01 X420.895670 Y269.989311 Z-1.382917
G01 X422.152095 Y269.345393 Z-1.427649
G01 X424.081789 Y268.223927 Z-1.616146
G01 X425.027544 Y267.852804 Z-1.917813
G01 X425.027544 Y267.852804 Z-1.917813
G01 X426.122199 Y267.369499 Z-2.320346
G01 X427.839804 Y267.288783 Z-3.555746
G01 X429.918540 Y267.893670 Z-4.539065
G01 X430.501921 Y268.189383 Z-4.814768
G00 Z5.000000

G00 Z5.000000
G00 X436.330657 Y276.636153

G01 Z-4.549253 F100.0(Penetrate)
G01 X434.805415 Y279.443643 Z-1.775770 F400.000000
G01 X432.811233 Y281.168105 Z-1.332174
G01 X432.334249 Y281.552407 Z-1.283547
G01 X431.231917 Y282.440504 Z-1.171194
G01 X429.701878 Y283.687842 Z-1.025934
G01 X429.193285 Y284.089501 Z-1.005981
G01 X427.582304 Y285.361730 Z-0.942820
G01 X427.535230 Y285.397064 Z-0.942453
G01 X426.406877 Y286.244493 Z-0.933309
G01 X425.249766 Y287.113540 Z-0.923911
G01 X424.991391 Y287.307568 Z-0.921822
G01 X422.734686 Y289.002453 Z-0.903478
G01 X421.606333 Y289.849882 Z-0.894334
G01 X420.493616 Y290.717828 Z-0.910957
G01 X418.268745 Y292.454511 Z-0.945190
G01 X416.747596 Y293.753805 Z-1.057628
G01 X416.747596 Y293.753805 Z-1.057628
G01 X416.076612 Y294.197177 Z-1.386247
G01 X414.675548 Y294.373650 Z-1.333048
G01 X411.859535 Y294.641761 Z-1.140658
G01 X410.451500 Y294.775817 Z-1.044448
G01 X409.043493 Y294.909872 Z-0.948267
G01 X407.635458 Y295.043956 Z-0.852057
G01 X406.229117 Y295.188087 Z-0.766092
G01 X403.442765 Y295.636707 Z-0.756638
G01 X400.656385 Y296.085328 Z-0.747155
G01 X397.870033 Y296.533948 Z-0.737701
G01 X395.083681 Y296.982541 Z-0.728218
G01 X393.690520 Y297.206851 Z-0.723477
G01 X392.297922 Y297.434802 Z-0.722432
G01 X389.515550 Y297.907637 Z-0.737531
G01 X386.733206 Y298.380500 Z-0.752630
G01 X384.877736 Y298.695855 Z-0.762706
G01 X384.413508 Y298.774736 Z-0.765217
G01 X381.631136 Y299.247600 Z-0.780316
G01 X378.848763 Y299.720463 Z-0.795443
G01 X376.066391 Y300.193326 Z-0.810542
G01 X373.284047 Y300.666190 Z-0.825641
G01 X370.501674 Y301.139053 Z-0.840740
G01 X367.719302 Y301.611888 Z-0.855839
G01 X366.328849 Y301.852708 Z-0.867833
G01 X363.550879 Y302.352326 Z-0.910054
G01 X360.772910 Y302.851944 Z-0.952274
G01 X357.994940 Y303.351562 Z-0.994495
G01 X355.216970 Y303.851180 Z-1.036687
G01 X352.932409 Y304.677950 Z-1.481808
G01 X352.932409 Y304.677950 Z-1.481808
G01 X352.316911 Y304.447431 Z-1.571780
G01 X351.277656 Y303.402616 Z-1.146979
G01 X348.832708 Y301.990715 Z-1.067872
G01 X346.387789 Y300.578786 Z-0.988737
G01 X345.165315 Y299.872835 Z-0.949170
G01 X343.817563 Y299.094551 Z-0.905566
G01 X343.229073 Y298.754699 Z-0.886516
G01 X341.998076 Y298.064524 Z-0.864870
G01 X340.760391 Y297.386711 Z-0.857306
G01 X338.908477 Y296.372546 Z-0.845989
G01 X338.552623 Y296.166043 Z-0.854004
G01 X336.111203 Y294.749203 Z-0.908868
G01 X334.355611 Y293.730381 Z-0.948351
G01 X333.728852 Y293.132578 Z-1.167130
G01 X333.728852 Y293.132578 Z-1.167130
G01 X332.946814 Y292.386580 Z-1.440265
G01 X332.850831 Y290.653877 Z-2.197918
G01 X334.510382 Y289.946966 Z-1.499080
G01 X335.497539 Y289.643069 Z-1.195183
G01 X336.410782 Y289.444837 Z-0.996922
G01 X337.589963 Y288.896846 Z-1.006687
G01 X339.157171 Y288.035927 Z-1.616908
G01 X339.612367 Y287.816471 Z-1.850983
G01 X341.019132 Y287.973330 Z-1.739702
G01 X342.417346 Y288.395055 Z-1.363387
G01 X344.191225 Y288.218496 Z-1.597180
G01 X344.604681 Y287.954534 Z-1.903674
G01 X346.128060 Y286.982024 Z-3.032929
G01 X347.814902 Y287.791889 Z-2.407327
G01 X348.341359 Y287.915841 Z-2.353028
G01 X349.721906 Y288.240848 Z-2.210675
G01 X351.108492 Y288.519825 Z-2.114748
G01 X353.005223 Y288.825472 Z-2.058811
G01 X353.144528 Y288.847937 Z-2.054719
G01 X354.554030 Y288.952472 Z-2.134701
G01 X357.404531 Y288.921822 Z-2.536529
G01 X358.986217 Y287.716310 Z-3.937847
G01 X360.583510 Y287.392658 Z-4.466844
G01 X360.633689 Y287.416308 Z-4.449685
G01 X361.998657 Y287.869754 Z-4.171216
G01 X363.365036 Y288.312053 Z-3.904036
G01 X364.747812 Y288.624925 Z-3.767272
G01 X366.139224 Y288.869555 Z-3.699284
G01 X367.540316 Y289.037590 Z-3.708541
G01 X368.993874 Y289.129227 Z-3.800179
G01 X369.144665 Y289.137892 Z-3.808843
G01 X370.555776 Y289.219031 Z-3.889982
G01 X372.129701 Y289.387291 Z-3.903274
G01 X372.278856 Y289.593116 Z-3.715879
G01 X373.504180 Y291.284361 Z-2.176272
G01 X375.061510 Y292.174321 Z-1.470688
G01 X375.397355 Y292.355677 Z-1.361440
G01 X376.748353 Y292.790045 Z-1.210987
G01 X378.783260 Y292.608068 Z-1.803146
G01 X380.165556 Y292.788549 Z-2.274372
G01 X380.184634 Y292.804861 Z-2.268587
G01 X379.985893 Y293.546852 Z-1.529249
G01 X381.697289 Y293.542957 Z-1.510792
G01 X382.147207 Y293.723184 Z-1.292183
G01 X383.586400 Y293.984014 Z-0.907344
G01 X385.002760 Y293.982829 Z-0.785509
G01 X386.412912 Y293.910213 Z-0.735330
G01 X388.293499 Y293.755979 Z-0.725650
G01 X388.416407 Y293.739553 Z-0.727033
G01 X389.815157 Y293.552440 Z-0.742837
G01 X391.213709 Y293.363831 Z-0.760166
G01 X392.737596 Y293.154140 Z-0.783223
G01 X393.245879 Y293.077799 Z-0.784606
G01 X396.036831 Y292.658642 Z-0.792141
G01 X397.950100 Y292.371312 Z-0.797306
G01 X398.181155 Y292.336627 Z-0.797927
G01 X400.972079 Y291.917470 Z-0.805490
G01 X403.763003 Y291.498342 Z-0.813026
G01 X405.155769 Y291.270447 Z-0.835293
G01 X407.934783 Y290.770434 Z-0.924616
G01 X410.713797 Y290.270393 Z-1.013912
G01 X412.070411 Y289.797219 Z-1.284111
G01 X413.398323 Y289.129566 Z-1.750963
G01 X414.605783 Y289.055934 Z-1.647642
G01 X415.280887 Y290.621873 Z0.000000
G01 X414.605783 Y289.055934 Z-1.647642
G01 X415.071167 Y290.135434 Z-0.511810
G01 X415.713957 Y288.671604 Z-1.263311
G01 X416.945828 Y287.954873 Z-1.063385
G01 X419.200925 Y286.256798 Z-1.000506
G01 X420.325242 Y285.403668 Z-0.974316
G01 X421.435109 Y284.532223 Z-0.971409
G01 X422.652390 Y283.576477 Z-0.968192
G01 X423.185169 Y283.158167 Z-0.966809
G01 X425.404960 Y281.415304 Z-0.960995
G01 X427.045207 Y280.127467 Z-0.956677
G01 X427.532407 Y279.729308 Z-0.963620
G01 X429.167405 Y278.381302 Z-0.996132
G01 X429.431311 Y278.195346 Z-1.025426
G01 X430.956835 Y277.120277 Z-1.194901
G01 X431.974275 Y276.031407 Z-2.073204
G01 X435.858302 Y274.683175 Z-4.999990
G01 X436.488081 Y276.346452 Z-4.835454
G01 X436.330657 Y276.636153 Z-4.549253
G00 Z5.000000

G00 Z5.000000
G00 X441.894358 Y279.489165

G01 Z-4.999990 F100.0(Penetrate)
G01 X441.522615 Y282.382000 Z-3.162893 F400.000000
G01 X439.962293 Y283.641586 Z-2.233874
G01 X438.518387 Y284.913759 Z-1.416671
G01 X438.206221 Y285.144306 Z-1.326896
G01 X436.987840 Y286.184605 Z-1.067110
G01 X436.863605 Y286.302010 Z-1.047948
G01 X435.716965 Y287.385743 Z-0.871135
G01 X435.600040 Y287.499620 Z-0.850392
G01 X434.705875 Y288.591509 Z-0.829197
G01 X433.845154 Y289.709900 Z-0.850674
G01 X432.885429 Y290.965535 Z-0.879941
G01 X432.579049 Y291.372104 Z-0.885896
G01 X431.730265 Y292.499553 Z-0.902998
G01 X430.627962 Y294.082002 Z-0.997543
G01 X430.496954 Y294.306255 Z-1.030901
G01 X429.699394 Y295.878939 Z-1.360678
G01 X429.567484 Y296.282319 Z-1.539466
G01 X428.647806 Y297.904250 Z-1.973693
G01 X428.252780 Y298.123283 Z-1.869948
G01 X426.984755 Y298.826327 Z-1.536813
G01 X425.338694 Y299.738949 Z-1.104392
G01 X425.240396 Y299.786475 Z-1.085314
G01 X423.800526 Y300.482407 Z-0.805603
G01 X422.881470 Y300.808063 Z-0.810570
G01 X422.741996 Y300.868402 Z-0.821634
G01 X421.426445 Y301.437672 Z-0.926140
G01 X421.312596 Y301.507664 Z-0.916827
G01 X420.344998 Y302.456890 Z-1.126095
G01 X420.084535 Y302.932858 Z-1.053394
G01 X419.973311 Y302.890242 Z-0.934297
G01 X419.579498 Y303.916176 Z-0.934297
G01 X418.505755 Y305.230005 Z-1.187817
G01 X417.458259 Y305.826708 Z-1.784519
G01 X416.182361 Y305.666801 Z-1.624584
G01 X415.722621 Y304.051191 Z-1.255183
G01 X415.695697 Y303.871472 Z-1.238278
G01 X415.471866 Y302.377247 Z-1.097647
G01 X415.384462 Y301.300004 Z-1.070130
G01 X415.378112 Y301.143371 Z-1.072501
G01 X415.320934 Y299.733276 Z-1.093611
G01 X415.256023 Y298.133302 Z-1.117572
G01 X415.270332 Y297.620024 Z-1.160328
G01 X415.330530 Y295.456819 Z-1.340443
G01 X416.041955 Y294.220065 Z-1.403209
G01 X417.111070 Y293.358158 Z-0.962999
G01 X417.736361 Y292.870055 Z-0.953375
G01 X419.961260 Y291.133400 Z-0.919141
G01 X421.585731 Y289.865348 Z-0.894165
G01 X421.946806 Y289.594189 Z-0.897100
G01 X424.203512 Y287.899303 Z-0.915416
G01 X425.331836 Y287.051874 Z-0.924588
G01 X426.460189 Y286.204446 Z-0.933732
G01 X427.588457 Y285.356876 Z-0.943074
G01 X428.696376 Y284.481902 Z-0.986508
G01 X430.151825 Y283.310652 Z-1.061099
G01 X430.567510 Y282.975739 Z-1.103489
G01 X432.772202 Y281.199573 Z-1.328194
G01 X434.577041 Y279.554500 Z-1.669909
G01 X435.741405 Y277.720733 Z-3.477740
G01 X437.636358 Y276.156826 Z-4.999990
G01 X440.830690 Y277.767723 Z-4.999990
G01 X441.894358 Y279.489165 Z-4.999990
G00 Z5.000000

G00 Z5.000000
G00 X415.235392 Y294.386858

G01 Z-1.304798 F100.0(Penetrate)
G01 X415.318620 Y295.884922 Z-1.304798 F400.000000
G01 X415.279222 Y297.300408 Z-1.186914
G01 X415.279560 Y298.713664 Z-1.108879
G01 X415.336767 Y300.123787 Z-1.087769
G01 X415.403399 Y301.533374 Z-1.076113
G01 X415.555884 Y302.938192 Z-1.150451
G01 X415.804155 Y304.337675 Z-1.320687
G01 X416.245409 Y305.726434 Z-1.684246
G01 X416.569880 Y307.121713 Z-1.930823
G01 X416.247159 Y308.785695 Z-1.516295
G01 X416.155747 Y309.281192 Z-1.397508
G01 X416.149764 Y310.694815 Z-1.313124
G01 X416.383218 Y312.095117 Z-1.468543
G01 X417.216451 Y313.462117 Z-2.224645
G01 X416.857606 Y315.431351 Z-1.757116
G01 X416.645883 Y316.175204 Z-1.542655
G01 X416.300104 Y317.587613 Z-1.191683
G01 X416.190517 Y319.797047 Z-1.073912
G01 X416.163480 Y320.187557 Z-1.118249
G01 X416.923787 Y321.763007 Z-2.152114
G01 X416.620426 Y323.760321 Z-2.216630
G01 X415.067216 Y324.624712 Z-1.221796
G01 X413.280975 Y325.066559 Z-0.971324
G01 X411.984898 Y324.829436 Z-1.344140
G01 X410.768831 Y324.399668 Z-1.900089
G01 X409.865550 Y323.654291 Z-2.011708
G01 X410.123163 Y321.820749 Z-1.362089
G01 X410.130387 Y321.352825 Z-1.346172
G01 X410.152260 Y319.941065 Z-1.298109
G01 X410.180002 Y318.148445 Z-1.237121
G01 X410.213135 Y317.554622 Z-1.240818
G01 X410.268197 Y315.574325 Z-1.308608
G01 X410.279993 Y315.238706 Z-1.329888
G01 X410.329665 Y313.825648 Z-1.419493
G01 X410.390286 Y312.100903 Z-1.528882
G01 X410.393785 Y312.001815 Z-1.535148
G01 X410.443457 Y310.588728 Z-1.624753
G01 X410.493156 Y309.175670 Z-1.714387
G01 X410.545734 Y307.680541 Z-1.809186
G01 X410.558773 Y307.171214 Z-1.836787
G01 X410.599525 Y305.393976 Z-1.937766
G01 X410.598905 Y305.383788 Z-1.937484
G01 X410.432450 Y303.981849 Z-1.981369
G01 X410.234781 Y302.951766 Z-2.088670
G01 X410.189739 Y302.856742 Z-2.072894
G01 X409.576216 Y301.953716 Z-1.868170
G01 X409.145601 Y301.466403 Z-1.828094
G01 X408.802306 Y301.227784 Z-1.807295
G01 X408.933878 Y301.282930 Z-1.817003
G01 X407.773409 Y300.796407 Z-1.731433
G01 X407.505862 Y300.736435 Z-1.691696
G01 X407.050045 Y300.768890 Z-1.618940
G01 X405.703026 Y300.877744 Z-1.416445
G01 X405.221640 Y300.895665 Z-1.367649
G01 X403.804207 Y300.948440 Z-1.223998
G01 X402.397950 Y301.081113 Z-1.161034
G01 X399.602285 Y301.467532 Z-1.157337
G01 X396.806648 Y301.853922 Z-1.153640
G01 X394.993314 Y302.104564 Z-1.151241
G01 X394.724638 Y302.140349 Z-1.152229
G01 X393.325860 Y302.326616 Z-1.157393
G01 X391.927788 Y302.518132 Z-1.167836
G01 X389.135453 Y302.931051 Z-1.218805
G01 X386.343146 Y303.343942 Z-1.269802
G01 X384.946965 Y303.550416 Z-1.295315
G01 X383.288288 Y303.795667 Z-1.325598
G01 X382.711144 Y303.881040 Z-1.336125
G01 X379.918837 Y304.293931 Z-1.387122
G01 X378.522656 Y304.500376 Z-1.412635
G01 X376.543854 Y304.795073 Z-1.450820
G01 X376.139910 Y304.856343 Z-1.462984
G01 X373.348337 Y305.279620 Z-1.547029
G01 X371.604062 Y305.545840 Z-1.601244
G01 X371.650798 Y305.536640 Z-1.600708
G01 X368.881408 Y306.081018 Z-1.631555
G01 X367.496713 Y306.353193 Z-1.646992
G01 X366.150541 Y306.617805 Z-1.661978
G01 X366.113937 Y306.625961 Z-1.661442
G01 X364.733701 Y306.933358 Z-1.641489
G01 X364.204704 Y307.077291 Z-1.608272
G01 X362.348923 Y307.624492 Z-1.531902
G01 X361.534656 Y307.926244 Z-1.442184
G01 X361.409998 Y307.986724 Z-1.414611
G01 X360.205502 Y308.910183 Z-1.417602
G01 X359.819761 Y309.338427 Z-1.387517
G01 X359.770851 Y309.407064 Z-1.373576
G01 X359.208467 Y310.807704 Z-1.480848
G01 X359.013988 Y311.582828 Z-1.487593
G01 X358.966687 Y311.888954 Z-1.482062
G01 X358.751211 Y313.283724 Z-1.456888
G01 X358.491905 Y314.962072 Z-1.426605
G01 X358.487418 Y315.021677 Z-1.420904
G01 X358.421829 Y316.434425 Z-1.326614
G01 X358.362619 Y318.030477 Z-1.235004
G01 X358.361490 Y318.067927 Z-1.233876
G01 X358.277557 Y320.890150 Z-1.149943
G01 X358.234857 Y322.326153 Z-1.107242
G01 X358.228394 Y322.555966 Z-1.100780
G01 X358.217783 Y323.967077 Z-1.090168
G01 X358.219024 Y325.378189 Z-1.091410
G01 X358.259721 Y327.004212 Z-1.132106
G01 X358.262825 Y327.085153 Z-1.133066
G01 X358.316673 Y328.495361 Z-1.149830
G01 X358.419205 Y329.944234 Z-1.214233
G01 X358.479092 Y330.382412 Z-1.221938
G01 X358.873074 Y331.756608 Z-1.450876
G01 X359.147677 Y333.392453 Z-1.530378
G01 X359.147677 Y333.392453 Z-1.530378
G01 X359.171891 Y333.373601 Z-1.556681
G01 X359.723523 Y333.230740 Z-1.887672
G01 X359.915631 Y333.272198 Z-1.834134
G01 X361.338229 Y333.408907 Z-1.607735
G01 X362.754025 Y333.438145 Z-1.489033
G01 X365.575005 Y333.329546 Z-1.419013
G01 X367.556939 Y333.223741 Z-1.399286
G01 X367.946124 Y333.186798 Z-1.396238
G01 X370.755787 Y332.919957 Z-1.374168
G01 X372.160068 Y332.781216 Z-1.368496
G01 X374.968038 Y332.497809 Z-1.363077
G01 X376.788287 Y332.314110 Z-1.359577
G01 X376.923867 Y332.300422 Z-1.359323
G01 X378.327838 Y332.158719 Z-1.356614
G01 X379.731837 Y332.017015 Z-1.353905
G01 X381.135808 Y331.875311 Z-1.351224
G01 X382.689413 Y331.718537 Z-1.348232
G01 X382.738209 Y331.714106 Z-1.348655
G01 X385.549086 Y331.460134 Z-1.372785
G01 X387.020649 Y331.321055 Z-1.391497
G01 X387.144968 Y331.311544 Z-1.396577
G01 X389.961320 Y331.095926 Z-1.512006
G01 X391.369101 Y330.977901 Z-1.579936
G01 X392.977118 Y330.794061 Z-1.706513
G01 X393.154918 Y330.785256 Z-1.731800
G01 X395.391783 Y330.674371 Z-2.050034
G01 X396.778708 Y331.098297 Z-2.730980
G01 X397.097901 Y332.044306 Z-2.287778
G01 X397.131288 Y333.507402 Z-1.643436
G01 X396.620184 Y335.133736 Z-1.514884
G01 X395.913866 Y336.184957 Z-1.928622
G01 X395.290099 Y336.921529 Z-2.407948
G01 X394.848054 Y336.852554 Z-2.192161
G01 X392.737201 Y336.877474 Z-1.494762
G01 X392.086764 Y336.897568 Z-1.452118
G01 X390.675652 Y336.965640 Z-1.384046
G01 X389.264541 Y337.033741 Z-1.315946
G01 X387.863026 Y337.200986 Z-1.347470
G01 X386.468904 Y337.444826 Z-1.455956
G01 X385.079778 Y337.740086 Z-1.616089
G01 X382.261197 Y337.913851 Z-1.517650
G01 X379.442587 Y338.087643 Z-1.419239
G01 X378.033310 Y338.174511 Z-1.370020
G01 X376.624006 Y338.261407 Z-1.320828
G01 X375.214729 Y338.348275 Z-1.271609
G01 X373.806581 Y338.447194 Z-1.234468
G01 X372.400211 Y338.564175 Z-1.215503
G01 X370.994942 Y338.692728 Z-1.208165
G01 X368.191149 Y339.019400 Z-1.263340
G01 X366.789662 Y339.186983 Z-1.295202
G01 X365.397008 Y339.445838 Z-1.418788
G01 X364.029161 Y339.961260 Z-1.800098
G01 X362.079627 Y340.135419 Z-1.785733
G01 X361.972947 Y340.112080 Z-1.762393
G01 X360.561836 Y339.939218 Z-1.589532
G01 X359.150725 Y339.908597 Z-1.558911
G01 X357.739613 Y340.014346 Z-1.664660
G01 X356.307985 Y340.252485 Z-1.902799
G01 X356.081219 Y340.312457 Z-1.962771
G01 X354.670108 Y340.631651 Z-2.281964
G01 X353.258997 Y340.364443 Z-2.014756
G01 X350.131269 Y339.772171 Z-1.422485
G01 X349.879583 Y338.094360 Z-1.751499
G01 X350.416652 Y336.706589 Z-1.279229
G01 X350.574358 Y335.301291 Z-1.186688
G01 X350.714792 Y333.895175 Z-1.111448
G01 X350.945480 Y331.080601 Z-1.011202
G01 X351.060824 Y329.673329 Z-0.961080
G01 X351.169339 Y328.265717 Z-0.917815
G01 X351.353715 Y325.448998 Z-0.863939
G01 X351.436547 Y324.040229 Z-0.846356
G01 X351.523754 Y322.456963 Z-0.832471
G01 X351.530978 Y322.325899 Z-0.831342
G01 X351.686229 Y319.507853 Z-0.806619
G01 X351.841451 Y316.689780 Z-0.781897
G01 X351.919062 Y315.280757 Z-0.769564
G01 X352.005055 Y313.719278 Z-0.755876
G01 X352.024924 Y313.404628 Z-0.768463
G01 X352.202837 Y310.585765 Z-0.881267
G01 X352.380750 Y307.766901 Z-0.994043
G01 X352.459772 Y305.666123 Z-1.131372
G01 X353.075270 Y304.603387 Z-1.431403
G01 X354.148307 Y304.043374 Z-1.052943
G01 X355.068465 Y303.877879 Z-1.038945
G01 X357.846435 Y303.378261 Z-0.996752
G01 X360.624404 Y302.878643 Z-0.954532
G01 X363.402374 Y302.379053 Z-0.912312
G01 X364.791359 Y302.129230 Z-0.891201
G01 X366.784553 Y301.770751 Z-0.860919
G01 X367.229646 Y301.695116 Z-0.858492
G01 X370.012019 Y301.222252 Z-0.843393
G01 X372.794391 Y300.749389 Z-0.828294
G01 X375.576764 Y300.276526 Z-0.813195
G01 X378.359108 Y299.803662 Z-0.798096
G01 X381.141480 Y299.330827 Z-0.782997
G01 X383.923853 Y298.857964 Z-0.767898
G01 X385.315039 Y298.621518 Z-0.760335
G01 X388.097411 Y298.148655 Z-0.745236
G01 X390.879784 Y297.675791 Z-0.730137
G01 X392.714087 Y297.364077 Z-0.720175
G01 X393.258776 Y297.276362 Z-0.722009
G01 X396.045128 Y296.827742 Z-0.731492
G01 X398.831480 Y296.379150 Z-0.740946
G01 X401.617831 Y295.930529 Z-0.750429
G01 X404.404183 Y295.481909 Z-0.759883
G01 X406.384875 Y295.163026 Z-0.766628
G01 X406.664106 Y295.136440 Z-0.785707
G01 X408.072141 Y295.002357 Z-0.881888
G01 X409.709792 Y294.846457 Z-0.993789
G01 X409.727092 Y294.844792 Z-0.994974
G01 X412.543134 Y294.576681 Z-1.187337
G01 X415.302533 Y294.313960 Z-1.375862
G01 X415.302533 Y294.313960 Z-1.375862
G01 X415.235392 Y294.386858 Z-1.304798
G00 Z5.000000

G00 Z5.000000
G00 X410.553467 Y307.380398

G01 Z-1.825413 F100.0(Penetrate)
G01 X410.506590 Y308.793400 Z-1.738630 F400.000000
G01 X410.456919 Y310.206486 Z-1.648996
G01 X410.401039 Y311.795595 Z-1.548243
G01 X410.384924 Y312.253642 Z-1.519174
G01 X410.285581 Y315.079815 Z-1.339963
G01 X410.244179 Y316.998700 Z-1.244318
G01 X410.227698 Y317.293820 Z-1.242455
G01 X410.171394 Y318.703859 Z-1.256002
G01 X410.149550 Y320.115619 Z-1.304064
G01 X410.153473 Y322.177958 Z-1.410039
G01 X409.911016 Y323.421090 Z-1.916684
G01 X409.348321 Y324.480919 Z-2.055707
G01 X408.698815 Y324.752897 Z-1.946628
G01 X407.381289 Y325.304557 Z-1.725337
G01 X405.798502 Y326.059529 Z-1.538055
G01 X405.465254 Y326.206765 Z-1.521206
G01 X404.173128 Y326.777644 Z-1.455900
G01 X402.615967 Y327.477753 Z-1.388082
G01 X402.095634 Y327.781198 Z-1.427593
G01 X400.318367 Y328.936475 Z-1.668978
G01 X399.888571 Y329.208960 Z-1.777577
G01 X398.180619 Y330.342252 Z-2.256508
G01 X397.477801 Y330.801399 Z-2.573048
G01 X396.054949 Y330.877063 Z-2.375634
G01 X394.585757 Y330.714333 Z-1.935367
G01 X393.161917 Y330.784917 Z-1.732788
G01 X391.098224 Y331.008861 Z-1.558600
G01 X390.824496 Y331.029830 Z-1.547396
G01 X388.008144 Y331.245447 Z-1.431967
G01 X386.373400 Y331.385627 Z-1.379869
G01 X386.151771 Y331.405665 Z-1.377978
G01 X383.340894 Y331.659665 Z-1.353820
G01 X381.936246 Y331.794539 Z-1.349671
G01 X380.532247 Y331.936243 Z-1.352381
G01 X378.919658 Y332.099000 Z-1.355485
G01 X378.603032 Y332.130948 Z-1.356078
G01 X377.199062 Y332.272652 Z-1.358787
G01 X375.795062 Y332.414355 Z-1.361496
G01 X372.987121 Y332.697763 Z-1.366887
G01 X371.258453 Y332.872233 Z-1.370217
G01 X371.135037 Y332.883945 Z-1.371205
G01 X368.325374 Y333.150758 Z-1.393275
G01 X366.753170 Y333.284193 Z-1.389803
G01 X366.130391 Y333.308181 Z-1.405241
G01 X364.719900 Y333.362481 Z-1.440236
G01 X362.667693 Y333.441475 Z-1.491178
G01 X361.583706 Y333.432500 Z-1.568676
G01 X359.836581 Y333.264578 Z-1.846721
G01 X359.138391 Y332.468288 Z-1.630313
G01 X358.900252 Y331.829506 Z-1.469249
G01 X358.547531 Y330.883413 Z-1.230743
G01 X358.502404 Y330.553128 Z-1.224929
G01 X358.337219 Y329.033051 Z-1.156208
G01 X358.313879 Y328.421983 Z-1.148955
G01 X358.260031 Y327.011775 Z-1.132191
G01 X358.209909 Y325.013670 Z-1.082294
G01 X358.213944 Y324.476771 Z-1.086330
G01 X358.228507 Y322.539513 Z-1.100892
G01 X358.237736 Y322.229040 Z-1.110121
