%
(Header)
(Generated by gcodetools from Inkscape.)
(Using default header. To add your own header create file "header" in the output dir.)
M3
(Header end.)
G21 (All units in mm)
(Tool diameter should be at least 0.5 mm)
(Depth, as a function of radius w, must be 10)
(Rapid feeds use safe Z=5.0 mm)
(Material surface at Z=0.0 mm)
(Change tool to Cylindrical cutter)

G00 Z5.000000
G00 X125.022695 Y95.677456

G01 Z-0.249992 F100.0(Penetrate)
G01 X120.798732 Y95.959001 Z-0.249992 F400.000000
G01 X119.068484 Y96.074345 Z-0.249992
G01 X119.013055 Y96.078042 Z-0.249992
G01 X111.973135 Y96.547265 Z-0.249992
G01 X110.517856 Y96.644264 Z-0.249992
G01 X110.437253 Y96.654932 Z-0.249992
G01 X106.240581 Y97.211051 Z-0.249992
G01 X104.774351 Y97.405333 Z-0.249992
G01 X104.581509 Y97.465729 Z-0.249992
G01 X103.234886 Y97.887453 Z-0.249992
G01 X101.674874 Y98.376008 Z-0.249992
G01 X100.635986 Y98.701354 Z-0.249992
G01 X100.134787 Y99.027885 Z-0.249992
G01 X99.770156 Y99.601276 Z-0.249992
G01 X99.468207 Y100.076030 Z-0.249992
G01 X99.112325 Y100.629327 Z-0.249992
G01 X98.979511 Y100.830410 Z-0.249992
G01 X98.700111 Y101.253377 Z-0.249992
G01 X97.929701 Y101.118136 Z-0.249992
G01 X97.579632 Y101.000844 Z-0.249992
G01 X95.909272 Y100.441226 Z-0.249992
G01 X95.548705 Y100.320406 Z-0.249992
G01 X94.210689 Y99.872125 Z-0.249992
G01 X92.522803 Y99.306636 Z-0.249992
G01 X92.323836 Y99.259448 Z-0.249992
G01 X89.577785 Y98.608192 Z-0.249992
G01 X88.008263 Y98.235969 Z-0.249992
G01 X87.969345 Y98.231172 Z-0.249992
G01 X86.568760 Y98.059214 Z-0.249992
G01 X85.115485 Y97.880793 Z-0.249992
G01 X83.809953 Y97.720491 Z-0.249992
G01 X83.690037 Y97.705476 Z-0.249992
G01 X82.169678 Y97.515146 Z-0.249992
G01 X81.470642 Y97.424468 Z-0.249992
G01 X80.792433 Y97.336499 Z-0.249992
G01 X80.533748 Y97.345389 Z-0.249992
G01 X78.852720 Y97.403103 Z-0.249992
G01 X78.709238 Y97.417638 Z-0.249992
G01 X77.153573 Y97.575400 Z-0.249992
G01 X77.001794 Y97.590809 Z-0.249992
G01 X75.445931 Y97.748600 Z-0.249992
G01 X74.769811 Y97.816023 Z-0.249992
G01 X72.689523 Y98.023513 Z-0.249992
G01 X72.561027 Y98.036100 Z-0.249992
G01 X71.028363 Y98.186298 Z-0.249992
G01 X70.470212 Y98.241021 Z-0.249992
G01 X68.523782 Y98.431775 Z-0.249992
G01 X68.254880 Y98.493892 Z-0.249992
G01 X66.621914 Y98.871139 Z-0.249992
G01 X66.227565 Y99.058929 Z-0.249992
G01 X64.953529 Y99.665594 Z-0.249992
G01 X63.287092 Y100.459119 Z-0.249992
G01 X63.138248 Y100.579204 Z-0.249992
G01 X61.883460 Y101.591507 Z-0.249992
G01 X61.612075 Y101.891368 Z-0.249992
G01 X60.380739 Y103.252074 Z-0.249992
G01 X60.097924 Y103.564579 Z-0.249992
G01 X58.764283 Y105.038287 Z-0.249992
G01 X58.049527 Y104.836978 Z-0.249992
G01 X56.125618 Y104.295139 Z-0.249992
G01 X55.708579 Y104.177679 Z-0.249992
G01 X53.956289 Y103.684157 Z-0.249992
G01 X53.949798 Y103.683592 Z-0.249992
G01 X52.543654 Y103.565454 Z-0.249992
G01 X51.122355 Y103.446046 Z-0.249992
G01 X51.029955 Y103.449545 Z-0.249992
G01 X45.389546 Y103.663357 Z-0.249992
G01 X43.881718 Y103.720535 Z-0.249992
G01 X43.797277 Y103.730469 Z-0.249992
G01 X40.994387 Y104.060218 Z-0.249992
G01 X39.505269 Y104.235421 Z-0.249992
G01 X38.981804 Y104.325337 Z-0.249992
G01 X36.200334 Y104.803196 Z-0.249992
G01 X34.279614 Y105.133198 Z-0.249992
G01 X33.812650 Y105.213434 Z-0.249992
G01 X31.958450 Y105.531978 Z-0.249992
G01 X31.546659 Y105.614811 Z-0.249992
G01 X29.768236 Y105.972584 Z-0.249992
G01 X29.406229 Y106.110224 Z-0.249992
G01 X28.586797 Y106.421769 Z-0.249992
G01 X28.266531 Y106.780163 Z-0.249992
G01 X27.026729 Y108.167539 Z-0.249992
G01 X27.013352 Y108.740337 Z-0.249992
G01 X27.006155 Y109.049116 Z-0.249992
G01 X26.798185 Y109.774597 Z-0.249992
G01 X26.560611 Y110.343246 Z-0.249992
G01 X26.203825 Y111.197166 Z-0.249992
G01 X25.908169 Y111.256264 Z0.000000
G01 X26.203825 Y111.197166 Z-0.249992
G01 X26.547346 Y111.537300 Z-0.249992
G01 X28.013350 Y112.988826 Z-0.249992
G01 X28.340022 Y113.312309 Z-0.249992
G01 X29.681481 Y114.640503 Z-0.249992
G01 X29.993872 Y115.046903 Z-0.249992
G01 X31.165518 Y116.571044 Z-0.249992
G01 X31.232969 Y116.686134 Z-0.249992
G01 X33.374302 Y120.337949 Z-0.249992
G01 X34.153066 Y121.666030 Z-0.249992
G01 X34.305438 Y121.985647 Z-0.249992
G01 X34.912667 Y123.259400 Z-0.249992
G01 X35.670236 Y124.848537 Z-0.249992
G01 X35.727443 Y124.984851 Z-0.249992
G01 X36.819445 Y127.587250 Z-0.249992
G01 X37.420353 Y129.019274 Z-0.249992
G01 X37.427973 Y129.037449 Z-0.249992
G01 X37.973988 Y130.338663 Z-0.249992
G01 X38.527539 Y131.657854 Z-0.249992
G01 X38.608395 Y131.849624 Z-0.249992
G01 X39.156612 Y133.149907 Z-0.249992
G01 X39.785544 Y134.641649 Z-0.249992
G01 X40.215990 Y135.650085 Z-0.249992
G01 X40.330515 Y135.918394 Z-0.249992
G01 X40.934189 Y137.332666 Z-0.249992
G01 X40.769089 Y137.582658 Z0.000000
G01 X40.934189 Y137.332666 Z-0.249992
G01 X40.790312 Y137.550513 Z-0.032145
G01 X42.222646 Y137.332666 Z-0.249992
G01 X43.309625 Y137.332666 Z-0.249992
G01 X44.081870 Y137.549949 Z-0.249992
G01 X43.753532 Y138.402401 Z-0.249992
G01 X42.988174 Y138.833834 Z-0.249992
G01 X41.730789 Y139.330771 Z-0.249992
G01 X41.229929 Y139.528721 Z-0.249992
G01 X41.142299 Y139.601845 Z-0.249992
G01 X41.177210 Y139.727321 Z-0.249992
G01 X41.406572 Y139.847322 Z-0.249992
G01 X42.025937 Y140.014087 Z-0.249992
G01 X42.672057 Y140.188077 Z-0.249992
G01 X43.239013 Y140.549293 Z-0.249992
G01 X43.989385 Y141.453985 Z-0.249992
G01 X44.217223 Y142.058533 Z-0.249992
G01 X44.217223 Y142.674455 Z-0.249992
G01 X44.217223 Y143.592496 Z-0.249992
G01 X43.932320 Y143.915781 Z-0.249992
G01 X42.702198 Y145.311568 Z-0.249992
G01 X41.863434 Y145.311568 Z-0.249992
G01 X41.325857 Y145.311568 Z-0.249992
G01 X40.975506 Y144.951932 Z-0.249992
G01 X41.058903 Y144.164306 Z-0.249992
G01 X41.368331 Y143.672139 Z-0.249992
G01 X41.871844 Y143.222248 Z-0.249992
G01 X42.478226 Y142.680438 Z-0.249992
G01 X42.555612 Y142.564332 Z-0.242965
G01 X42.555612 Y142.564332 Z-0.242965
G01 X42.190586 Y142.689695 Z-0.249992
G01 X41.421332 Y143.140517 Z-0.249992
G01 X40.693114 Y143.567265 Z-0.249992
G01 X39.840521 Y143.869130 Z-0.249992
G01 X39.569729 Y143.701744 Z-0.249992
G01 X39.349991 Y143.565967 Z-0.249992
G01 X38.984005 Y142.966301 Z-0.249992
G01 X38.748378 Y142.402393 Z-0.249992
G01 X38.532506 Y141.472414 Z-0.090650
G01 X38.532506 Y141.472414 Z-0.090650
G01 X38.306502 Y141.923772 Z-0.249992
G01 X38.080358 Y142.149945 Z-0.249992
G01 X38.063029 Y142.528574 Z-0.249992
G01 X38.425233 Y143.625826 Z-0.249992
G01 X38.802621 Y144.222754 Z-0.249992
G01 X39.353829 Y144.750877 Z-0.249992
G01 X40.023740 Y145.392678 Z-0.249992
G01 X40.364918 Y145.512058 Z-0.249992
G01 X40.379791 Y145.513018 Z-0.249992
G01 X41.837187 Y145.605813 Z-0.249992
G01 X42.030763 Y145.618146 Z-0.249992
G01 X43.836618 Y145.733123 Z-0.249992
G01 X44.039649 Y147.214366 Z-0.249992
G01 X44.137665 Y147.929348 Z-0.249992
G01 X44.148079 Y148.178042 Z-0.249992
G01 X44.217223 Y149.830058 Z-0.249992
G01 X44.217223 Y149.929231 Z-0.249992
G01 X44.217223 Y151.434294 Z-0.249992
G01 X44.217223 Y151.528246 Z-0.249992
G01 X44.217223 Y153.023318 Z-0.249992
G01 X44.316481 Y154.263544 Z-0.249992
G01 X44.343433 Y154.280195 Z-0.249992
G01 X44.405578 Y154.318605 Z-0.249992
G01 X44.414553 Y154.203007 Z-0.249992
G01 X44.563905 Y152.281300 Z-0.249992
G01 X44.563905 Y151.635942 Z-0.249992
G01 X44.563905 Y148.813720 Z-0.249992
G01 X44.563905 Y146.747543 Z-0.249992
G01 X44.563905 Y146.218828 Z-0.249992
G01 X44.563905 Y143.396605 Z-0.249992
G01 X44.563905 Y141.238029 Z-0.249992
G01 X45.980124 Y141.048206 Z-0.249992
G01 X46.644645 Y140.959137 Z-0.249992
G01 X46.772520 Y140.947029 Z-0.249992
G01 X48.302729 Y140.802023 Z-0.249992
G01 X49.663209 Y140.699069 Z-0.249992
G01 X50.194295 Y140.658880 Z-0.249992
G01 X52.246954 Y140.503545 Z-0.249992
G01 X52.393766 Y140.650329 Z-0.249992
G01 X53.457179 Y141.713771 Z-0.249992
G01 X54.115547 Y142.372139 Z-0.249992
G01 X54.497337 Y142.785905 Z-0.249992
G01 X54.685495 Y143.489541 Z-0.214828
G01 X54.223299 Y143.618234 Z-0.249992
G01 X53.753089 Y143.618234 Z-0.249992
G01 X53.453454 Y143.618234 Z-0.249992
G01 X52.965350 Y143.873194 Z-0.249992
G01 X52.646467 Y144.212651 Z-0.249992
G01 X52.179841 Y144.709334 Z-0.249992
G01 X52.124131 Y144.917332 Z-0.249992
G01 X52.263718 Y145.661354 Z-0.249992
G01 X52.441264 Y146.607786 Z-0.249992
G01 X52.313163 Y146.928588 Z-0.249992
G01 X51.614268 Y147.136586 Z-0.249992
G01 X51.292591 Y147.232316 Z-0.249992
G01 X50.642069 Y147.713194 Z-0.249992
G01 X50.160908 Y148.224553 Z-0.249992
G01 X49.648364 Y148.769242 Z-0.249992
G01 X48.964229 Y149.242077 Z-0.229418
G01 X48.661631 Y149.262679 Z-0.249992
G01 X47.915746 Y149.262679 Z-0.249992
G01 X47.675151 Y148.607895 Z-0.249992
G01 X46.978768 Y146.712688 Z-0.249992
G01 X47.266522 Y145.790809 Z-0.249992
G01 X47.687766 Y144.441223 Z-0.249992
G01 X48.006649 Y144.062480 Z-0.249992
G01 X49.276932 Y142.553777 Z-0.249992
G01 X50.082845 Y142.553777 Z-0.249992
G01 X50.364757 Y142.553777 Z-0.249992
G01 X50.459048 Y142.511839 Z-0.249992
G01 X50.523648 Y142.418141 Z-0.237800
G01 X50.523648 Y142.418141 Z-0.237800
G01 X50.331709 Y142.313860 Z-0.249992
G01 X49.957031 Y142.082268 Z-0.249992
G01 X49.844819 Y142.111111 Z-0.249992
G01 X48.450557 Y142.469421 Z-0.249992
G01 X48.450557 Y142.682639 Z-0.249992
G01 X48.450557 Y142.970647 Z-0.249992
G01 X48.050140 Y143.543587 Z-0.249992
G01 X47.614925 Y143.947136 Z-0.249992
G01 X47.071083 Y144.451411 Z-0.249992
G01 X46.919304 Y144.826710 Z-0.249992
G01 X46.862464 Y145.835400 Z-0.249992
G01 X46.820102 Y146.587240 Z-0.249992
G01 X46.718390 Y147.593137 Z-0.249992
G01 X46.636404 Y148.067468 Z-0.249992
G01 X46.538812 Y148.631969 Z-0.249992
G01 X46.749801 Y149.291607 Z-0.249992
G01 X46.795521 Y149.377684 Z-0.249992
G01 X47.513494 Y150.729868 Z-0.249992
G01 X47.652743 Y150.992108 Z-0.249992
G01 X48.437490 Y152.470022 Z-0.249992
G01 X48.535788 Y152.572666 Z-0.249992
G01 X49.184532 Y152.572666 Z-0.249992
G01 X49.630246 Y152.572666 Z-0.249992
G01 X49.888225 Y152.432204 Z-0.249992
G01 X50.347655 Y151.651295 Z-0.249992
G01 X50.475755 Y151.039409 Z-0.249992
G01 X50.516169 Y150.123824 Z-0.249992
G01 X50.555652 Y149.228869 Z-0.249992
G01 X50.736895 Y148.506013 Z-0.249992
G01 X51.345367 Y147.576006 Z-0.249992
G01 X51.864684 Y147.334254 Z-0.249992
G01 X52.415581 Y147.439580 Z-0.249992
G01 X52.777306 Y147.508724 Z-0.249992
G01 X53.237695 Y147.444349 Z-0.249992
G01 X53.467339 Y147.300924 Z-0.249992
G01 X53.920814 Y147.017742 Z-0.249992
G01 X55.062233 Y147.134752 Z-0.249992
G01 X55.172836 Y147.156426 Z-0.249992
G01 X56.557644 Y147.427557 Z-0.249992
G01 X58.041879 Y147.718133 Z-0.249992
G01 X58.275700 Y147.763938 Z-0.249992
G01 X61.045344 Y148.306200 Z-0.249992
G01 X62.660192 Y148.622373 Z-0.249992
G01 X62.923223 Y148.665412 Z-0.249992
G01 X64.315820 Y148.893306 Z-0.249992
G01 X65.966340 Y149.163393 Z-0.249992
G01 X65.971505 Y149.163873 Z-0.249992
G01 X71.593259 Y149.669446 Z-0.249992
G01 X73.004793 Y149.796361 Z-0.249992
G01 X73.454289 Y149.807368 Z-0.249992
G01 X74.865005 Y149.841855 Z-0.249992
G01 X76.730324 Y149.887491 Z-0.249992
G01 X77.339416 Y149.887660 Z-0.249992
G01 X80.161638 Y149.888450 Z-0.249992
G01 X82.184890 Y149.888986 Z-0.249992
G01 X82.622927 Y149.889128 Z-0.249992
G01 X85.445149 Y149.889890 Z-0.249992
G01 X87.292717 Y149.926578 Z-0.213812
G01 X87.940501 Y149.935243 Z-0.195862
G01 X89.352205 Y149.966287 Z-0.144554
G01 X91.233696 Y150.007943 Z-0.075890
G01 X91.309501 Y150.038705 Z-0.044055
G01 X91.233696 Y150.007943 Z-0.075890
G01 X91.025049 Y150.003315 Z-0.083510
G01 X89.613345 Y149.972073 Z-0.135043
G01 X87.965817 Y149.935581 Z-0.195157
G01 X87.402219 Y149.928046 Z-0.210792
G01 X85.991080 Y149.899654 Z-0.240397
G01 X84.016117 Y149.828026 Z-0.249992
G01 X83.449810 Y149.804743 Z-0.249992
G01 X80.629958 Y149.688778 Z-0.249992
G01 X78.650310 Y149.607357 Z-0.249992
G01 X78.429358 Y149.592173 Z-0.249992
G01 X75.613768 Y149.398851 Z-0.249992
G01 X73.983850 Y149.286922 Z-0.249992
G01 X73.886314 Y149.276592 Z-0.249992
G01 X66.870044 Y148.532880 Z-0.249992
G01 X65.368481 Y148.373707 Z-0.249992
G01 X64.785156 Y148.286162 Z-0.249992
G01 X63.389651 Y148.076753 Z-0.249992
G01 X61.410879 Y147.779799 Z-0.249992
G01 X60.821119 Y147.665216 Z-0.249992
G01 X59.435916 Y147.396061 Z-0.249992
G01 X57.466230 Y147.013340 Z-0.249992
G01 X57.343915 Y146.989576 Z-0.249992
G01 X55.840433 Y146.697448 Z-0.249992
G01 X55.731551 Y146.680007 Z-0.249992
G01 X54.244748 Y146.441755 Z-0.249992
G01 X53.915226 Y146.441303 Z-0.249992
G01 X53.297921 Y146.440428 Z-0.249992
G01 X52.936253 Y146.046192 Z-0.249992
G01 X53.223725 Y145.081444 Z-0.249992
G01 X53.686343 Y144.453810 Z-0.249992
G01 X54.426895 Y143.701970 Z-0.249992
G01 X54.598401 Y143.536616 Z-0.243840
G01 X55.584570 Y142.526627 Z-0.249992
G01 X55.929446 Y142.532723 Z0.000000
G01 X55.584570 Y142.526627 Z-0.249992
G01 X55.157483 Y142.061158 Z-0.249992
G01 X55.103409 Y142.002202 Z-0.249992
G01 X54.066948 Y140.872607 Z-0.249992
G01 X53.797680 Y140.253129 Z-0.249992
G01 X52.948332 Y138.299079 Z-0.249992
G01 X53.178259 Y137.409233 Z-0.249992
G01 X53.275992 Y137.030942 Z-0.249992
G01 X53.281496 Y136.876849 Z-0.249992
G01 X53.337968 Y135.291635 Z-0.249992
G01 X53.335315 Y135.122386 Z-0.249992
G01 X53.310677 Y133.535789 Z-0.249992
G01 X53.307714 Y133.344668 Z-0.249992
G01 X53.285785 Y131.933726 Z-0.249992
G01 X53.256717 Y130.063016 Z-0.249992
G01 X53.701837 Y130.088191 Z-0.249992
G01 X55.287588 Y130.177853 Z-0.249992
G01 X56.470099 Y130.244711 Z-0.249992
G01 X56.887449 Y130.190835 Z-0.249992
G01 X56.917534 Y130.103374 Z-0.249992
G01 X56.925521 Y130.080232 Z-0.249992
G01 X56.818417 Y129.998472 Z-0.249992
G01 X56.421811 Y129.911096 Z-0.249992
G01 X56.408546 Y129.908161 Z-0.249992
G01 X55.030483 Y129.604490 Z-0.249992
G01 X53.633116 Y129.296585 Z-0.249992
G01 X53.520905 Y129.265993 Z-0.249992
G01 X52.159521 Y128.894616 Z-0.249992
G01 X50.685954 Y128.492647 Z-0.249992
G01 X50.663659 Y128.485366 Z-0.249992
G01 X49.322228 Y128.047385 Z-0.249992
G01 X47.964373 Y127.604042 Z-0.249992
G01 X47.801559 Y127.550900 Z-0.249992
G01 X46.304736 Y127.062147 Z-0.249992
G01 X45.277081 Y126.796012 Z-0.249992
G01 X45.255350 Y126.795673 Z-0.249992
G01 X43.860128 Y126.774732 Z-0.249992
G01 X43.507406 Y126.972881 Z-0.249992
G01 X43.097253 Y127.451896 Z-0.249992
G01 X42.812914 Y127.783959 Z-0.249992
G01 X42.348602 Y128.096012 Z-0.249992
G01 X42.078938 Y128.087771 Z-0.241780
G01 X42.006802 Y128.038213 Z-0.192222
G01 X42.006802 Y128.038213 Z-0.192222
G01 X42.123022 Y128.179776 Z-0.249992
G01 X42.217594 Y128.426240 Z-0.249992
G01 X42.421556 Y128.497106 Z-0.249992
G01 X43.060451 Y128.396692 Z-0.249992
G01 X43.328110 Y128.222335 Z-0.249992
G01 X43.451329 Y127.898259 Z-0.249992
G01 X43.561593 Y127.608247 Z-0.249992
G01 X43.711509 Y127.325179 Z-0.249992
G01 X44.239462 Y127.046428 Z-0.249992
G01 X44.629127 Y127.026305 Z-0.249992
G01 X44.716446 Y127.042985 Z-0.249992
G01 X46.179091 Y127.322356 Z-0.249992
G01 X46.425104 Y127.410099 Z-0.249992
G01 X47.983310 Y127.965710 Z-0.249992
G01 X48.332814 Y128.094234 Z-0.249992
G01 X49.657226 Y128.581209 Z-0.249992
G01 X51.330014 Y129.196255 Z-0.249992
G01 X52.707117 Y129.702590 Z-0.249992
G01 X52.699892 Y129.974850 Z-0.249992
G01 X52.662441 Y131.385453 Z-0.249992
G01 X52.622535 Y132.888964 Z-0.249992
G01 X52.610766 Y133.332533 Z-0.249992
G01 X52.561123 Y135.202452 Z-0.249992
G01 X52.417472 Y136.139345 Z-0.249992
G01 X51.911561 Y136.139345 Z-0.249992
G01 X51.500871 Y136.139345 Z-0.249992
G01 X51.253249 Y135.535531 Z-0.249992
G01 X51.196269 Y134.771753 Z-0.249992
G01 X51.150746 Y134.161476 Z-0.249992
G01 X50.946530 Y133.108815 Z-0.249992
G01 X50.771270 Y132.417229 Z-0.218158
G01 X50.796360 Y132.610721 Z-0.249992
G01 X50.599453 Y131.091547 Z0.000000
G01 X50.796360 Y132.610721 Z-0.249992
G01 X50.660470 Y131.562350 Z-0.077470
G01 X50.767037 Y133.446748 Z-0.249992
G01 X50.728203 Y134.554583 Z-0.249992
G01 X50.697413 Y135.172367 Z-0.249992
G01 X50.458483 Y135.962477 Z-0.249992
G01 X50.108528 Y135.988949 Z-0.249992
G01 X49.797914 Y135.943088 Z-0.249992
G01 X49.212416 Y135.856643 Z-0.249992
G01 X48.755921 Y135.102235 Z-0.249992
G01 X48.563587 Y134.634706 Z-0.249992
G01 X47.841775 Y132.879989 Z-0.249992
G01 X47.795886 Y132.768427 Z-0.249992
G01 X47.210980 Y131.346507 Z-0.249992
G01 X46.975748 Y130.689550 Z-0.249992
G01 X46.338293 Y130.220609 Z-0.249992
G01 X45.906831 Y130.332341 Z-0.249992
G01 X44.713709 Y130.530320 Z-0.249992
G01 X44.573472 Y130.553575 Z-0.249992
G01 X43.543898 Y130.470969 Z0.000000
G01 X44.573472 Y130.553575 Z-0.249992
G01 X43.583832 Y130.474186 Z-0.009680
G01 X45.034736 Y130.708769 Z-0.249992
G01 X45.714836 Y130.937567 Z-0.249992
G01 X46.130775 Y131.093720 Z-0.249992
G01 X46.680515 Y131.683649 Z-0.249992
G01 X46.812144 Y132.113530 Z-0.249992
G01 X47.002418 Y132.818521 Z-0.249992
G01 X47.224442 Y133.641227 Z-0.249992
G01 X47.327340 Y134.529070 Z-0.249992
G01 X47.130801 Y134.725610 Z-0.249992
G01 X46.857723 Y134.998688 Z-0.249992
G01 X45.686529 Y134.015651 Z-0.249992
G01 X45.623170 Y133.950627 Z-0.249992
G01 X44.583632 Y132.883997 Z-0.249992
G01 X44.377469 Y132.672443 Z-0.249992
G01 X43.192249 Y131.456376 Z-0.249992
G01 X42.541218 Y130.872373 Z-0.249992
G01 X42.298846 Y130.962374 Z-0.249992
G01 X42.439082 Y131.650065 Z-0.249992
G01 X42.495414 Y131.843839 Z-0.249992
G01 X42.948550 Y133.402439 Z-0.249992
G01 X43.326925 Y134.703879 Z-0.249992
G01 X43.587670 Y135.978479 Z-0.249992
G01 X43.451921 Y136.198132 Z-0.249992
G01 X43.310641 Y136.426789 Z-0.249992
G01 X42.603561 Y136.562679 Z-0.249992
G01 X41.959502 Y136.562679 Z-0.249992
G01 X41.409423 Y136.562679 Z-0.249992
G01 X41.032317 Y136.546028 Z-0.249992
G01 X40.463640 Y136.073447 Z-0.249992
G01 X40.265322 Y135.650029 Z-0.249992
G01 X39.947850 Y134.932112 Z-0.249992
G01 X39.585279 Y134.112284 Z-0.249992
G01 X39.361731 Y133.541829 Z-0.249992
G01 X38.624567 Y131.660620 Z-0.249992
G01 X38.465168 Y131.233223 Z-0.249992
G01 X37.813347 Y129.485590 Z-0.249992
G01 X37.718125 Y129.230263 Z-0.249992
G01 X36.731872 Y126.585982 Z-0.249992
G01 X36.146910 Y125.017532 Z-0.249992
G01 X36.061396 Y124.833128 Z-0.249992
G01 X34.280743 Y120.992507 Z-0.249992
G01 X33.604765 Y119.534547 Z-0.249992
G01 X33.259014 Y118.994656 Z-0.249992
G01 X32.143136 Y117.252159 Z-0.249992
G01 X31.603132 Y116.408879 Z-0.249992
G01 X31.448756 Y116.204522 Z-0.249992
G01 X30.442380 Y114.872095 Z-0.249992
G01 X29.561198 Y113.834222 Z-0.249992
G01 X28.799198 Y112.936756 Z-0.249992
G01 X28.384444 Y112.435190 Z-0.249992
G01 X28.007141 Y111.637405 Z-0.249992
G01 X28.403268 Y111.461354 Z-0.249992
G01 X28.732875 Y111.388315 Z-0.249992
G01 X29.093076 Y111.308475 Z-0.249992
G01 X29.501423 Y111.235407 Z-0.249992
G01 X31.294522 Y110.914464 Z-0.249992
G01 X31.764168 Y110.833466 Z-0.249992
G01 X33.623645 Y110.512749 Z-0.249992
G01 X34.092501 Y110.431892 Z-0.249992
G01 X35.951132 Y110.111316 Z-0.249992
G01 X36.462321 Y110.019538 Z-0.249992
G01 X38.370172 Y109.730852 Z-0.196906
G01 X39.002660 Y109.671586 Z-0.127226
G01 X38.370087 Y109.730852 Z-0.196935
G01 X40.157231 Y109.563410 Z0.000000
G01 X38.370087 Y109.730852 Z-0.196935
G01 X40.157146 Y109.563410 Z0.000000
G01 X38.743552 Y109.695857 Z-0.155758
G01 X37.975004 Y109.762772 Z-0.235345
G01 X37.768163 Y109.787353 Z-0.247735
G01 X36.148123 Y109.885002 Z-0.249992
G01 X36.117869 Y109.887994 Z-0.249992
G01 X34.678423 Y110.029839 Z-0.249992
G01 X34.282126 Y110.068898 Z-0.249992
G01 X30.069198 Y110.484047 Z-0.249992
G01 X28.262467 Y110.662101 Z-0.249992
G01 X27.630572 Y110.693004 Z-0.249992
G01 X27.630572 Y110.112163 Z-0.249992
G01 X27.630572 Y109.515856 Z-0.249992
G01 X27.852935 Y109.407369 Z-0.249992
G01 X29.218241 Y108.741184 Z-0.249992
G01 X29.295090 Y108.715756 Z-0.249992
G01 X30.634799 Y108.272554 Z-0.249992
G01 X32.035383 Y107.809230 Z-0.249992
G01 X32.564973 Y107.634026 Z-0.249992
G01 X32.659998 Y107.602586 Z-0.249992
G01 X34.512786 Y107.252970 Z0.000000
G01 X32.659998 Y107.602586 Z-0.249992
G01 X33.881342 Y107.372124 Z-0.085203
G01 X31.845053 Y107.646246 Z-0.249992
G01 X31.370863 Y107.671646 Z-0.249992
G01 X29.465976 Y107.773698 Z-0.249992
G01 X28.584878 Y107.668457 Z-0.249992
G01 X29.505826 Y106.941086 Z-0.249992
G01 X30.229387 Y106.369642 Z-0.249992
G01 X30.546322 Y106.311871 Z-0.249992
G01 X33.322768 Y105.805678 Z-0.249992
G01 X34.972809 Y105.504857 Z-0.249992
G01 X35.482474 Y105.438055 Z-0.249992
G01 X41.079025 Y104.704333 Z-0.249992
G01 X42.981626 Y104.454905 Z-0.249992
G01 X43.117629 Y104.437069 Z-0.249992
G01 X44.516774 Y104.253653 Z-0.249992
G01 X46.053982 Y104.052146 Z-0.249992
G01 X46.285602 Y104.025702 Z-0.249992
G01 X47.926978 Y103.838306 Z-0.249992
G01 X48.325222 Y103.824562 Z-0.249992
G01 X50.178745 Y103.760723 Z-0.249992
G01 X50.708335 Y103.983594 Z-0.249992
G01 X50.708335 Y104.446382 Z-0.249992
G01 X50.708335 Y104.902679 Z-0.249992
G01 X50.138895 Y105.060272 Z-0.249992
G01 X49.539709 Y105.163932 Z-0.249992
G01 X47.562234 Y105.505958 Z-0.249992
G01 X46.235846 Y105.655168 Z-0.170970
G01 X45.987914 Y105.690700 Z-0.134564
G01 X45.987914 Y105.690700 Z-0.134564
G01 X46.830347 Y105.605215 Z-0.223040
G01 X46.902624 Y105.596720 Z-0.226991
G01 X48.389427 Y105.480275 Z-0.249992
G01 X48.395975 Y105.479880 Z-0.249992
G01 X49.811319 Y105.390980 Z-0.249992
G01 X50.561297 Y105.346643 Z-0.249992
G01 X51.538463 Y105.496277 Z-0.249992
G01 X51.727157 Y105.758405 Z-0.249992
G01 X51.953697 Y106.104156 Z-0.249992
G01 X52.395007 Y106.777679 Z-0.249992
G01 X52.567332 Y107.366423 Z-0.249992
G01 X51.851871 Y108.112082 Z-0.249992
G01 X51.081969 Y108.308791 Z-0.249992
G01 X49.872195 Y108.475895 Z-0.249992
G01 X49.861329 Y108.477391 Z-0.249992
G01 X48.463624 Y108.670431 Z-0.249992
G01 X47.735152 Y108.740902 Z-0.155674
G01 X47.735152 Y108.740902 Z-0.155674
G01 X48.030977 Y108.727919 Z-0.209211
G01 X49.282407 Y108.687110 Z-0.249992
G01 X50.408022 Y108.687110 Z-0.249992
G01 X51.555001 Y108.808268 Z-0.249992
G01 X51.555001 Y109.150773 Z-0.249992
G01 X51.555001 Y109.349288 Z-0.249992
G01 X50.928355 Y110.214976 Z-0.249992
G01 X50.221106 Y111.073609 Z-0.249992
G01 X49.528730 Y111.914208 Z-0.249992
G01 X48.888735 Y112.924592 Z-0.249992
G01 X48.783184 Y113.325489 Z-0.249992
G01 X48.676447 Y113.730788 Z-0.249992
G01 X48.676532 Y113.735896 Z-0.249992
G01 X48.696767 Y115.175145 Z-0.249992
G01 X48.836665 Y116.546406 Z-0.249992
G01 X48.857775 Y116.753416 Z-0.249992
G01 X49.023722 Y118.379835 Z-0.249992
G01 X49.002329 Y119.285909 Z-0.249992
G01 X48.711725 Y119.636034 Z-0.249992
G01 X48.268411 Y120.170224 Z-0.249992
G01 X47.996602 Y120.232003 Z-0.249992
G01 X46.620571 Y120.544705 Z-0.249992
G01 X44.955742 Y120.923080 Z-0.249992
G01 X44.418617 Y120.591130 Z-0.249992
G01 X44.198173 Y120.454874 Z-0.249992
G01 X43.845480 Y119.893082 Z-0.231592
G01 X43.687831 Y119.348816 Z-0.147630
G01 X43.840316 Y119.875161 Z-0.228826
G01 X43.410491 Y118.391547 Z0.000000
G01 X43.840316 Y119.875161 Z-0.228826
G01 X43.740973 Y119.532317 Z-0.175937
G01 X43.959413 Y120.604169 Z-0.249992
G01 X43.842799 Y120.943457 Z-0.249992
G01 X43.114807 Y121.516086 Z-0.249992
G01 X42.461660 Y122.029843 Z-0.249992
G01 X41.901534 Y122.286242 Z-0.249992
G01 X41.039570 Y121.943398 Z-0.249992
G01 X40.746031 Y121.369415 Z-0.249992
G01 X40.502502 Y120.505504 Z-0.249992
G01 X40.271390 Y119.685620 Z-0.249992
G01 X39.997860 Y118.536045 Z-0.249992
G01 X39.895526 Y117.953594 Z-0.249992
G01 X39.793305 Y117.371737 Z-0.249992
G01 X39.768300 Y116.912307 Z-0.249992
G01 X40.461551 Y116.418362 Z-0.249992
G01 X41.075187 Y116.339058 Z-0.249992
G01 X42.107556 Y116.244428 Z-0.249992
G01 X42.615471 Y116.197862 Z-0.249992
G01 X42.782152 Y116.089573 Z-0.249992
G01 X42.831061 Y115.831932 Z-0.249992
G01 X43.034656 Y115.472212 Z-0.117094
G01 X43.034656 Y115.472212 Z-0.117094
G01 X42.933140 Y115.564583 Z-0.199616
G01 X41.405528 Y115.757849 Z-0.249992
G01 X41.042364 Y115.791744 Z-0.249992
G01 X39.302493 Y115.954219 Z-0.249992
G01 X38.855001 Y116.102330 Z-0.249992
G01 X38.855001 Y116.428155 Z-0.249992
G01 X38.855001 Y116.595061 Z-0.249992
G01 X39.216217 Y117.712915 Z-0.249992
G01 X39.672655 Y118.920093 Z-0.249992
G01 X40.132960 Y120.137543 Z-0.249992
G01 X40.204023 Y120.350169 Z-0.249992
G01 X40.723002 Y121.902702 Z-0.249992
G01 X40.982928 Y122.840329 Z-0.249992
G01 X41.229111 Y124.214299 Z-0.120198
G01 X41.229111 Y124.214299 Z-0.120198
G01 X41.240964 Y123.955050 Z-0.200914
G01 X41.372960 Y123.467906 Z-0.249992
G01 X41.612736 Y123.113266 Z-0.249992
G01 X42.774898 Y122.452132 Z-0.249992
G01 X43.699543 Y122.103757 Z-0.249992
G01 X43.833147 Y122.056852 Z-0.249992
G01 X45.295538 Y121.543546 Z-0.249992
G01 X45.934320 Y121.319348 Z-0.249992
G01 X47.922858 Y120.621356 Z-0.249992
G01 X48.548460 Y120.505702 Z-0.249992
G01 X48.686241 Y120.517188 Z-0.249992
G01 X50.196920 Y120.643229 Z-0.249992
G01 X51.220455 Y120.728657 Z-0.249992
G01 X51.493872 Y120.784142 Z-0.249992
G01 X53.146481 Y121.119535 Z-0.249992
G01 X54.471457 Y121.509933 Z-0.249992
G01 X55.777525 Y121.894800 Z-0.249992
G01 X56.808681 Y122.217972 Z-0.154460
G01 X56.854457 Y122.218988 Z-0.121356
G01 X56.808681 Y122.217972 Z-0.154460
G01 X56.543787 Y122.065431 Z-0.246916
G01 X56.097255 Y121.746097 Z-0.249992
G01 X55.626847 Y121.405708 Z-0.249992
G01 X54.863464 Y120.790859 Z-0.249992
G01 X54.402934 Y120.381580 Z-0.249992
G01 X53.458223 Y119.541913 Z-0.249992
G01 X53.568121 Y119.135993 Z-0.249992
G01 X54.006242 Y117.517364 Z-0.249992
G01 X54.307458 Y116.404618 Z-0.249992
G01 X54.741431 Y115.421553 Z-0.249992
G01 X54.871931 Y115.220188 Z-0.249992
G01 X55.772389 Y113.830836 Z-0.249992
G01 X56.397765 Y113.186946 Z-0.249992
G01 X56.465640 Y113.143117 Z-0.249992
G01 X57.723222 Y112.330825 Z-0.249992
G01 X58.477235 Y112.092375 Z-0.249992
G01 X59.946173 Y112.096354 Z-0.249992
G01 X60.724966 Y112.338981 Z-0.249992
G01 X61.437436 Y112.822456 Z-0.249992
G01 X61.461679 Y112.838909 Z-0.249992
G01 X62.536296 Y113.800666 Z-0.057630
G01 X62.536296 Y113.800666 Z-0.057630
G01 X62.343905 Y113.311547 Z-0.249992
G01 X62.343905 Y112.490196 Z-0.249992
G01 X62.985707 Y112.531033 Z-0.249992
G01 X63.439407 Y112.674600 Z-0.249992
G01 X65.209336 Y113.234726 Z-0.249992
G01 X66.209644 Y113.551295 Z-0.249992
G01 X66.244781 Y113.559677 Z-0.249992
G01 X67.649429 Y113.894646 Z-0.249992
G01 X68.413405 Y113.999351 Z-0.249992
G01 X68.419952 Y114.000254 Z-0.249992
G01 X69.952645 Y114.210312 Z-0.249992
G01 X70.304491 Y114.886460 Z-0.249992
G01 X71.248016 Y116.699681 Z-0.249992
G01 X71.507774 Y117.198904 Z-0.249992
G01 X72.431910 Y118.974872 Z-0.249992
G01 X72.510142 Y119.274282 Z-0.249992
G01 X72.502438 Y119.635074 Z-0.249992
G01 X72.465382 Y121.371842 Z-0.249992
G01 X72.440067 Y122.557232 Z-0.249992
G01 X72.474244 Y123.021967 Z-0.249992
G01 X72.612194 Y124.897531 Z-0.249992
G01 X72.631498 Y125.034494 Z-0.249992
G01 X72.848781 Y126.577007 Z-0.249992
G01 X72.869242 Y126.722211 Z-0.249992
G01 X73.086525 Y128.264809 Z-0.249992
G01 X73.118190 Y128.491010 Z-0.249992
G01 X73.345520 Y130.114917 Z-0.249992
G01 X73.424288 Y130.688223 Z-0.249992
G01 X73.542822 Y131.551146 Z-0.249992
G01 X73.404505 Y132.045769 Z-0.249992
G01 X72.871556 Y132.650232 Z-0.249992
G01 X72.223743 Y133.384857 Z-0.249992
G01 X71.844747 Y133.470031 Z-0.249992
G01 X71.518809 Y133.491903 Z-0.249992
G01 X70.110858 Y133.586476 Z-0.249992
G01 X68.396217 Y133.701623 Z-0.249992
G01 X67.967663 Y133.730409 Z-0.249992
G01 X66.122183 Y133.854333 Z-0.249992
G01 X66.052587 Y133.853995 Z-0.249992
G01 X64.494608 Y133.846487 Z-0.249992
G01 X64.219639 Y133.628979 Z-0.249992
G01 X63.891019 Y133.369024 Z-0.249992
G01 X63.863333 Y132.865314 Z-0.249992
G01 X63.764076 Y131.059741 Z-0.249992
G01 X63.757613 Y130.511101 Z-0.249992
G01 X63.724395 Y127.689076 Z-0.249992
G01 X63.701422 Y125.734800 Z-0.249992
G01 X63.694226 Y125.124240 Z-0.249992
G01 X63.644413 Y120.891217 Z-0.249992
G01 X63.620735 Y118.879453 Z-0.249992
G01 X63.551675 Y118.116606 Z-0.249992
G01 X63.433481 Y118.234801 Z-0.249992
G01 X63.401335 Y118.266946 Z-0.249992
G01 X63.390893 Y118.521313 Z-0.249992
G01 X63.332925 Y119.931238 Z-0.249992
G01 X63.260619 Y121.690160 Z-0.249992
G01 X63.248202 Y122.379121 Z-0.249992
G01 X63.222745 Y123.790006 Z-0.249992
G01 X63.184786 Y125.892760 Z-0.249992
G01 X63.179452 Y126.188726 Z-0.249992
G01 X63.077598 Y131.832239 Z-0.249992
G01 X63.043760 Y133.708142 Z-0.249992
G01 X62.196839 Y134.030158 Z-0.249992
G01 X61.872199 Y134.153573 Z-0.249992
G01 X61.755472 Y134.278541 Z-0.249992
G01 X61.772772 Y134.330781 Z-0.249992
G01 X61.872905 Y134.632984 Z-0.249992
G01 X62.244902 Y134.664113 Z-0.249992
G01 X65.057303 Y134.899459 Z-0.249992
G01 X66.994702 Y135.061567 Z-0.249992
G01 X67.084674 Y135.065236 Z-0.249992
G01 X79.774063 Y135.584271 Z-0.249992
G01 X81.276134 Y135.645682 Z-0.249992
G01 X81.539334 Y135.649831 Z-0.249992
G01 X88.594015 Y135.760914 Z-0.249992
G01 X90.267734 Y135.787273 Z-0.249992
G01 X90.518178 Y135.782504 Z-0.249992
G01 X96.161607 Y135.675626 Z-0.249992
G01 X97.828016 Y135.644045 Z-0.249992
G01 X97.845909 Y135.643707 Z-0.249992
G01 X104.900223 Y135.510103 Z-0.249992
G01 X106.333827 Y135.482953 Z-0.249992
G01 X106.502680 Y135.486001 Z-0.249992
G01 X108.417502 Y135.520517 Z-0.249992
G01 X108.207528 Y136.155235 Z-0.249992
G01 X107.985024 Y136.827883 Z-0.249992
G01 X107.634843 Y136.866209 Z-0.249992
G01 X106.032414 Y137.041553 Z-0.249992
G01 X105.477847 Y137.060914 Z-0.249992
G01 X101.247082 Y137.208827 Z-0.249992
G01 X99.291536 Y137.277181 Z-0.249992
G01 X99.190472 Y137.280709 Z-0.249992
G01 X94.959707 Y137.428593 Z-0.249992
G01 X93.439855 Y137.481735 Z-0.249992
G01 X92.784140 Y137.457775 Z-0.249992
G01 X88.553657 Y137.303089 Z-0.249992
G01 X86.492335 Y137.227707 Z-0.249992
G01 X85.947674 Y137.186983 Z-0.249992
G01 X77.504573 Y136.555426 Z-0.249992
G01 X75.557465 Y136.409771 Z-0.249992
G01 X75.432638 Y136.400429 Z-0.249992
G01 X69.803914 Y135.979410 Z-0.249992
G01 X68.280958 Y135.865505 Z-0.249992
G01 X68.263940 Y135.865449 Z-0.249992
G01 X62.619523 Y135.854640 Z-0.249992
G01 X61.432779 Y135.852354 Z-0.249992
G01 X61.432779 Y136.132883 Z-0.249992
G01 X61.182787 Y136.532114 Z0.000000
G01 X61.264603 Y136.441380 Z-0.101544
G01 X62.743419 Y136.506460 Z-0.249992
G01 X63.187129 Y136.548624 Z-0.249992
G01 X68.806230 Y137.082786 Z-0.249992
G01 X70.660881 Y137.259090 Z-0.249992
G01 X71.317274 Y137.321490 Z-0.249992
G01 X72.722035 Y137.455009 Z-0.249992
G01 X74.771871 Y137.649883 Z-0.249992
G01 X75.194414 Y137.651577 Z-0.249992
G01 X99.183106 Y137.748464 Z-0.249992
G01 X101.017720 Y137.755858 Z-0.249992
G01 X101.155077 Y137.744992 Z-0.249992
G01 X103.968522 Y137.522573 Z-0.249992
G01 X105.522946 Y137.399693 Z-0.249992
G01 X106.185632 Y137.347313 Z-0.249992
G01 X108.374914 Y137.174226 Z-0.249992
G01 X108.553843 Y137.365149 Z-0.249992
G01 X109.615563 Y138.497905 Z-0.249992
G01 X110.238512 Y139.162566 Z-0.249992
G01 X111.224061 Y139.915789 Z-0.249992
G01 X111.813284 Y140.181473 Z-0.249992
G01 X112.441313 Y140.464683 Z-0.249992
G01 X113.072362 Y140.837979 Z-0.249992
G01 X113.097254 Y141.054161 Z-0.249992
G01 X113.107781 Y141.145431 Z-0.249992
G01 X113.164480 Y141.588549 Z-0.249992
G01 X113.223351 Y142.039229 Z-0.249992
G01 X113.287105 Y142.527389 Z-0.249992
G01 X113.138656 Y143.405806 Z-0.249992
G01 X112.900743 Y143.975217 Z-0.249992
G01 X112.649255 Y144.577113 Z-0.249992
G01 X112.581747 Y144.773003 Z-0.238139
G01 X112.581747 Y144.773003 Z-0.238139
G01 X112.708211 Y144.708036 Z-0.249992
G01 X113.228713 Y144.400583 Z-0.249992
G01 X113.979255 Y143.957212 Z-0.249992
G01 X114.357433 Y143.917898 Z-0.249992
G01 X114.805066 Y144.289387 Z-0.249992
G01 X115.249283 Y144.658082 Z-0.249992
G01 X115.453923 Y145.116185 Z-0.249992
G01 X114.987804 Y145.749718 Z-0.249992
G01 X114.442354 Y145.972306 Z-0.249992
G01 X113.657691 Y146.139523 Z-0.249992
G01 X113.491942 Y146.174857 Z-0.249992
G01 X112.111819 Y146.468989 Z-0.249992
G01 X110.583586 Y146.794674 Z-0.249992
G01 X110.367686 Y146.874430 Z-0.249992
G01 X110.444676 Y146.951364 Z-0.249992
G01 X110.754443 Y147.260820 Z-0.249992
G01 X110.741856 Y147.260679 Z-0.249992
G01 X112.225188 Y147.279080 Z-0.249992
G01 X112.344680 Y147.264461 Z-0.249992
G01 X113.745378 Y147.093237 Z-0.249992
G01 X115.265003 Y146.907478 Z-0.249992
G01 X115.308691 Y146.895850 Z-0.249992
G01 X116.609397 Y146.549338 Z-0.249992
G01 X116.735974 Y146.219448 Z-0.249992
G01 X116.787761 Y146.084546 Z-0.249992
G01 X116.271182 Y145.183693 Z-0.249992
G01 X116.242310 Y145.146016 Z-0.249992
G01 X115.345267 Y143.974850 Z-0.249992
G01 X115.338324 Y143.965763 Z-0.249992
G01 X114.471027 Y142.833459 Z-0.249992
G01 X113.708350 Y141.773461 Z-0.249992
G01 X113.708350 Y141.619424 Z-0.249992
G01 X113.708350 Y141.093277 Z-0.249992
G01 X114.606184 Y141.124152 Z-0.249992
G01 X117.426741 Y141.221095 Z-0.249992
G01 X119.597453 Y141.295715 Z-0.249992
G01 X119.870559 Y141.667825 Z-0.249992
G01 X120.280402 Y142.226201 Z-0.249992
G01 X120.141239 Y143.900457 Z-0.249992
G01 X119.516512 Y143.900457 Z-0.249992
G01 X119.251420 Y143.900457 Z-0.249992
G01 X118.583993 Y143.544998 Z-0.249992
G01 X118.043255 Y143.146077 Z-0.249992
G01 X117.098319 Y142.448931 Z-0.249992
G01 X117.003718 Y142.417238 Z-0.249992
G01 X117.009927 Y142.546129 Z-0.249992
G01 X117.464192 Y143.198316 Z-0.249992
G01 X117.463853 Y143.197949 Z-0.249992
G01 X118.444152 Y144.237853 Z-0.249992
G01 X119.130488 Y144.965930 Z-0.249992
G01 X119.515213 Y145.391916 Z-0.249992
G01 X119.865479 Y146.088046 Z-0.249992
G01 X119.614668 Y146.348876 Z-0.249992
G01 X119.340038 Y146.512282 Z-0.249992
G01 X119.057280 Y146.680515 Z-0.249992
G01 X118.490577 Y147.090894 Z-0.249992
G01 X118.077714 Y147.427162 Z-0.249992
G01 X117.402526 Y147.977100 Z-0.249992
G01 X116.495040 Y148.175869 Z-0.249992
G01 X116.201840 Y148.207478 Z-0.249992
G01 X114.798828 Y148.358665 Z-0.249992
G01 X113.116107 Y148.539992 Z-0.249992
G01 X113.032823 Y148.548967 Z-0.249992
G01 X108.823874 Y149.002498 Z-0.249992
G01 X107.333853 Y149.163054 Z-0.249992
G01 X107.261717 Y149.168614 Z-0.249992
G01 X100.227131 Y149.712344 Z-0.249992
G01 X98.741315 Y149.803473 Z-0.226370
G01 X98.299355 Y149.807594 Z-0.230491
G01 X96.455033 Y149.824809 Z-0.247706
G01 X95.404376 Y149.827123 Z-0.249992
G01 X94.580090 Y149.890313 Z-0.217198
G01 X94.528161 Y149.919918 Z-0.188581
G01 X94.580090 Y149.890313 Z-0.217198
G01 X94.593890 Y149.889382 Z-0.217876
G01 X96.004155 Y149.830933 Z-0.249992
G01 X97.415238 Y149.815834 Z-0.238732
G01 X98.826292 Y149.799409 Z-0.228854
G01 X100.236754 Y149.751911 Z-0.249992
G01 X102.054322 Y149.717988 Z-0.249992
G01 X102.634571 Y149.682343 Z-0.249992
G01 X106.859946 Y149.422925 Z-0.249992
G01 X108.853987 Y149.300497 Z-0.249992
G01 X109.003141 Y149.291353 Z-0.249992
G01 X111.820058 Y149.118407 Z-0.249992
G01 X113.370304 Y149.023213 Z-0.249992
G01 X113.431405 Y149.015847 Z-0.249992
G01 X116.233279 Y148.677491 Z-0.249992
G01 X117.680995 Y148.502654 Z-0.249992
G01 X117.723074 Y148.489926 Z-0.249992
G01 X119.136584 Y148.062106 Z-0.249992
G01 X119.438562 Y147.970722 Z-0.249992
G01 X119.823513 Y147.911540 Z-0.249992
G01 X120.039102 Y148.685224 Z-0.249992
G01 X120.037607 Y149.270638 Z-0.249992
G01 X120.023411 Y150.330382 Z-0.249992
G01 X120.020871 Y150.520064 Z-0.249992
G01 X119.999112 Y152.145212 Z-0.249992
G01 X119.868386 Y152.763053 Z-0.249992
G01 X119.335551 Y152.865810 Z-0.249992
G01 X118.825208 Y152.964249 Z-0.249992
G01 X118.545272 Y152.495083 Z-0.249992
G01 X118.399617 Y151.584211 Z-0.249992
G01 X118.277161 Y150.818372 Z-0.249992
G01 X118.211855 Y150.720216 Z-0.249992
G01 X118.132070 Y150.761533 Z-0.249992
G01 X118.018335 Y151.148121 Z-0.249992
G01 X118.018335 Y151.999529 Z-0.249992
G01 X118.018335 Y153.156950 Z-0.249992
G01 X117.768342 Y153.387103 Z0.000000
G01 X118.018335 Y153.156950 Z-0.249992
G01 X118.847306 Y153.225559 Z-0.249992
G01 X119.490321 Y153.278786 Z-0.249992
G01 X119.979864 Y153.387921 Z-0.249992
G01 X120.148718 Y154.007314 Z-0.249992
G01 X119.823993 Y154.394043 Z-0.249992
G01 X119.325758 Y154.860895 Z-0.249992
G01 X118.664285 Y155.480712 Z-0.249992
G01 X118.328666 Y155.954732 Z-0.249992
G01 X118.236521 Y156.441622 Z-0.249992
G01 X117.875164 Y158.350940 Z-0.249992
G01 X117.864496 Y158.592268 Z-0.249992
G01 X117.790807 Y160.258875 Z-0.249992
G01 X117.783300 Y160.553430 Z-0.249992
G01 X117.747373 Y161.964062 Z-0.249992
G01 X117.703883 Y163.671619 Z-0.249992
G01 X117.695190 Y164.013531 Z-0.249992
G01 X117.659264 Y165.424191 Z-0.249992
G01 X117.614616 Y167.176989 Z-0.249992
G01 X117.606968 Y167.454582 Z-0.249992
G01 X117.568219 Y168.865157 Z-0.249992
G01 X117.521793 Y170.554511 Z-0.249992
G01 X117.497578 Y171.176811 Z-0.249992
G01 X117.477371 Y171.696834 Z-0.249992
G01 X117.479629 Y171.902320 Z-0.249992
G01 X117.594268 Y172.080148 Z-0.249992
G01 X117.687909 Y172.099480 Z-0.249992
G01 X118.064930 Y172.142378 Z-0.249992
G01 X118.547219 Y172.197242 Z-0.249992
G01 X118.837908 Y172.105068 Z-0.249992
G01 X119.009245 Y171.870739 Z-0.249992
G01 X119.406388 Y171.327631 Z-0.249992
G01 X119.724792 Y171.350547 Z-0.249992
G01 X120.070288 Y171.937880 Z-0.249992
G01 X120.177532 Y172.283038 Z-0.167442
G01 X120.177532 Y172.283038 Z-0.167442
G01 X120.379688 Y171.716392 Z-0.249992
G01 X120.516594 Y171.079981 Z-0.249992
G01 X120.634648 Y170.062654 Z-0.249992
G01 X120.764724 Y168.941922 Z-0.249992
G01 X121.124247 Y168.114531 Z-0.249992
G01 X121.699952 Y168.899560 Z-0.249992
G01 X121.821025 Y169.756415 Z-0.249992
G01 X121.824017 Y171.033160 Z-0.249992
G01 X121.827008 Y172.311232 Z-0.249992
G01 X121.701335 Y173.180871 Z-0.249992
G01 X120.942863 Y174.236665 Z-0.249992
G01 X120.263272 Y174.409300 Z-0.249992
G01 X119.347178 Y174.367305 Z-0.249992
G01 X119.138926 Y174.357766 Z-0.249992
G01 X117.546742 Y174.237568 Z-0.202833
G01 X117.546742 Y174.237568 Z-0.202833
G01 X117.651502 Y174.405095 Z-0.249992
G01 X117.677382 Y174.483750 Z-0.249992
G01 X118.272674 Y174.649697 Z-0.249992
G01 X119.223113 Y174.732388 Z-0.249992
G01 X119.355899 Y174.743959 Z-0.249992
G01 X122.416119 Y175.010292 Z-0.249992
G01 X120.799550 Y175.401904 Z-0.249992
G01 X119.295983 Y175.766111 Z-0.249992
G01 X118.459448 Y175.968775 Z-0.249992
G01 X117.967337 Y176.135032 Z-0.249992
G01 X117.524107 Y176.389794 Z-0.205345
G01 X117.524107 Y176.389794 Z-0.205345
G01 X117.723243 Y176.525769 Z-0.249992
G01 X117.812200 Y176.614725 Z-0.249992
G01 X118.340915 Y176.598498 Z-0.249992
G01 X119.246425 Y176.404301 Z-0.249992
G01 X120.192575 Y176.201383 Z-0.249992
G01 X120.986494 Y176.176575 Z-0.249992
G01 X121.227145 Y176.417255 Z-0.249992
G01 X121.547947 Y176.738057 Z-0.249992
G01 X121.518963 Y177.222265 Z-0.249992
G01 X120.989091 Y177.880803 Z-0.249992
G01 X120.492267 Y178.189695 Z-0.249992
G01 X119.869233 Y178.397382 Z-0.249992
G01 X118.865002 Y178.732098 Z-0.249992
G01 X118.615009 Y178.551927 Z0.000000
G01 X118.865002 Y178.732098 Z-0.249992
G01 X118.865002 Y179.233861 Z-0.249992
G01 X118.865002 Y181.326905 Z-0.249992
G01 X118.865002 Y181.614038 Z-0.249992
G01 X118.865002 Y183.296958 Z-0.249992
G01 X118.945350 Y183.948609 Z-0.249992
G01 X119.046132 Y183.998223 Z-0.234837
G01 X119.033319 Y183.977988 Z-0.249992
G01 X119.060525 Y183.753847 Z-0.249992
G01 X119.054062 Y183.542265 Z-0.249992
G01 X119.004081 Y181.901284 Z-0.249992
G01 X118.992764 Y181.529569 Z-0.249992
G01 X118.937730 Y179.722726 Z-0.249992
G01 X119.015878 Y179.257144 Z-0.249992
G01 X119.584922 Y178.841035 Z-0.249992
G01 X119.917775 Y178.597591 Z-0.249992
G01 X120.413470 Y178.417279 Z-0.249992
G01 X120.657141 Y178.497289 Z-0.249992
G01 X121.208885 Y178.678475 Z-0.249992
G01 X121.244163 Y179.274783 Z-0.249992
G01 X121.353863 Y181.128870 Z-0.249992
G01 X121.300297 Y181.713098 Z-0.249992
G01 X121.119590 Y183.683743 Z-0.249992
G01 X121.098593 Y183.912654 Z-0.249992
G01 X120.945516 Y185.582111 Z-0.249992
G01 X120.809936 Y185.928031 Z-0.249992
G01 X120.024991 Y186.333951 Z-0.249992
G01 X119.421318 Y186.646117 Z-0.249992
G01 X118.868106 Y187.247194 Z-0.249992
G01 X118.788209 Y187.386132 Z-0.249992
G01 X117.954270 Y188.727647 Z-0.195890
G01 X117.734278 Y189.585094 Z-0.249992
G01 X117.717994 Y190.363463 Z-0.249992
G01 X117.701653 Y191.144683 Z-0.249992
G01 X117.660957 Y191.801386 Z-0.249992
G01 X117.533167 Y193.862962 Z-0.249992
G01 X117.490918 Y194.429947 Z-0.249992
G01 X117.343908 Y196.402567 Z-0.249992
G01 X117.311396 Y196.838770 Z-0.249992
G01 X117.173982 Y198.682443 Z-0.249992
G01 X117.083728 Y199.857899 Z-0.249992
G01 X117.064029 Y199.948125 Z-0.249992
G01 X116.736933 Y201.445963 Z-0.249992
G01 X116.465661 Y201.854057 Z-0.249992
G01 X115.984162 Y202.554052 Z-0.249992
G01 X115.420310 Y203.373767 Z-0.249992
G01 X115.335587 Y203.570645 Z-0.249992
G01 X114.688875 Y205.073394 Z-0.249992
G01 X114.639909 Y205.234881 Z-0.249992
G01 X114.177544 Y206.760236 Z-0.249992
G01 X114.143678 Y206.871968 Z-0.249992
G01 X113.699319 Y208.337915 Z-0.249992
G01 X113.641943 Y208.507643 Z-0.249992
G01 X113.129794 Y210.022499 Z-0.249992
G01 X112.912060 Y210.499765 Z-0.249992
G01 X112.378519 Y211.669209 Z-0.249992
G01 X112.336016 Y211.988346 Z-0.249992
G01 X111.963511 Y214.785874 Z-0.249992
G01 X111.731242 Y216.530233 Z-0.249992
G01 X111.723707 Y216.687064 Z-0.249992
G01 X111.588522 Y219.506041 Z-0.249992
G01 X111.512887 Y221.082929 Z-0.249992
G01 X111.511702 Y221.107736 Z-0.249992
G01 X111.444081 Y222.517211 Z-0.249992
G01 X111.375670 Y223.943618 Z-0.249992
G01 X111.396470 Y225.314569 Z-0.249992
G01 X111.240994 Y225.548306 Z-0.249992
G01 X110.290103 Y226.977987 Z-0.249992
G01 X109.175071 Y227.208337 Z-0.249992
G01 X108.745924 Y227.341207 Z-0.249992
G01 X106.957228 Y227.894927 Z-0.249992
G01 X106.588843 Y228.008973 Z-0.249992
G01 X104.869460 Y228.541272 Z-0.249992
G01 X104.446325 Y228.660680 Z-0.249992
G01 X102.657346 Y229.165604 Z-0.249992
G01 X102.044331 Y229.280610 Z-0.249992
G01 X100.634123 Y229.545108 Z-0.249992
G01 X100.670671 Y228.960598 Z-0.249992
G01 X100.758668 Y227.552224 Z-0.249992
G01 X100.863147 Y225.879860 Z-0.249992
G01 X100.876609 Y225.664242 Z-0.249992
G01 X100.978434 Y224.034720 Z-0.249992
G01 X100.998246 Y223.850062 Z-0.249992
G01 X101.171164 Y222.236908 Z-0.249992
G01 X101.297797 Y221.894600 Z-0.249992
G01 X101.565259 Y221.171632 Z-0.249992
G01 X101.932628 Y221.161951 Z-0.249992
G01 X102.140089 Y221.904478 Z-0.249992
G01 X102.228425 Y222.220623 Z-0.249992
G01 X102.381813 Y222.961682 Z-0.249992
G01 X102.480788 Y223.548310 Z-0.249992
G01 X102.581033 Y224.357074 Z-0.214320
G01 X102.581033 Y224.357074 Z-0.214320
G01 X102.611287 Y224.266734 Z-0.249992
G01 X102.735352 Y223.678781 Z-0.249992
G01 X102.829078 Y222.580852 Z-0.249992
G01 X102.851487 Y222.318244 Z-0.249992
G01 X102.971488 Y220.912241 Z-0.249992
G01 X103.113248 Y219.251617 Z-0.249992
G01 X103.124621 Y218.710061 Z-0.249992
G01 X103.421181 Y204.602054 Z-0.249992
G01 X103.461877 Y202.665784 Z-0.249992
G01 X103.336260 Y201.571411 Z-0.187396
G01 X103.333522 Y201.923173 Z-0.249992
G01 X103.344416 Y200.518242 Z0.000000
G01 X103.333522 Y201.923173 Z-0.249992
G01 X103.336514 Y201.539746 Z-0.181779
G01 X103.301801 Y202.091208 Z-0.249992
G01 X103.134725 Y203.194923 Z-0.249992
G01 X103.032081 Y204.006819 Z-0.249992
G01 X102.927066 Y204.837512 Z-0.249992
G01 X102.702304 Y205.707124 Z-0.249992
G01 X102.401088 Y205.707124 Z-0.249992
G01 X102.047661 Y205.707124 Z-0.249992
G01 X102.035582 Y204.988050 Z-0.249992
G01 X101.964406 Y200.755309 Z-0.249992
G01 X101.932712 Y198.869472 Z-0.249992
G01 X101.930991 Y198.368217 Z-0.249992
G01 X101.911489 Y192.723801 Z-0.249992
G01 X101.904913 Y190.813100 Z-0.249992
G01 X101.903982 Y190.546174 Z-0.249992
G01 X101.860153 Y177.846259 Z-0.249992
G01 X101.853690 Y175.971626 Z-0.249992
G01 X102.679896 Y175.768143 Z-0.249992
G01 X103.045797 Y175.678058 Z-0.249992
G01 X104.369391 Y175.537145 Z-0.249992
G01 X105.616051 Y175.453466 Z-0.249992
G01 X106.040965 Y175.424961 Z-0.249992
G01 X110.118201 Y175.193087 Z-0.208308
G01 X107.789501 Y175.835538 Z-0.249992
G01 X106.259546 Y176.229351 Z-0.249992
G01 X105.326548 Y176.469494 Z-0.249992
G01 X104.272532 Y176.725215 Z-0.249992
G01 X103.918710 Y176.797154 Z-0.249992
G01 X103.586196 Y176.864718 Z-0.249992
G01 X103.483890 Y176.980429 Z-0.249992
G01 X103.483890 Y177.270469 Z-0.249992
G01 X103.373908 Y177.651892 Z-0.139982
G01 X103.373908 Y177.651892 Z-0.139982
G01 X103.633835 Y177.427751 Z-0.249992
G01 X103.930140 Y177.307581 Z-0.249992
G01 X103.965869 Y177.301344 Z-0.249992
G01 X105.370574 Y177.055585 Z-0.249992
G01 X105.401534 Y177.051521 Z-0.249992
G01 X106.826276 Y176.863787 Z-0.249992
G01 X107.268886 Y176.805479 Z-0.249992
G01 X109.129859 Y176.560285 Z-0.249992
G01 X109.658941 Y176.573380 Z-0.249992
G01 X110.096131 Y177.010542 Z-0.249992
G01 X110.481675 Y177.396114 Z-0.249992
G01 X110.489352 Y178.064811 Z-0.249992
G01 X110.554263 Y183.708889 Z-0.249992
G01 X110.577038 Y185.689158 Z-0.249992
G01 X110.576615 Y185.745038 Z-0.249992
G01 X110.466689 Y199.855726 Z-0.249992
G01 X110.444648 Y201.266696 Z-0.238958
G01 X110.420997 Y202.677666 Z-0.226286
G01 X110.396416 Y204.143754 Z-0.213134
G01 X110.391618 Y204.338882 Z-0.212880
G01 X110.358457 Y205.749598 Z-0.212429
G01 X110.302803 Y208.571284 Z-0.222194
G01 X110.247148 Y211.392970 Z-0.231958
G01 X110.219321 Y212.803827 Z-0.236841
G01 X110.187543 Y214.414865 Z-0.242401
G01 X110.181532 Y214.541780 Z-0.246352
G01 X110.074541 Y215.948827 Z-0.249992
G01 X109.963938 Y217.355592 Z-0.249992
G01 X109.843881 Y218.882273 Z-0.249992
G01 X109.820231 Y219.182953 Z-0.249992
G01 X109.709628 Y220.589718 Z-0.249992
G01 X109.575036 Y222.301508 Z-0.249992
G01 X109.567219 Y222.370060 Z-0.249992
G01 X109.407848 Y223.772140 Z-0.249992
G01 X109.232814 Y225.311747 Z-0.249992
G01 X109.047083 Y225.538230 Z-0.249992
G01 X108.860196 Y225.766153 Z-0.249992
G01 X107.582858 Y226.157002 Z-0.249992
G01 X106.251079 Y226.436487 Z-0.249992
G01 X106.140335 Y226.459714 Z-0.249992
G01 X104.666768 Y226.768945 Z-0.249992
G01 X104.048335 Y226.998476 Z-0.249992
G01 X104.048335 Y227.083115 Z-0.249992
G01 X104.048335 Y227.197386 Z-0.249992
G01 X104.062474 Y227.212457 Z-0.249992
G01 X104.143669 Y227.210030 Z-0.249992
G01 X104.584077 Y227.196878 Z-0.249992
G01 X105.180949 Y227.027065 Z-0.249992
G01 X107.895419 Y226.254680 Z-0.249992
G01 X109.816957 Y225.707930 Z-0.249992
G01 X109.938905 Y225.585982 Z-0.249992
G01 X109.941191 Y225.583696 Z-0.249992
G01 X109.944945 Y225.451983 Z-0.249992
G01 X110.025943 Y222.630918 Z-0.249992
G01 X110.073017 Y220.990896 Z-0.249992
G01 X110.073158 Y220.982204 Z-0.249992
G01 X110.141992 Y216.749435 Z-0.249992
G01 X110.165106 Y215.328249 Z-0.249992
G01 X110.177383 Y214.629269 Z-0.249089
G01 X110.211137 Y213.218525 Z-0.238280
G01 X110.266791 Y210.396839 Z-0.228515
G01 X110.322445 Y207.575124 Z-0.218750
G01 X110.364101 Y205.464328 Z-0.211441
G01 X110.367290 Y205.333066 Z-0.211610
G01 X110.400113 Y203.922350 Z-0.215110
G01 X110.447442 Y201.100410 Z-0.240453
G01 X110.474224 Y199.689497 Z-0.249992
G01 X110.655834 Y192.636284 Z-0.249992
G01 X110.695543 Y191.094221 Z-0.249992
G01 X110.696503 Y191.066676 Z-0.249992
G01 X110.994162 Y182.605259 Z-0.249992
G01 X111.044708 Y181.168635 Z-0.249992
G01 X111.048885 Y181.049509 Z-0.249992
G01 X111.148115 Y178.229037 Z-0.249992
G01 X111.201398 Y176.714152 Z-0.249992
G01 X111.192875 Y176.608827 Z-0.249992
G01 X110.706296 Y176.168504 Z-0.249992
G01 X110.275286 Y175.778445 Z-0.249992
G01 X109.999978 Y175.398884 Z-0.249992
G01 X110.205097 Y174.827864 Z-0.249992
G01 X110.662692 Y174.727139 Z-0.249992
G01 X111.235406 Y174.727139 Z-0.249992
G01 X112.425340 Y174.727139 Z-0.249992
G01 X112.447240 Y175.623561 Z-0.249992
G01 X112.585106 Y181.266340 Z-0.249992
G01 X112.635539 Y183.329582 Z-0.249992
G01 X112.648098 Y183.843763 Z-0.249992
G01 X112.785963 Y189.486514 Z-0.249992
G01 X112.832812 Y191.403057 Z-0.249992
G01 X112.875456 Y191.869429 Z-0.249992
G01 X112.912455 Y192.273882 Z-0.249992
G01 X112.583807 Y193.598915 Z-0.249992
G01 X112.951543 Y192.116261 Z-0.249992
G01 X113.018909 Y191.844566 Z-0.249992
G01 X113.420512 Y190.225344 Z-0.249992
G01 X113.460926 Y189.569234 Z-0.249992
G01 X113.634464 Y186.752345 Z-0.249992
G01 X113.762311 Y184.677052 Z-0.249992
G01 X113.747353 Y184.242374 Z-0.249992
G01 X113.698839 Y182.832081 Z-0.249992
G01 X113.634944 Y180.975143 Z-0.249992
G01 X113.618124 Y180.486109 Z-0.249992
G01 X113.553043 Y178.594797 Z-0.249992
G01 X113.535263 Y178.415106 Z-0.249992
G01 X113.379476 Y176.839120 Z-0.249992
G01 X113.269043 Y176.359766 Z-0.249992
G01 X112.847826 Y174.531022 Z-0.249992
G01 X112.575115 Y174.098235 Z-0.249992
G01 X112.245141 Y174.098235 Z-0.249992
G01 X112.208706 Y174.098235 Z-0.249992
G01 X110.782044 Y174.098235 Z-0.249992
G01 X110.557452 Y174.135968 Z-0.249992
G01 X103.599545 Y175.305722 Z-0.249992
G01 X102.040324 Y175.567850 Z-0.249992
G01 X101.789626 Y175.813863 Z-0.249992
G01 X101.637705 Y175.962933 Z-0.249992
G01 X101.375154 Y176.679016 Z-0.249992
G01 X101.218718 Y177.433424 Z-0.249992
G01 X101.117344 Y177.922205 Z-0.249992
G01 X100.734284 Y179.769264 Z-0.249992
G01 X100.733014 Y179.862595 Z-0.249992
G01 X100.598761 Y189.739442 Z-0.249992
G01 X100.578074 Y191.261777 Z-0.249992
G01 X100.598648 Y191.875751 Z-0.249992
G01 X100.835122 Y198.927327 Z-0.249992
G01 X100.903194 Y200.957493 Z-0.249992
G01 X100.913185 Y201.255661 Z-0.249992
G01 X101.149659 Y208.307237 Z-0.249992
G01 X101.207175 Y210.022386 Z-0.249992
G01 X101.199047 Y210.431213 Z-0.249992
G01 X101.031153 Y218.896215 Z-0.249992
G01 X100.995001 Y220.718693 Z-0.249992
G01 X100.959300 Y221.090295 Z-0.249992
G01 X100.554565 Y225.304240 Z-0.249992
G01 X100.384865 Y227.071007 Z-0.249992
G01 X100.376821 Y227.154743 Z-0.249992
G01 X100.234186 Y228.639824 Z-0.249992
G01 X100.185333 Y229.345154 Z-0.249992
G01 X100.669486 Y229.922411 Z-0.249992
G01 X101.224165 Y229.877425 Z-0.249992
G01 X102.556649 Y229.720002 Z-0.249992
G01 X103.208470 Y229.642983 Z-0.249992
G01 X105.247271 Y229.402106 Z-0.249992
G01 X105.908236 Y229.244965 Z-0.249992
G01 X108.653948 Y228.592242 Z-0.249992
G01 X110.619343 Y228.124994 Z-0.249992
G01 X110.892280 Y227.789714 Z-0.249992
G01 X111.395285 Y227.171789 Z-0.249992
G01 X111.439255 Y226.934327 Z-0.249992
G01 X111.748768 Y225.262556 Z-0.249992
G01 X111.757658 Y225.095960 Z-0.249992
G01 X111.832786 Y223.686852 Z-0.249992
G01 X111.917650 Y222.094922 Z-0.249992
G01 X111.931676 Y221.831778 Z-0.249992
G01 X112.021084 Y220.154333 Z-0.249992
G01 X112.132336 Y218.989235 Z-0.249992
G01 X112.589536 Y217.670580 Z-0.249992
G01 X113.126605 Y218.143613 Z-0.249992
G01 X113.379392 Y218.941963 Z-0.149154
G01 X113.534699 Y219.460800 Z-0.075410
G01 X113.608246 Y219.706334 Z-0.039963
G01 X113.608246 Y219.706334 Z-0.039963
G01 X113.568283 Y219.572504 Z-0.059408
G01 X113.445573 Y219.162971 Z-0.117743
G01 X113.272204 Y218.583795 Z-0.200039
G01 X112.911524 Y216.590008 Z-0.249992
G01 X112.879181 Y215.535371 Z-0.249992
G01 X112.922559 Y215.192471 Z-0.249992
G01 X113.140688 Y213.469053 Z-0.249992
G01 X113.200124 Y212.999323 Z-0.249992
G01 X113.438687 Y211.114247 Z-0.249992
G01 X113.567803 Y210.608872 Z-0.249992
G01 X114.266444 Y207.874506 Z-0.249992
G01 X114.756439 Y205.956777 Z-0.249992
G01 X115.217900 Y205.448919 Z-0.249992
G01 X116.273581 Y204.287094 Z-0.249992
G01 X116.193232 Y205.959148 Z-0.249992
G01 X116.018028 Y206.647601 Z-0.249992
G01 X115.501026 Y208.679121 Z-0.249992
G01 X115.471562 Y208.794889 Z-0.249992
G01 X115.095642 Y210.272068 Z-0.249992
G01 X115.070044 Y210.399237 Z-0.249992
G01 X114.769788 Y211.891233 Z-0.249992
G01 X114.770804 Y212.283692 Z-0.249992
G01 X114.771961 Y212.721898 Z-0.249992
G01 X114.853100 Y212.930291 Z-0.249992
G01 X114.937936 Y213.049727 Z-0.197160
G01 X114.937936 Y213.049727 Z-0.197160
G01 X114.959046 Y212.685435 Z-0.249992
G01 X115.084804 Y212.075101 Z-0.249992
G01 X115.496990 Y210.074625 Z-0.249992
G01 X115.809692 Y208.942181 Z-0.249992
G01 X116.113053 Y208.754700 Z-0.249992
G01 X116.617186 Y208.443127 Z-0.249992
G01 X116.655371 Y209.128729 Z-0.249992
G01 X116.749012 Y210.810322 Z-0.249992
G01 X116.749238 Y211.480205 Z-0.249992
G01 X116.749915 Y213.554256 Z-0.249992
G01 X116.750056 Y214.009396 Z-0.249992
G01 X116.750621 Y215.870397 Z-0.249992
G01 X116.756830 Y216.017830 Z-0.249992
G01 X116.822192 Y217.569460 Z-0.249992
G01 X116.877198 Y217.993809 Z-0.249992
G01 X117.110878 Y219.796927 Z-0.249992
G01 X117.258169 Y220.164888 Z-0.249992
G01 X117.389036 Y220.202876 Z-0.212005
G01 X117.352036 Y220.164888 Z-0.249992
G01 X117.352234 Y220.157946 Z-0.249992
G01 X117.396684 Y218.503249 Z-0.249992
G01 X117.381388 Y217.806470 Z-0.249992
G01 X117.350428 Y216.395698 Z-0.249992
G01 X117.304030 Y214.282051 Z-0.249992
G01 X117.297934 Y214.004767 Z-0.249992
G01 X117.266946 Y212.593995 Z-0.249992
G01 X117.229806 Y210.901339 Z-0.249992
G01 X117.231528 Y210.784894 Z-0.249992
G01 X117.252666 Y209.373924 Z-0.249992
G01 X117.276119 Y207.807732 Z-0.249992
G01 X117.421237 Y207.420777 Z-0.249992
G01 X117.537993 Y207.109429 Z-0.249992
G01 X117.574794 Y206.517412 Z-0.249992
G01 X117.701174 Y204.484368 Z-0.249992
G01 X117.702218 Y204.442994 Z-0.249992
G01 X117.737467 Y203.032306 Z-0.249992
G01 X117.773846 Y201.575644 Z-0.249992
G01 X117.788324 Y200.996327 Z-0.249992
G01 X117.858823 Y198.174979 Z-0.249992
G01 X117.908720 Y196.177918 Z-0.249992
G01 X117.920206 Y196.037654 Z-0.249992
G01 X118.035184 Y194.631228 Z-0.249992
G01 X118.171356 Y192.965722 Z-0.249992
G01 X118.601180 Y192.700094 Z-0.249992
G01 X118.892744 Y192.519895 Z-0.249992
G01 X119.451403 Y192.620620 Z-0.249992
G01 X120.840106 Y192.871064 Z-0.249992
G01 X122.770223 Y193.219129 Z-0.249992
G01 X123.030178 Y193.479112 Z-0.249992
G01 X123.186981 Y193.635915 Z-0.249992
G01 X123.165447 Y193.959765 Z-0.249992
G01 X123.057469 Y195.583107 Z-0.249992
G01 X123.017535 Y195.965687 Z-0.249992
G01 X122.831635 Y197.747074 Z-0.249992
G01 X122.787495 Y198.170125 Z-0.249992
G01 X122.201658 Y203.784090 Z-0.249992
G01 X122.011892 Y205.602589 Z-0.249992
G01 X121.988440 Y206.196949 Z-0.249992
G01 X121.821562 Y210.427008 Z-0.249992
G01 X121.742596 Y212.428500 Z-0.249992
G01 X121.772314 Y213.045438 Z-0.249992
G01 X122.043755 Y218.683335 Z-0.249992
G01 X122.141489 Y220.713077 Z-0.249992
G01 X122.197510 Y221.224294 Z-0.249992
G01 X122.406975 Y223.135757 Z-0.249992
G01 X122.538067 Y223.816759 Z-0.249992
G01 X122.804824 Y225.202414 Z-0.249992
G01 X123.201995 Y227.265374 Z-0.249992
G01 X123.254630 Y227.434764 Z-0.249992
G01 X123.723880 Y228.945104 Z-0.249992
G01 X123.727888 Y228.953063 Z-0.249992
G01 X124.377310 Y230.239290 Z-0.249992
G01 X124.673248 Y230.825466 Z-0.249992
G01 X124.932779 Y231.483608 Z-0.249992
G01 X124.932779 Y231.692537 Z-0.249992
G01 X124.932779 Y232.443248 Z-0.249992
G01 X123.263378 Y232.273887 Z-0.249992
G01 X122.061761 Y231.660872 Z-0.249992
G01 X121.062525 Y231.151094 Z-0.249992
G01 X120.211992 Y230.406648 Z-0.249992
G01 X119.920541 Y229.989242 Z-0.249992
G01 X118.825011 Y228.420199 Z-0.249992
G01 X118.257038 Y227.145627 Z-0.249992
G01 X118.220858 Y227.024356 Z-0.249992
G01 X117.786010 Y225.566340 Z-0.249992
G01 X117.553204 Y224.785769 Z-0.249992
G01 X117.250832 Y224.322219 Z-0.249992
G01 X116.911318 Y224.171061 Z-0.249992
G01 X116.522698 Y223.998002 Z-0.249992
G01 X115.650095 Y223.158391 Z-0.249992
G01 X114.974653 Y222.325695 Z-0.249992
G01 X114.334178 Y221.496921 Z-0.225298
G01 X114.162474 Y221.288472 Z-0.204131
G01 X114.011090 Y220.913511 Z-0.052747
G01 X114.162474 Y221.288472 Z-0.204131
G01 X114.553747 Y221.788174 Z-0.238252
G01 X115.757650 Y223.488253 Z-0.249992
G01 X116.631354 Y224.306923 Z-0.249992
G01 X117.199665 Y224.839476 Z-0.249992
G01 X117.596300 Y225.532078 Z-0.249992
G01 X117.599291 Y226.040106 Z-0.249992
G01 X117.604908 Y226.989756 Z-0.249992
G01 X117.904374 Y227.978295 Z-0.249992
G01 X118.086887 Y228.300819 Z-0.249992
G01 X118.965134 Y229.852815 Z-0.249992
G01 X119.697021 Y230.682041 Z-0.249992
G01 X120.580376 Y231.294265 Z-0.249992
G01 X121.061989 Y231.628078 Z-0.249992
G01 X121.415218 Y232.052738 Z-0.249992
G01 X120.556980 Y232.747174 Z-0.249992
G01 X119.716748 Y233.069104 Z-0.249992
G01 X119.636823 Y233.097073 Z-0.249992
G01 X118.228506 Y233.590256 Z-0.249992
G01 X117.634089 Y233.798423 Z-0.249992
G01 X115.699089 Y234.476039 Z-0.249992
G01 X115.617583 Y234.497939 Z-0.249992
G01 X114.254817 Y234.864122 Z-0.249992
G01 X112.812577 Y235.251614 Z-0.249992
G01 X112.453280 Y235.326374 Z-0.249992
G01 X108.308705 Y236.188648 Z-0.249992
G01 X106.568749 Y236.550654 Z-0.249992
G01 X106.276705 Y236.596290 Z-0.249992
G01 X104.882527 Y236.814109 Z-0.249992
G01 X103.197040 Y237.077478 Z-0.249992
G01 X102.496818 Y237.155513 Z-0.249992
G01 X98.289562 Y237.624538 Z-0.249992
G01 X96.187261 Y237.858895 Z-0.249992
G01 X95.770249 Y237.888134 Z-0.249992
G01 X94.362581 Y237.986883 Z-0.249992
G01 X92.537958 Y238.114843 Z-0.249992
G01 X92.385671 Y238.119358 Z-0.249992
G01 X86.743710 Y238.286208 Z-0.249992
G01 X85.181017 Y238.332436 Z-0.249992
G01 X84.733187 Y238.327836 Z-0.249992
G01 X83.322132 Y238.313414 Z-0.249992
G01 X81.462796 Y238.294364 Z-0.249992
G01 X81.047929 Y238.271984 Z-0.249992
G01 X79.638878 Y238.195925 Z-0.249992
G01 X77.820436 Y238.097768 Z-0.249992
G01 X77.217299 Y238.065228 Z-0.249992
G01 X75.215468 Y237.914973 Z-0.207828
G01 X75.215468 Y237.914973 Z-0.207828
G01 X74.739218 Y237.825480 Z-0.106849
G01 X76.037271 Y238.212520 Z-0.249992
G01 X76.633268 Y238.294929 Z-0.249992
G01 X78.031086 Y238.488223 Z-0.249992
G01 X80.048242 Y238.767143 Z-0.249992
G01 X80.394359 Y238.790059 Z-0.249992
G01 X83.210400 Y238.976495 Z-0.249992
G01 X84.973443 Y239.093194 Z-0.249992
G01 X85.066548 Y239.099375 Z-0.249992
G01 X86.474555 Y239.192593 Z-0.249992
G01 X87.967736 Y239.291427 Z-0.249992
G01 X88.103965 Y239.291738 Z-0.249992
G01 X89.515047 Y239.295068 Z-0.249992
G01 X91.063347 Y239.298737 Z-0.249992
G01 X91.361402 Y239.282678 Z-0.249992
G01 X95.588611 Y239.054897 Z-0.249992
G01 X97.295858 Y238.962921 Z-0.249992
G01 X97.454184 Y238.945536 Z-0.249992
G01 X98.856885 Y238.791724 Z-0.249992
G01 X100.418054 Y238.620500 Z-0.249992
G01 X100.679476 Y238.577377 Z-0.249992
G01 X104.856337 Y237.888162 Z-0.249992
G01 X106.509792 Y237.615338 Z-0.249992
G01 X106.610518 Y237.592816 Z-0.249992
G01 X107.987677 Y237.285109 Z-0.249992
G01 X109.464885 Y236.955022 Z-0.249992
G01 X109.537077 Y236.934138 Z-0.249992
G01 X113.603561 Y235.757384 Z-0.249992
G01 X115.030561 Y235.344436 Z-0.249992
G01 X115.665505 Y235.113099 Z-0.249992
G01 X117.624466 Y234.399359 Z-0.249992
G01 X118.143021 Y234.159780 Z-0.249992
G01 X119.952009 Y233.323979 Z-0.249992
G01 X121.196863 Y232.748810 Z-0.249992
G01 X121.858279 Y232.444575 Z-0.249992
G01 X123.045785 Y232.296267 Z-0.249992
G01 X123.566993 Y232.464838 Z-0.249992
G01 X124.495815 Y232.768651 Z-0.249992
G01 X125.528381 Y233.106386 Z-0.249992
G01 X126.061668 Y233.478806 Z-0.249992
G01 X126.061668 Y233.979469 Z-0.249992
G01 X126.061668 Y235.338115 Z-0.249992
G01 X126.045102 Y235.382311 Z-0.249992
G01 X124.061475 Y240.666724 Z-0.249992
G01 X123.534933 Y242.069453 Z-0.249992
G01 X122.820459 Y242.511047 Z-0.249992
G01 X122.040425 Y242.993110 Z-0.249992
G01 X122.103445 Y242.330650 Z-0.249992
G01 X122.193248 Y241.984138 Z-0.249992
G01 X122.632019 Y240.290833 Z-0.249992
G01 X122.874702 Y239.354363 Z-0.249992
G01 X123.006641 Y238.231739 Z-0.249992
G01 X122.933997 Y237.784050 Z-0.249992
G01 X122.818991 Y237.075362 Z-0.249992
G01 X122.969275 Y236.597390 Z-0.249992
G01 X123.447726 Y236.187716 Z-0.249992
G01 X123.762404 Y235.918307 Z-0.249992
G01 X123.785151 Y235.819953 Z-0.249992
G01 X123.662864 Y235.676358 Z-0.249992
G01 X123.497002 Y235.666819 Z-0.249992
G01 X123.111120 Y235.873321 Z-0.249992
G01 X122.757156 Y236.062777 Z-0.249992
G01 X122.685190 Y236.195675 Z-0.249992
G01 X122.757410 Y236.471801 Z-0.249992
G01 X122.850628 Y236.828276 Z-0.249992
G01 X122.786959 Y237.168749 Z-0.249992
G01 X122.472733 Y238.848818 Z-0.249992
G01 X122.379882 Y239.217485 Z-0.249992
G01 X121.944244 Y240.947027 Z-0.249992
G01 X121.908853 Y241.087489 Z-0.249992
G01 X121.564203 Y242.455844 Z-0.249992
G01 X121.187239 Y243.952440 Z-0.249992
G01 X121.064754 Y244.787479 Z-0.249992
G01 X121.274361 Y245.247558 Z-0.249992
G01 X121.485604 Y245.711164 Z-0.249992
G01 X121.432885 Y246.313144 Z-0.249992
G01 X121.321577 Y246.552723 Z-0.249992
G01 X120.627790 Y248.045904 Z-0.249992
G01 X119.880324 Y249.249102 Z-0.249992
G01 X119.669420 Y249.562933 Z-0.249992
G01 X118.673881 Y251.044261 Z-0.249992
G01 X118.293558 Y251.610173 Z-0.249992
G01 X117.506468 Y252.781367 Z-0.249992
G01 X116.332791 Y254.527758 Z-0.249992
G01 X115.980493 Y254.962381 Z-0.249992
G01 X115.091916 Y256.058588 Z-0.249992
G01 X113.851267 Y257.589136 Z-0.249992
G01 X113.812631 Y257.629155 Z-0.249992
G01 X111.852485 Y259.659631 Z-0.249992
G01 X110.841311 Y260.707099 Z-0.249992
G01 X110.608167 Y260.948624 Z-0.249992
G01 X109.397660 Y262.202594 Z-0.249992
G01 X109.282541 Y262.329538 Z-0.249992
G01 X108.281668 Y263.433252 Z-0.249992
G01 X108.281668 Y263.433506 Z-0.249992
G01 X108.281668 Y263.620704 Z-0.249992
G01 X108.130990 Y263.738532 Z-0.249992
G01 X110.354082 Y261.999930 Z-0.249992
G01 X111.705758 Y260.942839 Z-0.249992
G01 X112.149806 Y260.487699 Z-0.249992
G01 X113.135241 Y259.477682 Z-0.249992
G01 X114.576466 Y258.000503 Z-0.249992
G01 X114.859563 Y257.710350 Z-0.249992
G01 X115.844998 Y256.700305 Z-0.249992
G01 X117.099899 Y255.414105 Z-0.249992
G01 X117.396063 Y254.996783 Z-0.249992
G01 X118.212758 Y253.846022 Z-0.249992
G01 X119.327225 Y252.275710 Z-0.249992
G01 X119.570642 Y251.811623 Z-0.249992
G01 X122.192656 Y246.813129 Z-0.249992
G01 X123.092380 Y245.097924 Z-0.249992
G01 X123.102173 Y245.072100 Z-0.249992
G01 X124.103074 Y242.433323 Z-0.249992
G01 X124.613643 Y241.087320 Z-0.249992
G01 X124.640341 Y240.982333 Z-0.249992
G01 X125.335877 Y238.247148 Z-0.249992
G01 X125.713858 Y236.760797 Z-0.249992
G01 X125.724751 Y236.717927 Z-0.249992
G01 X126.084641 Y235.302668 Z-0.249992
G01 X126.478144 Y233.976364 Z-0.249992
G01 X126.610562 Y233.843917 Z-0.249992
G01 X126.756528 Y233.697980 Z-0.249992
G01 X126.921571 Y233.673455 Z-0.249992
G01 X128.405693 Y233.452814 Z-0.249992
G01 X128.620323 Y233.429700 Z-0.249992
G01 X130.232913 Y233.255936 Z-0.249992
G01 X130.599153 Y233.216481 Z-0.249992
G01 X132.363437 Y233.026404 Z-0.249992
G01 X133.672411 Y232.832489 Z-0.249992
G01 X133.936515 Y232.750447 Z-0.249992
G01 X135.530647 Y232.255119 Z-0.249992
G01 X136.060068 Y231.892689 Z-0.249992
G01 X136.672490 Y231.280267 Z-0.249992
G01 X137.331620 Y230.621137 Z-0.249992
G01 X137.922932 Y229.460752 Z-0.249992
G01 X138.017900 Y229.168201 Z-0.249992
G01 X138.453566 Y227.826036 Z-0.249992
G01 X138.986430 Y226.184406 Z-0.249992
G01 X139.061473 Y225.839192 Z-0.249992
G01 X139.437139 Y224.111117 Z-0.249992
G01 X139.462793 Y223.937240 Z-0.249992
G01 X140.286176 Y218.353163 Z-0.249992
G01 X140.517203 Y216.786265 Z-0.249992
G01 X140.535125 Y216.458661 Z-0.249992
G01 X140.766236 Y212.231650 Z-0.249992
G01 X140.861317 Y210.492766 Z-0.249992
G01 X140.848278 Y209.801067 Z-0.249992
G01 X140.768494 Y205.568468 Z-0.249992
G01 X140.728701 Y203.456740 Z-0.249992
G01 X140.716001 Y202.782991 Z-0.249992
G01 X140.636217 Y198.550420 Z-0.249992
G01 X140.597101 Y196.475211 Z-0.249992
G01 X140.597524 Y196.479586 Z-0.249992
G01 X140.465416 Y195.074684 Z-0.249992
G01 X140.336101 Y193.699782 Z-0.249992
G01 X140.259873 Y193.504851 Z-0.249992
G01 X139.656849 Y191.963042 Z-0.249992
G01 X139.431664 Y191.387281 Z-0.249992
G01 X139.447525 Y190.761425 Z-0.249992
G01 X139.697658 Y189.926527 Z-0.249992
G01 X139.987218 Y188.960029 Z-0.249992
G01 X139.963625 Y188.792389 Z-0.249992
G01 X139.959137 Y188.782821 Z-0.249992
G01 X139.338728 Y187.461908 Z-0.249992
G01 X139.243563 Y187.259301 Z-0.249992
G01 X138.537217 Y185.755339 Z-0.249992
G01 X138.465617 Y185.445515 Z-0.249992
G01 X138.077308 Y183.764938 Z-0.249992
G01 X138.070929 Y183.634411 Z-0.249992
G01 X137.864512 Y179.406129 Z-0.249992
G01 X137.789864 Y177.877190 Z-0.249992
G01 X137.813091 Y177.320055 Z-0.249992
G01 X137.871850 Y175.910158 Z-0.249992
G01 X137.953581 Y173.950011 Z-0.249992
G01 X138.007881 Y173.246036 Z-0.249992
G01 X138.225023 Y170.432168 Z-0.249992
G01 X138.387583 Y168.325661 Z-0.249992
G01 X138.410781 Y168.025151 Z-0.249992
G01 X138.519352 Y166.618217 Z-0.249992
G01 X138.650840 Y164.914103 Z-0.249992
G01 X138.667406 Y164.583846 Z-0.249992
G01 X138.738131 Y163.174513 Z-0.249992
G01 X138.824886 Y161.445140 Z-0.249992
G01 X138.775921 Y160.613064 Z-0.249992
G01 X138.732035 Y159.867179 Z-0.249992
G01 X138.715553 Y159.420393 Z-0.249992
G01 X138.995969 Y158.740548 Z-0.249992
G01 X139.305849 Y158.523660 Z-0.249992
G01 X139.787179 Y158.212820 Z-0.249992
G01 X140.328312 Y157.863345 Z-0.249992
G01 X140.990547 Y157.416418 Z-0.249992
G01 X141.260210 Y157.218806 Z-0.249992
G01 X141.603561 Y156.967233 Z-0.249992
G01 X141.851578 Y156.239353 Z-0.249992
G01 X141.849208 Y156.259702 Z-0.249992
G01 X142.011598 Y154.857960 Z-0.249992
G01 X142.173340 Y153.461581 Z-0.249992
G01 X142.179521 Y153.184524 Z-0.249992
G01 X142.217141 Y151.491106 Z-0.249992
G01 X142.201393 Y150.892964 Z-0.249992
G01 X142.148391 Y148.878123 Z-0.249992
G01 X142.140941 Y148.595167 Z-0.249992
G01 X142.066745 Y145.773932 Z-0.249992
G01 X142.019105 Y143.963223 Z-0.249992
G01 X143.119716 Y142.996894 Z-0.249992
G01 X143.642815 Y142.537605 Z-0.249992
G01 X143.829730 Y142.253633 Z-0.249992
G01 X143.821038 Y142.183050 Z-0.249992
G01 X143.802863 Y142.183304 Z-0.249992
G01 X143.286312 Y142.459740 Z-0.249992
G01 X142.765978 Y142.738237 Z-0.249992
G01 X142.249483 Y142.868652 Z-0.249992
G01 X142.005474 Y142.225157 Z-0.249992
G01 X142.173791 Y141.707167 Z-0.249992
G01 X142.501480 Y140.979287 Z-0.249992
G01 X142.878952 Y140.140777 Z-0.249992
G01 X142.984813 Y139.520142 Z-0.249992
G01 X142.874747 Y138.820993 Z-0.249992
G01 X142.736260 Y137.941278 Z-0.249992
G01 X142.851266 Y137.473777 Z-0.249992
G01 X143.382041 Y137.473777 Z-0.249992
G01 X144.164051 Y137.473777 Z-0.249992
G01 X144.242283 Y137.613392 Z-0.249992
G01 X144.970557 Y138.913223 Z-0.249992
G01 X144.970557 Y140.112724 Z-0.249992
G01 X144.970557 Y140.612116 Z-0.249992
G01 X145.005807 Y140.807668 Z-0.249992
G01 X145.064763 Y140.856831 Z-0.249992
G01 X145.079213 Y140.849804 Z-0.249992
G01 X145.334003 Y140.595013 Z-0.249992
G01 X145.753865 Y140.175151 Z-0.249992
G01 X145.766876 Y139.619879 Z-0.249992
G01 X145.733714 Y139.551610 Z-0.249992
G01 X145.074274 Y138.193895 Z-0.249992
G01 X144.369988 Y137.446204 Z-0.249992
G01 X143.349360 Y136.806745 Z-0.249992
G01 X142.468093 Y136.254605 Z-0.249992
G01 X141.655208 Y135.579388 Z-0.249992
G01 X141.651963 Y135.285143 Z-0.249992
G01 X141.648322 Y134.956072 Z-0.249992
G01 X142.284648 Y134.609899 Z-0.249992
G01 X142.899413 Y134.465231 Z-0.249992
G01 X143.522842 Y134.318532 Z-0.249992
G01 X143.970616 Y133.990110 Z-0.249992
G01 X144.250185 Y133.540079 Z-0.249992
G01 X145.291754 Y131.863538 Z-0.249992
G01 X145.403373 Y131.621504 Z-0.249992
G01 X146.110876 Y130.087062 Z-0.249992
G01 X146.190124 Y129.901867 Z-0.249992
G01 X146.745227 Y128.604520 Z-0.249992
G01 X147.380961 Y127.118789 Z-0.249992
G01 X147.629034 Y126.539020 Z-0.249992
G01 X148.184137 Y125.241673 Z-0.249992
G01 X148.985197 Y123.369495 Z-0.249992
G01 X149.222348 Y122.742031 Z-0.249992
G01 X152.215484 Y114.822113 Z-0.249992
G01 X152.937239 Y112.912344 Z-0.249992
G01 X153.100674 Y112.461719 Z-0.086558
G01 X153.078012 Y112.486386 Z-0.109248
G01 X153.078012 Y112.486386 Z-0.109248
G01 X152.976835 Y112.667854 Z-0.210397
G01 X152.393369 Y113.074988 Z-0.249992
G01 X152.199764 Y113.522875 Z-0.249992
G01 X148.840388 Y121.294541 Z-0.249992
G01 X148.058407 Y123.103586 Z-0.249992
G01 X147.854389 Y123.656939 Z-0.249992
G01 X145.901721 Y128.952867 Z-0.249992
G01 X145.207144 Y130.836616 Z-0.249992
G01 X144.736708 Y132.112542 Z-0.249992
G01 X144.194362 Y133.304056 Z-0.249992
G01 X143.977304 Y133.438197 Z-0.249992
G01 X143.580669 Y133.683335 Z-0.249992
G01 X143.413283 Y133.648311 Z-0.249992
G01 X137.888670 Y132.491369 Z-0.249992
G01 X136.402799 Y132.180191 Z-0.249992
G01 X135.579443 Y131.739557 Z-0.249992
G01 X135.057248 Y131.460101 Z-0.249992
G01 X134.942609 Y130.887641 Z-0.239296
G01 X134.928808 Y130.665053 Z-0.249992
G01 X134.906231 Y129.055596 Z-0.249992
G01 X134.902449 Y128.785933 Z-0.249992
G01 X134.862853 Y125.963993 Z-0.249992
G01 X134.839485 Y124.298317 Z-0.249992
G01 X134.810275 Y124.081260 Z-0.249992
G01 X134.245464 Y119.885772 Z-0.249992
G01 X134.027221 Y118.264744 Z-0.249992
G01 X133.911002 Y117.719124 Z-0.249992
G01 X132.735151 Y112.198519 Z-0.249992
G01 X132.324151 Y110.268937 Z-0.249992
G01 X132.178920 Y109.711718 Z-0.249992
G01 X131.678314 Y107.791054 Z-0.249992
G01 X131.664316 Y107.748439 Z-0.249992
G01 X130.784347 Y105.066904 Z-0.249992
G01 X130.331465 Y103.686866 Z-0.249992
G01 X130.263562 Y103.529386 Z-0.249992
G01 X129.642899 Y102.090194 Z-0.249992
G01 X128.980919 Y101.160525 Z-0.249992
G01 X128.516804 Y100.508761 Z-0.249992
G01 X128.383144 Y99.960319 Z-0.249992
G01 X128.531593 Y99.284481 Z-0.249992
G01 X128.637341 Y98.803039 Z-0.249992
G01 X128.847823 Y98.244888 Z-0.249992
G01 X129.093751 Y98.244888 Z-0.249992
G01 X129.207656 Y98.244888 Z-0.249992
G01 X130.476386 Y98.671269 Z-0.249992
G01 X130.526960 Y98.689134 Z-0.249992
G01 X131.906265 Y99.176390 Z-0.249992
G01 X132.539233 Y99.399995 Z-0.249992
G01 X135.717450 Y100.522703 Z-0.249992
G01 X134.182782 Y100.589929 Z-0.249992
G01 X132.525404 Y100.662544 Z-0.249992
G01 X131.492753 Y100.707785 Z-0.249992
G01 X130.769248 Y100.736515 Z-0.159794
G01 X130.760640 Y100.729205 Z-0.151158
G01 X130.769248 Y100.736515 Z-0.159794
G01 X131.326157 Y100.800410 Z-0.249992
G01 X132.122362 Y100.900655 Z-0.249992
G01 X132.349805 Y100.929301 Z-0.249992
G01 X133.749853 Y101.105549 Z-0.249992
G01 X135.384456 Y101.311317 Z-0.249992
G01 X135.885344 Y101.403773 Z-0.249992
G01 X137.273031 Y101.659889 Z-0.249992
G01 X139.161239 Y102.008434 Z-0.249992
G01 X139.473009 Y102.083731 Z-0.249992
G01 X140.844666 Y102.415031 Z-0.249992
G01 X142.521489 Y102.820049 Z-0.249992
G01 X142.589392 Y102.836446 Z-0.249992
G01 X145.332705 Y103.499075 Z-0.249992
G01 X146.781182 Y103.848918 Z-0.249992
G01 X147.076274 Y103.943575 Z-0.249992
G01 X153.794743 Y106.098314 Z-0.249992
G01 X155.512602 Y106.649268 Z-0.249992
G01 X155.820534 Y107.147531 Z-0.249992
G01 X155.986989 Y107.416856 Z-0.249992
G01 X155.746818 Y108.063625 Z-0.249992
G01 X155.397060 Y108.536686 Z-0.249992
G01 X154.802276 Y109.341160 Z-0.249992
G01 X154.752718 Y109.533777 Z-0.249992
G01 X154.836820 Y109.533777 Z-0.249992
G01 X154.960801 Y109.533777 Z-0.249992
G01 X155.386618 Y109.273342 Z-0.249992
G01 X156.590408 Y108.537024 Z-0.249992
G01 X158.259442 Y107.516170 Z-0.249992
G01 X158.719069 Y107.269028 Z-0.121807
G01 X158.568391 Y107.233214 Z-0.249992
G01 X158.563621 Y107.220655 Z-0.249992
G01 X158.430695 Y107.053326 Z-0.249992
G01 X158.252754 Y106.829326 Z-0.249992
G01 X157.947361 Y106.116969 Z-0.249992
G01 X157.749664 Y105.483860 Z-0.249992
G01 X157.418081 Y104.421857 Z-0.249992
G01 X157.009593 Y103.595652 Z-0.249992
G01 X156.929272 Y103.494644 Z-0.249992
G01 X155.974204 Y102.293563 Z-0.249992
G01 X155.383287 Y101.851970 Z-0.249992
G01 X154.648127 Y101.557669 Z-0.249992
G01 X154.372142 Y101.447179 Z-0.249992
G01 X153.062094 Y100.922725 Z-0.249992
G01 X151.489185 Y100.293059 Z-0.249992
G01 X151.308619 Y100.243529 Z-0.249992
G01 X144.504326 Y98.377391 Z-0.249992
G01 X142.956958 Y97.953013 Z-0.249992
G01 X142.776449 Y97.915732 Z-0.249992
G01 X138.630604 Y97.059498 Z-0.249992
G01 X137.060292 Y96.735168 Z-0.249992
G01 X136.695519 Y96.659843 Z-0.249992
G01 X135.313562 Y96.374432 Z-0.249992
G01 X133.583116 Y96.017025 Z-0.249992
G01 X133.501498 Y96.011240 Z-0.249992
G01 X130.686387 Y95.811229 Z-0.249992
G01 X129.448335 Y95.723289 Z-0.249992
G01 X129.448335 Y95.928182 Z-0.249992
G01 X129.448335 Y96.411883 Z-0.249992
G01 X128.648912 Y96.862902 Z-0.249992
G01 X128.084807 Y97.034239 Z-0.249992
G01 X126.186128 Y97.610960 Z-0.249992
G01 X125.977143 Y97.654592 Z-0.249992
G01 X124.391280 Y97.985638 Z-0.249992
G01 X123.952932 Y98.053231 Z-0.249992
G01 X122.126503 Y98.334888 Z-0.249992
G01 X121.558192 Y98.422547 Z-0.249992
G01 X119.597481 Y98.724891 Z-0.249992
G01 X119.192266 Y98.772954 Z-0.228431
G01 X117.381811 Y98.929277 Z-0.074535
G01 X117.220323 Y98.965627 Z-0.038410
G01 X117.381811 Y98.929277 Z-0.074535
G01 X117.473928 Y98.921318 Z-0.082381
G01 X119.307187 Y98.763019 Z-0.238196
G01 X119.353359 Y98.758447 Z-0.241554
G01 X120.763736 Y98.712784 Z-0.249992
G01 X122.223587 Y98.674232 Z-0.249992
G01 X122.761898 Y98.660037 Z-0.249992
G01 X125.583132 Y98.585558 Z-0.249992
G01 X127.810853 Y98.526771 Z-0.249992
G01 X127.700448 Y99.859537 Z-0.249992
G01 X127.595518 Y101.126207 Z-0.249992
G01 X126.887563 Y101.182313 Z-0.249992
G01 X124.984765 Y101.333048 Z-0.249992
G01 X123.664388 Y101.437668 Z-0.249992
G01 X123.483427 Y101.450565 Z-0.249992
G01 X122.075872 Y101.550782 Z-0.249992
G01 X120.481937 Y101.578073 Z-0.164028
G01 X119.910748 Y101.702561 Z-0.249992
G01 X117.926189 Y101.835657 Z-0.249992
G01 X117.763827 Y101.846551 Z-0.249992
G01 X114.947926 Y102.035414 Z-0.249992
G01 X113.381932 Y102.140429 Z-0.249992
G01 X112.840432 Y102.195575 Z-0.249992
G01 X103.013454 Y103.196166 Z-0.249992
G01 X101.076281 Y103.393411 Z-0.249992
G01 X101.007785 Y103.407409 Z-0.249992
G01 X99.544463 Y103.706198 Z-0.249992
G01 X98.821099 Y103.853913 Z-0.249992
G01 X98.468350 Y103.673432 Z-0.249992
G01 X98.468350 Y103.064143 Z-0.249992
G01 X98.468350 Y102.707329 Z-0.249992
G01 X98.728926 Y102.098209 Z-0.249992
G01 X99.027912 Y101.728949 Z-0.249992
G01 X99.503964 Y101.141080 Z-0.249992
G01 X100.353905 Y100.913017 Z-0.249992
G01 X100.802723 Y100.842969 Z-0.249992
G01 X102.196957 Y100.625347 Z-0.249992
G01 X104.026745 Y100.339739 Z-0.249992
G01 X104.522920 Y100.262297 Z-0.249992
G01 X106.409208 Y99.967883 Z-0.249992
G01 X106.726200 Y99.909829 Z-0.247763
G01 X108.427013 Y99.734061 Z-0.102503
G01 X108.527851 Y99.689640 Z-0.058589
G01 X108.427013 Y99.734061 Z-0.102503
G01 X108.611896 Y99.688511 Z-0.057912
G01 X107.156420 Y99.857110 Z-0.219117
G01 X106.897255 Y99.888889 Z-0.236361
G01 X105.223395 Y99.996048 Z-0.249992
G01 X104.569317 Y100.032596 Z-0.249992
G01 X102.493968 Y100.148561 Z-0.249992
G01 X101.183864 Y100.092371 Z-0.249992
G01 X101.833285 Y99.433721 Z-0.249992
G01 X102.302508 Y98.957866 Z-0.249992
G01 X102.828514 Y98.833744 Z-0.249992
G01 X104.667022 Y98.399941 Z-0.249992
G01 X105.160657 Y98.322188 Z-0.249992
G01 X109.342457 Y97.663651 Z-0.249992
G01 X111.225810 Y97.367035 Z-0.249992
G01 X111.257758 Y97.363367 Z-0.249992
G01 X114.061382 Y97.039883 Z-0.249992
G01 X115.494958 Y96.874501 Z-0.249992
G01 X115.572371 Y96.868659 Z-0.249992
G01 X118.386635 Y96.656654 Z-0.249992
G01 X119.866241 Y96.545176 Z-0.249992
G01 X120.396029 Y96.505270 Z-0.249992
G01 X126.024528 Y96.081259 Z-0.249992
G01 X127.957101 Y95.935661 Z-0.249992
G01 X128.525017 Y95.873007 Z-0.249992
G01 X128.525017 Y95.813769 Z-0.249992
G01 X128.525017 Y95.652874 Z-0.249992
G01 X128.463041 Y95.652959 Z-0.249992
G01 X127.051930 Y95.654567 Z-0.249992
G01 X125.336752 Y95.656515 Z-0.249992
G01 X125.022695 Y95.677456 Z-0.249992
G00 Z5.000000

G00 Z5.000000
G00 X128.043884 Y101.590322

G01 Z-0.249992 F100.0(Penetrate)
G01 X129.159170 Y102.782654 Z-0.249992 F400.000000
G01 X129.782260 Y103.448755 Z-0.249992
G01 X130.132921 Y103.835992 Z-0.249992
G01 X130.570930 Y104.967054 Z-0.249992
G01 X130.667055 Y105.706194 Z-0.249992
G01 X130.836699 Y107.085696 Z-0.249992
G01 X130.903219 Y107.626632 Z-0.249992
G01 X131.247671 Y110.427744 Z-0.249992
G01 X131.485782 Y112.364324 Z-0.249992
G01 X131.496901 Y112.432312 Z-0.249992
G01 X132.634088 Y119.395609 Z-0.249992
G01 X132.872565 Y120.855855 Z-0.249992
G01 X132.940920 Y121.185152 Z-0.249992
G01 X133.514565 Y123.948446 Z-0.249992
G01 X133.870842 Y125.664639 Z-0.249992
G01 X133.943429 Y126.014426 Z-0.249992
G01 X134.230252 Y127.396073 Z-0.249992
G01 X134.589436 Y129.126208 Z-0.249992
G01 X134.610941 Y129.224675 Z-0.249992
G01 X134.933493 Y130.718449 Z-0.246070
G01 X134.936118 Y130.767358 Z-0.244122
G01 X135.119986 Y132.658755 Z-0.249992
G01 X134.591525 Y132.388612 Z-0.249992
G01 X134.298296 Y132.461567 Z-0.249992
G01 X133.917126 Y132.556421 Z-0.249992
G01 X133.036565 Y132.660392 Z-0.249992
G01 X132.347209 Y132.693299 Z-0.249992
G01 X130.921817 Y132.761343 Z-0.249992
G01 X130.703998 Y132.122251 Z-0.249992
G01 X130.091632 Y130.325539 Z-0.249992
G01 X129.671686 Y129.093414 Z-0.249992
G01 X129.632175 Y129.002482 Z-0.249992
G01 X129.033835 Y127.625830 Z-0.249992
G01 X128.673494 Y127.057096 Z-0.249992
G01 X128.319192 Y126.497985 Z-0.249992
G01 X128.162587 Y126.293007 Z-0.249992
G01 X127.370982 Y126.156214 Z-0.249992
G01 X126.708183 Y126.278134 Z-0.249992
G01 X125.377505 Y126.553301 Z-0.249992
G01 X124.656851 Y126.702342 Z-0.249992
G01 X124.407733 Y126.797959 Z-0.249992
G01 X124.201937 Y127.605143 Z-0.249992
G01 X124.330715 Y128.382693 Z-0.249992
G01 X124.344205 Y128.448254 Z-0.249992
G01 X124.643050 Y129.900710 Z-0.249992
G01 X124.656399 Y129.965509 Z-0.249992
G01 X124.955611 Y131.419771 Z-0.249992
G01 X125.162508 Y132.853658 Z-0.249992
G01 X125.039403 Y133.052850 Z-0.249992
G01 X124.751311 Y133.518997 Z-0.249992
G01 X124.204279 Y133.574284 Z-0.249992
G01 X122.329562 Y133.763740 Z-0.249992
G01 X121.383835 Y133.503700 Z-0.249992
G01 X120.971141 Y133.390219 Z-0.249992
G01 X120.650593 Y133.268920 Z-0.249992
G01 X120.286752 Y132.445762 Z-0.249992
G01 X120.184898 Y131.794591 Z-0.249992
G01 X120.013674 Y130.608439 Z-0.249992
G01 X119.819392 Y129.262719 Z-0.249992
G01 X119.716776 Y128.769931 Z-0.249992
G01 X119.326181 Y126.894507 Z-0.249992
G01 X119.302305 Y126.803971 Z-0.249992
G01 X118.916846 Y125.342624 Z-0.249992
G01 X118.903102 Y125.290469 Z-0.249992
G01 X118.543212 Y123.926038 Z-0.249992
G01 X118.134215 Y122.375480 Z-0.249992
G01 X118.874033 Y121.587996 Z-0.249992
G01 X119.385306 Y121.220373 Z-0.129060
G01 X119.385306 Y121.220373 Z-0.129060
G01 X119.038314 Y121.383074 Z-0.249992
G01 X118.420191 Y121.652342 Z-0.249992
G01 X117.417060 Y122.187012 Z-0.249992
G01 X117.350682 Y122.222375 Z-0.249992
G01 X116.060362 Y122.910094 Z-0.249992
G01 X115.187956 Y123.619403 Z-0.249992
G01 X115.069367 Y123.813092 Z-0.249992
G01 X114.221120 Y125.198211 Z-0.249992
G01 X114.137243 Y126.008132 Z-0.249992
G01 X114.407132 Y127.019306 Z-0.249992
G01 X114.674566 Y128.021251 Z-0.249992
G01 X114.622101 Y128.382468 Z-0.249992
G01 X114.104167 Y128.900402 Z-0.249992
G01 X113.653740 Y129.350829 Z-0.249992
G01 X113.191545 Y129.585271 Z-0.249992
G01 X112.428670 Y129.209238 Z-0.249992
G01 X112.111650 Y128.682498 Z-0.249992
G01 X111.773124 Y127.871758 Z-0.249992
G01 X111.368022 Y126.580253 Z-0.126210
G01 X111.368022 Y126.580253 Z-0.126210
G01 X111.316291 Y126.922927 Z-0.249992
G01 X110.959618 Y127.553017 Z-0.249992
G01 X111.074144 Y128.047131 Z-0.249992
G01 X111.513988 Y129.945189 Z-0.249992
G01 X112.224877 Y130.701911 Z-0.249992
G01 X112.601616 Y131.102921 Z-0.249992
G01 X112.912709 Y131.254869 Z-0.249992
G01 X113.648237 Y131.200457 Z-0.249992
G01 X114.016791 Y130.982299 Z-0.249992
G01 X114.472128 Y130.507008 Z-0.249992
G01 X114.861058 Y130.101060 Z-0.249992
G01 X115.011229 Y129.934521 Z-0.249992
G01 X115.147260 Y129.243866 Z-0.249992
G01 X115.106846 Y128.707588 Z-0.249992
G01 X115.014390 Y127.599103 Z-0.249992
G01 X114.978519 Y127.168856 Z-0.249992
G01 X114.816242 Y125.223075 Z-0.249992
G01 X114.900880 Y125.131070 Z-0.249992
G01 X115.866588 Y124.081232 Z-0.249992
G01 X116.540817 Y123.348244 Z-0.249992
G01 X117.157472 Y122.966623 Z-0.249992
G01 X117.485866 Y123.294678 Z-0.249992
G01 X117.683986 Y123.492601 Z-0.249992
G01 X117.813554 Y123.894542 Z-0.249992
G01 X118.359146 Y125.587000 Z-0.249992
G01 X118.494726 Y126.076261 Z-0.249992
G01 X119.005774 Y127.920357 Z-0.249992
G01 X119.119510 Y128.330765 Z-0.249992
G01 X119.496333 Y129.690624 Z-0.249992
G01 X119.990250 Y131.472942 Z-0.249992
G01 X120.163365 Y132.477710 Z-0.249992
G01 X120.023100 Y133.871718 Z-0.249992
G01 X119.928528 Y134.811575 Z-0.249992
G01 X119.693183 Y135.694140 Z-0.249992
G01 X119.637472 Y135.817471 Z-0.249992
G01 X118.999932 Y137.228667 Z-0.249992
G01 X118.523118 Y137.918474 Z-0.249992
G01 X118.464613 Y137.976189 Z-0.249992
G01 X117.401200 Y139.025830 Z-0.249992
G01 X116.722653 Y139.475043 Z-0.249992
G01 X116.642248 Y139.507555 Z-0.249992
G01 X115.254787 Y140.068838 Z-0.249992
G01 X114.422457 Y140.231568 Z-0.249992
G01 X113.558857 Y140.231568 Z-0.249992
G01 X112.185394 Y140.231568 Z-0.249992
G01 X111.733867 Y140.078434 Z-0.249992
G01 X110.858188 Y139.309604 Z-0.249992
G01 X110.382530 Y138.891943 Z-0.249992
G01 X109.993233 Y138.497397 Z-0.249992
G01 X109.412758 Y137.479986 Z-0.249992
G01 X109.207555 Y136.834487 Z-0.249992
G01 X109.111430 Y136.186081 Z-0.249992
G01 X108.808718 Y134.144458 Z-0.249992
G01 X108.808295 Y134.087533 Z-0.249992
G01 X108.797486 Y132.676451 Z-0.249992
G01 X108.786366 Y131.224445 Z-0.249992
G01 X108.788680 Y130.662851 Z-0.249992
G01 X108.800336 Y127.840657 Z-0.249992
G01 X108.808464 Y125.869420 Z-0.249992
G01 X108.810440 Y125.386086 Z-0.249992
G01 X108.822096 Y122.563892 Z-0.249992
G01 X108.829913 Y120.667697 Z-0.249992
G01 X108.842726 Y119.965811 Z-0.249992
G01 X108.894288 Y117.144040 Z-0.249992
G01 X108.932952 Y115.027599 Z-0.249992
G01 X108.941842 Y114.884033 Z-0.249992
G01 X109.037600 Y113.337483 Z-0.249992
G01 X109.070141 Y112.812126 Z-0.249992
G01 X109.188928 Y110.893693 Z-0.249992
G01 X109.174337 Y110.654199 Z-0.249992
G01 X109.183848 Y110.640144 Z-0.239663
G01 X108.951438 Y110.728480 Z-0.249992
G01 X108.790261 Y111.177157 Z-0.249992
G01 X108.756592 Y111.647762 Z-0.249992
G01 X108.655838 Y113.055261 Z-0.249992
G01 X108.519412 Y114.961079 Z-0.249992
G01 X108.515743 Y115.158381 Z-0.249992
G01 X108.489553 Y116.569238 Z-0.249992
G01 X108.459609 Y118.182702 Z-0.249992
G01 X108.455037 Y118.757533 Z-0.249992
G01 X108.432488 Y121.579670 Z-0.249992
G01 X108.416599 Y123.566882 Z-0.249992
G01 X108.415385 Y123.719648 Z-0.249992
G01 X108.381575 Y127.952841 Z-0.249992
G01 X108.369072 Y129.517763 Z-0.249992
G01 X108.363372 Y129.858038 Z-0.249992
G01 X108.316269 Y132.679865 Z-0.249992
G01 X108.285337 Y134.531074 Z-0.249992
G01 X108.161159 Y134.655280 Z-0.249992
G01 X107.893810 Y134.922601 Z-0.249992
G01 X107.353834 Y134.821622 Z-0.249992
G01 X104.579675 Y134.302897 Z-0.249992
G01 X102.756604 Y133.962001 Z-0.249992
G01 X101.820557 Y133.574820 Z-0.249992
G01 X101.192077 Y133.314865 Z-0.249992
G01 X100.752685 Y132.857722 Z-0.249992
G01 X100.680803 Y132.351274 Z-0.249992
G01 X100.618488 Y131.912052 Z-0.249992
G01 X100.510397 Y131.854535 Z-0.249992
G01 X100.505232 Y131.853632 Z-0.249992
G01 X99.072136 Y131.598023 Z-0.249992
G01 X97.805495 Y131.372104 Z-0.249992
G01 X97.103241 Y131.240081 Z-0.249992
G01 X96.239585 Y130.588204 Z-0.249992
G01 X96.118201 Y130.056243 Z-0.249992
G01 X95.938143 Y129.188833 Z-0.249992
G01 X95.752864 Y128.296446 Z-0.249992
G01 X95.683099 Y127.698220 Z-0.249992
G01 X95.930551 Y126.900801 Z-0.249992
G01 X96.345869 Y126.749332 Z-0.249992
G01 X96.846616 Y126.749332 Z-0.249992
G01 X97.359245 Y126.749332 Z-0.249992
G01 X97.648946 Y126.634468 Z-0.249992
G01 X98.207266 Y125.892985 Z-0.249992
G01 X98.415123 Y125.273959 Z-0.249992
G01 X98.624729 Y124.262023 Z-0.249992
G01 X98.851015 Y123.169569 Z-0.249992
G01 X98.990884 Y122.677797 Z-0.249992
G01 X99.376993 Y121.320534 Z-0.249992
G01 X99.901249 Y119.477566 Z-0.249992
G01 X100.013065 Y119.115616 Z-0.249992
G01 X100.429653 Y117.767412 Z-0.249992
G01 X100.957268 Y116.059968 Z-0.249992
G01 X101.083336 Y115.651959 Z-0.249992
G01 X102.333129 Y111.607320 Z-0.249992
G01 X102.905956 Y109.753515 Z-0.249992
G01 X103.216287 Y109.585790 Z-0.249992
G01 X104.678198 Y108.795681 Z-0.249992
G01 X105.607867 Y108.293212 Z-0.249992
G01 X106.500902 Y107.855175 Z-0.249992
G01 X106.656520 Y107.848600 Z-0.249992
G01 X107.073080 Y107.830989 Z-0.249992
G01 X107.665972 Y108.240550 Z-0.249992
G01 X109.987956 Y109.844701 Z-0.249992
G01 X111.689276 Y111.020044 Z-0.249992
G01 X112.618972 Y111.910172 Z-0.249992
G01 X113.119945 Y112.389809 Z-0.249992
G01 X113.776083 Y113.235686 Z-0.249992
G01 X114.070836 Y113.782999 Z-0.249992
G01 X114.676796 Y114.908191 Z-0.249992
G01 X114.450538 Y115.135803 Z-0.249992
G01 X113.455676 Y116.136535 Z-0.249992
G01 X112.365283 Y117.233335 Z-0.249992
G01 X112.250842 Y117.348482 Z-0.249992
G01 X111.145038 Y118.460804 Z-0.249992
G01 X110.550424 Y119.108815 Z-0.249992
G01 X110.561967 Y119.071590 Z-0.249992
G01 X110.161550 Y120.362643 Z-0.249992
G01 X110.344684 Y120.968518 Z-0.249992
G01 X110.805243 Y122.180267 Z-0.249992
G01 X111.122602 Y123.015250 Z-0.249992
G01 X111.390685 Y124.298345 Z-0.249992
G01 X111.397119 Y125.021540 Z-0.249992
G01 X111.403018 Y125.682589 Z-0.249992
G01 X111.158416 Y126.293769 Z0.000000
G01 X111.403018 Y125.682589 Z-0.249992
G01 X111.342904 Y125.832759 Z-0.188581
G01 X112.281322 Y124.777107 Z-0.249992
G01 X113.263822 Y123.764211 Z-0.249992
G01 X114.566164 Y122.421624 Z-0.249992
G01 X114.904549 Y122.072769 Z-0.249992
G01 X116.226450 Y120.709974 Z-0.249992
G01 X117.161988 Y119.767691 Z-0.249992
G01 X117.302309 Y119.655479 Z-0.249992
G01 X118.565931 Y118.644954 Z-0.249992
G01 X119.054175 Y118.469384 Z-0.249992
G01 X119.750163 Y118.304199 Z-0.249992
G01 X119.985311 Y118.248376 Z-0.249992
G01 X121.618164 Y117.860800 Z-0.249992
G01 X121.797036 Y117.855381 Z-0.249992
G01 X123.207498 Y117.812681 Z-0.249992
G01 X124.934247 Y117.760442 Z-0.249992
G01 X125.184324 Y118.283766 Z-0.249992
G01 X125.351823 Y118.634314 Z-0.249992
G01 X124.578873 Y119.151007 Z-0.249992
G01 X123.782272 Y119.472373 Z-0.249992
G01 X122.730684 Y119.896582 Z-0.249992
G01 X122.235271 Y120.106188 Z-0.249992
G01 X122.020585 Y120.320705 Z-0.245759
G01 X122.020585 Y120.320705 Z-0.245759
G01 X122.338677 Y120.632786 Z-0.249992
G01 X122.675848 Y120.969957 Z-0.249992
G01 X123.040705 Y121.677009 Z-0.249992
G01 X123.142446 Y122.185601 Z-0.249992
G01 X123.243877 Y122.692811 Z-0.249992
G01 X123.304668 Y122.855653 Z-0.249992
G01 X123.746656 Y123.033340 Z-0.249992
G01 X124.173235 Y122.995494 Z-0.249992
G01 X125.045894 Y122.865785 Z-0.249992
G01 X125.869419 Y122.743414 Z-0.249992
G01 X126.319309 Y122.536178 Z-0.249992
G01 X126.407447 Y122.417786 Z-0.238958
G01 X126.407447 Y122.417786 Z-0.238958
G01 X125.654083 Y122.495397 Z-0.249992
G01 X124.837134 Y122.567561 Z-0.249992
G01 X124.244129 Y122.314295 Z-0.249992
G01 X124.160902 Y121.389029 Z-0.213050
G01 X124.494940 Y120.743756 Z-0.249992
G01 X125.197165 Y120.063149 Z-0.249992
G01 X126.452998 Y118.845925 Z-0.249992
G01 X127.023905 Y120.212332 Z-0.249992
G01 X127.266814 Y120.793625 Z-0.249992
G01 X127.472779 Y121.572953 Z-0.249992
G01 X127.472779 Y121.933774 Z-0.249992
G01 X127.443795 Y122.214981 Z-0.221008
G01 X127.443795 Y122.214981 Z-0.221008
G01 X127.612508 Y122.135817 Z-0.249992
G01 X127.719526 Y122.001254 Z-0.249992
G01 X127.768887 Y121.666849 Z-0.249992
G01 X127.863347 Y121.026853 Z-0.249992
G01 X127.838568 Y120.938631 Z-0.249992
G01 X126.311153 Y115.504780 Z-0.249992
G01 X125.894565 Y114.022832 Z-0.249992
G01 X125.754780 Y113.698925 Z-0.249992
G01 X125.049281 Y112.064068 Z-0.249992
G01 X124.738187 Y111.343188 Z-0.249992
G01 X124.352982 Y110.753936 Z-0.249992
G01 X124.208823 Y110.698621 Z-0.249992
G01 X123.749930 Y110.522542 Z-0.249992
G01 X123.525168 Y110.563549 Z-0.249992
G01 X122.137001 Y110.816872 Z-0.249992
G01 X120.519304 Y111.112076 Z-0.249992
G01 X120.109545 Y111.451307 Z-0.249992
G01 X119.946957 Y111.585899 Z-0.249992
G01 X119.907530 Y111.882007 Z-0.249992
G01 X120.024032 Y112.503065 Z-0.249992
G01 X120.179000 Y113.328988 Z-0.249992
G01 X120.075509 Y113.771767 Z-0.249992
G01 X119.607359 Y114.114074 Z-0.249992
G01 X119.039754 Y114.270086 Z-0.040894
G01 X119.039754 Y114.270086 Z-0.040894
G01 X119.809345 Y114.338977 Z-0.249992
G01 X120.208266 Y114.490643 Z-0.249992
G01 X120.912608 Y114.614285 Z-0.249992
G01 X121.385359 Y114.614821 Z-0.249992
G01 X122.393400 Y114.616034 Z-0.249992
G01 X122.712452 Y114.780147 Z-0.249992
G01 X124.368335 Y115.631865 Z-0.249992
G01 X124.368335 Y116.270732 Z-0.249992
G01 X124.368335 Y116.295539 Z-0.249992
G01 X124.385466 Y116.307110 Z-0.249992
G01 X124.541676 Y116.307110 Z-0.249992
G01 X124.698817 Y116.307110 Z-0.249992
G01 X124.715017 Y116.296301 Z-0.249992
G01 X124.715017 Y116.274880 Z-0.249992
G01 X124.715017 Y115.510368 Z-0.249992
G01 X125.716087 Y115.735074 Z-0.249992
G01 X125.953944 Y116.354918 Z-0.249992
G01 X126.106683 Y116.752908 Z-0.249992
G01 X125.939918 Y117.164558 Z-0.249992
G01 X125.232471 Y117.550384 Z-0.249992
G01 X124.674574 Y117.646791 Z-0.249992
G01 X123.970486 Y117.649444 Z-0.249992
G01 X123.009435 Y117.653112 Z-0.249992
G01 X122.534596 Y117.442829 Z-0.249992
G01 X121.916473 Y116.738374 Z-0.249992
G01 X121.289686 Y116.024098 Z-0.249992
G01 X121.375820 Y115.743230 Z0.000000
G01 X121.289686 Y116.024098 Z-0.249992
G01 X121.298886 Y115.994069 Z-0.223294
G01 X119.806946 Y116.411278 Z-0.249992
G01 X119.411892 Y116.514459 Z-0.249992
G01 X117.674673 Y116.968103 Z-0.249992
G01 X117.569432 Y117.018479 Z-0.249992
G01 X116.296554 Y117.627571 Z-0.249992
G01 X114.939093 Y118.277190 Z-0.249992
G01 X114.171392 Y119.094365 Z-0.249992
G01 X113.830693 Y119.457020 Z-0.249992
G01 X113.523015 Y120.188569 Z-0.249992
G01 X113.433776 Y120.865930 Z-0.249992
G01 X113.269099 Y122.115384 Z-0.249992
G01 X113.247848 Y122.159524 Z-0.249992
G01 X112.563516 Y123.580456 Z-0.249992
G01 X111.983238 Y123.580456 Z-0.249992
G01 X111.327213 Y123.580456 Z-0.249992
G01 X111.311070 Y123.284377 Z-0.249992
G01 X111.228915 Y121.776915 Z-0.249992
G01 X111.585164 Y120.403537 Z-0.249992
G01 X111.826351 Y119.473784 Z-0.249992
G01 X112.248302 Y118.565791 Z-0.249992
G01 X112.394323 Y118.354040 Z-0.249992
G01 X113.341489 Y116.980520 Z-0.249992
G01 X114.038098 Y116.266696 Z-0.249992
G01 X114.816806 Y115.717802 Z-0.249992
G01 X115.490104 Y115.243217 Z-0.249992
G01 X115.835120 Y114.947279 Z-0.249992
G01 X116.050174 Y114.737616 Z-0.156069
G01 X116.050174 Y114.737616 Z-0.156069
G01 X115.658929 Y114.831568 Z-0.249992
G01 X115.218295 Y114.831568 Z-0.249992
G01 X114.722600 Y114.387068 Z-0.249992
G01 X114.413087 Y113.777524 Z-0.249992
G01 X114.392316 Y113.736574 Z-0.249992
G01 X113.747240 Y112.466150 Z-0.249992
G01 X113.646910 Y112.353233 Z-0.249992
G01 X112.602942 Y111.178088 Z-0.249992
G01 X112.083907 Y110.771152 Z-0.249992
G01 X110.973447 Y109.900468 Z-0.249992
G01 X109.339014 Y108.619010 Z-0.249992
G01 X108.902896 Y108.360268 Z-0.249992
G01 X107.249807 Y107.379603 Z-0.249992
G01 X106.626886 Y107.088490 Z-0.249992
G01 X104.714407 Y106.194806 Z-0.249992
G01 X104.606937 Y106.144570 Z-0.249992
G01 X103.211828 Y105.492637 Z-0.249992
G01 X101.855017 Y104.718642 Z-0.249992
G01 X101.855017 Y104.419402 Z-0.249992
G01 X101.855017 Y104.169917 Z-0.249992
G01 X102.105799 Y103.889332 Z-0.249992
G01 X102.355312 Y103.889332 Z-0.249992
G01 X102.476526 Y103.889332 Z-0.249992
G01 X102.950406 Y103.826622 Z-0.249992
G01 X104.349297 Y103.641456 Z-0.249992
G01 X106.237928 Y103.391520 Z-0.249992
G01 X106.380309 Y103.372075 Z-0.249992
G01 X109.176623 Y102.990624 Z-0.249992
G01 X110.717641 Y102.780396 Z-0.249992
G01 X110.769372 Y102.773341 Z-0.249992
G01 X116.362029 Y102.010409 Z-0.249992
G01 X117.762021 Y101.833089 Z-0.236446
G01 X119.166725 Y101.690341 Z-0.188016
G01 X120.454900 Y101.701066 Z-0.003302
G01 X120.454900 Y101.701066 Z-0.003302
G01 X120.992280 Y101.537123 Z-0.159427
G01 X122.402657 Y101.476755 Z-0.199390
G01 X124.428900 Y101.396802 Z-0.249992
G01 X124.656681 Y101.393500 Z-0.249992
G01 X126.067623 Y101.373067 Z-0.249992
G01 X127.817006 Y101.347752 Z-0.249992
G01 X128.043884 Y101.590322 Z-0.249992
G00 Z5.000000

G00 Z5.000000
G00 X134.514167 Y97.028199

G01 Z-0.249992 F100.0(Penetrate)
G01 X135.894940 Y97.319227 Z-0.249992 F400.000000
G01 X137.774596 Y97.715411 Z-0.249992
G01 X138.273480 Y97.820567 Z-0.249992
G01 X139.654253 Y98.111622 Z-0.249992
G01 X141.536393 Y98.508342 Z-0.249992
G01 X141.788925 Y98.566903 Z-0.249992
G01 X144.538136 Y99.204669 Z-0.249992
G01 X146.167659 Y99.582649 Z-0.249992
G01 X146.438056 Y99.656761 Z-0.249992
G01 X148.064644 Y100.102559 Z-0.249992
G01 X148.465202 Y100.212343 Z-0.249992
G01 X149.826134 Y100.585328 Z-0.249992
G01 X151.602356 Y101.072133 Z-0.249992
G01 X151.683552 Y101.105464 Z-0.249992
G01 X154.294530 Y102.176779 Z-0.249992
G01 X156.252842 Y102.980294 Z-0.249992
G01 X155.053341 Y103.435632 Z-0.249992
G01 X154.795983 Y103.533337 Z-0.249992
G01 X154.563037 Y103.479997 Z-0.249992
G01 X151.811963 Y102.850331 Z-0.249992
G01 X150.274726 Y102.498485 Z-0.249992
G01 X149.702380 Y102.355087 Z-0.249992
G01 X146.964768 Y101.669231 Z-0.249992
G01 X145.026099 Y101.183527 Z-0.249992
G01 X144.487224 Y101.048511 Z-0.249992
G01 X137.643165 Y99.333870 Z-0.249992
G01 X135.740282 Y98.857141 Z-0.249992
G01 X135.169459 Y98.737930 Z-0.249992
G01 X132.406842 Y98.160955 Z-0.249992
G01 X130.547534 Y97.772645 Z-0.249992
G01 X130.164051 Y98.009655 Z-0.249992
G01 X129.940531 Y98.147803 Z-0.249992
G01 X129.565034 Y98.032092 Z-0.249992
G01 X129.425927 Y97.807020 Z-0.249992
G01 X129.152735 Y97.365003 Z-0.249992
G01 X130.090052 Y96.269332 Z-0.249992
G01 X130.627713 Y96.269332 Z-0.249992
G01 X130.795946 Y96.269332 Z-0.249992
G01 X131.034113 Y96.317705 Z-0.249992
G01 X132.417002 Y96.598488 Z-0.249992
G01 X134.014352 Y96.922846 Z-0.249992
G01 X134.514167 Y97.028199 Z-0.249992
G00 Z5.000000

G00 Z5.000000
G00 X145.535877 Y102.155077

G01 Z-0.249992 F100.0(Penetrate)
G01 X148.304731 Y102.701346 Z-0.249992 F400.000000
G01 X150.131188 Y103.061715 Z-0.249992
G01 X150.739264 Y103.181688 Z-0.249992
G01 X152.734773 Y103.575388 Z-0.249992
G01 X152.839477 Y103.598728 Z-0.249992
G01 X154.331925 Y103.931383 Z-0.249992
G01 X154.622501 Y104.030641 Z-0.249992
G01 X156.286991 Y104.599177 Z-0.249992
G01 X156.698979 Y104.989434 Z-0.249992
G01 X156.770268 Y105.470115 Z-0.249992
G01 X156.823891 Y105.831614 Z-0.249992
G01 X156.786186 Y106.364901 Z-0.249992
G01 X156.479975 Y106.364901 Z-0.249992
G01 X156.045127 Y106.364901 Z-0.249992
G01 X155.524794 Y106.212698 Z-0.249992
G01 X146.044272 Y103.439555 Z-0.249992
G01 X144.172828 Y102.892128 Z-0.249992
G01 X143.768996 Y102.648655 Z-0.249992
G01 X142.105861 Y101.646004 Z-0.249992
G01 X143.501337 Y101.842854 Z-0.249992
G01 X145.087143 Y102.066543 Z-0.249992
G01 X145.535877 Y102.155077 Z-0.249992
G00 Z5.000000

G00 Z5.000000
G00 X138.590331 Y116.394825

G01 Z-0.249992 F100.0(Penetrate)
G01 X138.524489 Y116.501335 Z-0.249992 F400.000000
G01 X138.384873 Y117.364512 Z-0.249992
G01 X138.295635 Y118.332450 Z-0.249992
G01 X138.190959 Y119.467688 Z-0.249992
G01 X138.252991 Y120.451600 Z-0.249992
G01 X138.272916 Y120.527687 Z-0.249992
G01 X138.646663 Y121.953784 Z-0.249992
G01 X138.925781 Y122.387729 Z-0.249992
G01 X139.303140 Y122.531211 Z-0.249992
G01 X139.713943 Y122.687392 Z-0.249992
G01 X140.224878 Y123.119983 Z-0.249992
G01 X140.416648 Y123.478264 Z-0.249992
G01 X140.762878 Y124.125258 Z-0.249992
G01 X140.742304 Y124.114280 Z-0.249992
G01 X141.978550 Y124.773777 Z-0.249992
G01 X142.872122 Y124.773777 Z-0.249992
G01 X143.256086 Y124.773777 Z-0.249992
G01 X143.334092 Y124.710587 Z-0.249992
G01 X143.336858 Y124.444169 Z-0.249992
G01 X143.203818 Y124.283133 Z-0.249992
G01 X142.794934 Y124.127685 Z-0.249992
G01 X142.122088 Y123.871851 Z-0.249992
G01 X141.277567 Y122.777873 Z-0.249992
G01 X141.231649 Y122.692106 Z-0.249992
G01 X140.565605 Y121.448098 Z-0.249992
G01 X139.856070 Y120.122896 Z-0.249992
G01 X139.795872 Y119.966319 Z-0.249992
G01 X139.226686 Y118.485922 Z-0.249992
G01 X139.222227 Y118.462159 Z-0.249992
G01 X138.961764 Y117.073851 Z-0.249992
G01 X138.870606 Y116.587949 Z-0.249992
G01 X138.775017 Y116.338747 Z-0.249992
G01 X138.664273 Y116.140260 Z-0.179070
G01 X138.664273 Y116.140260 Z-0.179070
G01 X138.590331 Y116.394825 Z-0.249992
G00 Z5.000000

G00 Z5.000000
G00 X141.301668 Y126.717103

G01 Z-0.249992 F100.0(Penetrate)
G01 X141.301668 Y126.738523 Z-0.249992 F400.000000
G01 X141.317868 Y126.749332 Z-0.249992
G01 X141.475009 Y126.749332 Z-0.249992
G01 X141.632151 Y126.749332 Z-0.249992
G01 X141.648350 Y126.738523 Z-0.249992
G01 X141.648350 Y126.717103 Z-0.249992
G01 X141.648350 Y126.695682 Z-0.249992
G01 X141.632151 Y126.684901 Z-0.249992
G01 X141.475009 Y126.684901 Z-0.249992
G01 X141.317868 Y126.684901 Z-0.249992
G01 X141.301668 Y126.695682 Z-0.249992
G01 X141.301668 Y126.717103 Z-0.249992
G00 Z5.000000

G00 Z5.000000
G00 X139.259678 Y133.516626

G01 Z-0.249992 F100.0(Penetrate)
G01 X139.887425 Y133.758999 Z-0.249992 F400.000000
G01 X140.235546 Y134.197064 Z-0.249992
G01 X139.848958 Y134.835253 Z-0.249992
G01 X139.285021 Y135.043956 Z-0.249992
G01 X138.521243 Y135.099357 Z-0.249992
G01 X137.130621 Y135.200251 Z-0.249992
G01 X136.993885 Y135.179536 Z-0.249992
G01 X135.598691 Y134.968180 Z-0.249992
G01 X134.065237 Y134.735854 Z-0.249992
G01 X132.837570 Y134.237591 Z-0.249992
G01 X131.402667 Y133.655197 Z-0.249992
G01 X132.796986 Y133.246935 Z-0.249992
G01 X133.826138 Y132.945606 Z-0.249992
G01 X133.928161 Y132.949839 Z-0.249992
G01 X136.747928 Y133.067526 Z-0.249992
G01 X138.259877 Y133.130603 Z-0.249992
G01 X139.259678 Y133.516626 Z-0.249992
G00 Z5.000000

G00 Z5.000000
G00 X138.178654 Y138.475863

G01 Z-0.249992 F100.0(Penetrate)
G01 X138.496492 Y139.243197 Z-0.249992 F400.000000
G01 X138.454695 Y139.616154 Z-0.249992
G01 X137.966987 Y140.451221 Z-0.249992
G01 X137.653156 Y140.988572 Z-0.249992
G01 X137.108185 Y141.524117 Z-0.249992
G01 X136.759866 Y141.591201 Z-0.249992
G01 X135.998769 Y141.737788 Z-0.249992
G01 X135.987339 Y141.335847 Z-0.249992
G01 X136.467089 Y140.408126 Z-0.249992
G01 X136.787580 Y139.788394 Z-0.249992
G01 X136.862962 Y139.247007 Z-0.249992
G01 X136.744372 Y138.381799 Z-0.249992
G01 X136.593835 Y137.283418 Z-0.249992
G01 X136.733027 Y136.694505 Z-0.249992
G01 X137.371724 Y137.224603 Z-0.249992
G01 X137.617596 Y137.428649 Z-0.249992
G01 X137.981437 Y137.999670 Z-0.249992
G01 X138.178654 Y138.475863 Z-0.249992
G00 Z5.000000

G00 Z5.000000
G00 X135.745193 Y137.453937

G01 Z-0.249992 F100.0(Penetrate)
G01 X136.237162 Y137.984797 Z-0.249992 F400.000000
G01 X136.500532 Y138.611697 Z-0.249992
G01 X136.480551 Y139.736127 Z-0.249992
G01 X136.185346 Y140.312594 Z-0.249992
G01 X135.664844 Y140.722013 Z-0.249992
G01 X134.807679 Y141.396271 Z-0.249992
G01 X133.666654 Y141.509385 Z-0.249992
G01 X133.467151 Y141.439789 Z-0.249992
G01 X131.928081 Y140.902833 Z-0.249992
G01 X131.206128 Y140.116647 Z-0.249992
G01 X131.206128 Y139.111061 Z-0.249992
G01 X131.206128 Y138.557510 Z-0.249992
G01 X131.404445 Y138.037883 Z-0.249992
G01 X132.000527 Y137.271762 Z-0.249992
G01 X132.439778 Y136.966454 Z-0.249992
G01 X133.351101 Y136.636339 Z-0.249992
G01 X133.888622 Y136.586978 Z-0.249992
G01 X134.860708 Y136.781853 Z-0.249992
G01 X135.363402 Y137.041977 Z-0.249992
G01 X135.745193 Y137.453937 Z-0.249992
G00 Z5.000000

G00 Z5.000000
G00 X136.108187 Y142.589421

G01 Z-0.249992 F100.0(Penetrate)
G01 X137.699525 Y142.811163 Z-0.249992 F400.000000
G01 X137.893242 Y142.838172 Z-0.249992
G01 X139.490027 Y143.060676 Z-0.249992
G01 X139.602916 Y143.081504 Z-0.249992
G01 X141.146982 Y143.366351 Z-0.249992
G01 X141.362487 Y143.505966 Z-0.249992
G01 X141.682951 Y143.713597 Z-0.249992
G01 X141.718906 Y144.325370 Z-0.249992
G01 X141.554850 Y145.173505 Z-0.249992
G01 X141.430136 Y145.818439 Z-0.249992
G01 X141.406655 Y146.353814 Z-0.249992
G01 X141.320718 Y148.312239 Z-0.249992
G01 X141.319335 Y148.808414 Z-0.249992
G01 X141.313973 Y150.720808 Z-0.249992
G01 X141.312477 Y151.257172 Z-0.249992
G01 X141.306974 Y153.212068 Z-0.249992
G01 X141.287360 Y153.527875 Z-0.249992
G01 X141.174809 Y155.339093 Z-0.249992
G01 X140.950781 Y155.563121 Z-0.249992
G01 X140.608559 Y155.905343 Z-0.249992
G01 X139.879522 Y155.873170 Z-0.249992
G01 X138.469766 Y155.810968 Z-0.249992
G01 X136.429497 Y155.720939 Z-0.249992
G01 X136.326994 Y155.706913 Z-0.249992
G01 X134.928921 Y155.515623 Z-0.249992
G01 X133.439719 Y155.311886 Z-0.249992
G01 X131.991439 Y155.113738 Z-0.249992
G01 X131.996068 Y154.866512 Z-0.249992
G01 X132.075118 Y150.633912 Z-0.249992
G01 X132.101929 Y149.198078 Z-0.249992
G01 X132.104526 Y149.058886 Z-0.249992
G01 X132.130885 Y147.648001 Z-0.249992
G01 X132.159898 Y146.094706 Z-0.249992
G01 X132.168506 Y145.902061 Z-0.249992
G01 X132.240811 Y144.282219 Z-0.249992
G01 X132.252890 Y144.225633 Z-0.249992
G01 X132.561444 Y142.779780 Z-0.249992
G01 X132.735913 Y142.419044 Z-0.249992
G01 X133.214675 Y142.058166 Z-0.249992
G01 X133.562317 Y142.070556 Z-0.249992
G01 X133.877643 Y142.171196 Z-0.249992
G01 X134.200477 Y142.274207 Z-0.249992
G01 X134.356349 Y142.300398 Z-0.249992
G01 X135.917941 Y142.562893 Z-0.249992
G01 X136.108187 Y142.589421 Z-0.249992
G00 Z5.000000

G00 Z5.000000
