%
(Header)
(Generated by gcodetools from Inkscape.)
(Using default header. To add your own header create file "header" in the output dir.)
M3
(Header end.)
G21 (All units in mm)
(Tool diameter should be at least 0.5 mm)
(Depth, as a function of radius w, must be 10)
(Rapid feeds use safe Z=5.0 mm)
(Material surface at Z=0.0 mm)
(Change tool to Cylindrical cutter)

G00 Z5.000000
G00 X329.568812 Y151.880496

G01 Z-0.182541 F100.0(Penetrate)
G01 X329.568812 Y151.880496 Z-0.182541 F400.000000
G01 X328.141812 Y152.502570 Z-0.249992
G01 X326.301977 Y153.211428 Z-0.249992
G01 X326.136199 Y153.296264 Z-0.249992
G01 X323.623857 Y154.582040 Z-0.249992
G01 X322.230949 Y155.294905 Z-0.249992
G01 X321.752526 Y155.823564 Z-0.249992
G01 X321.515939 Y156.085014 Z-0.249992
G01 X321.250876 Y156.723514 Z-0.249992
G01 X321.163275 Y157.263320 Z-0.249992
G01 X321.036698 Y158.043354 Z-0.249992
G01 X321.098815 Y158.264730 Z-0.249992
G01 X321.583701 Y158.780886 Z-0.249992
G01 X322.247855 Y159.487852 Z-0.249992
G01 X322.239670 Y159.484974 Z-0.249992
G01 X323.580056 Y159.956482 Z-0.249992
G01 X323.550677 Y159.956426 Z-0.249992
G01 X324.974883 Y159.958910 Z-0.249992
G01 X326.381366 Y159.961816 Z-0.249992
G01 X326.425844 Y159.976746 Z-0.249992
G01 X329.101480 Y160.874495 Z-0.249992
G01 X330.470766 Y161.333924 Z-0.249992
G01 X330.762499 Y161.507886 Z-0.249992
G01 X332.243121 Y162.390875 Z-0.249992
G01 X333.089167 Y162.895404 Z-0.249992
G01 X334.077509 Y163.392961 Z-0.249992
G01 X334.444455 Y163.502633 Z-0.249992
G01 X335.129098 Y163.707272 Z-0.249992
G01 X336.155117 Y164.436732 Z-0.249992
G01 X336.186528 Y164.465406 Z-0.249992
G01 X337.228549 Y165.416918 Z-0.249992
G01 X338.298736 Y166.394141 Z-0.249992
G01 X338.400448 Y166.504603 Z-0.249992
G01 X339.458641 Y167.654065 Z-0.249992
G01 X339.526882 Y167.744123 Z-0.249992
G01 X340.440097 Y168.949381 Z-0.249992
G01 X340.760108 Y169.371755 Z-0.249992
G01 X341.612307 Y170.496495 Z-0.249992
G01 X342.791713 Y172.053091 Z-0.249992
G01 X343.157756 Y172.645702 Z-0.249992
G01 X344.324744 Y174.535010 Z-0.249992
G01 X344.111159 Y175.080546 Z-0.249992
G01 X344.005184 Y175.351423 Z-0.249992
G01 X343.583064 Y175.541810 Z-0.249992
G01 X342.296780 Y176.122030 Z-0.249992
G01 X340.677671 Y176.852365 Z-0.249992
G01 X340.037902 Y177.117089 Z-0.249992
G01 X338.734007 Y177.656557 Z-0.249992
G01 X336.793955 Y178.459254 Z-0.249992
G01 X336.207300 Y178.701965 Z-0.249992
G01 X332.295558 Y180.320396 Z-0.249992
G01 X330.413955 Y181.098878 Z-0.249992
G01 X329.672641 Y181.475306 Z-0.249992
G01 X329.613488 Y181.535927 Z-0.249992
G01 X328.539999 Y182.636143 Z-0.249992
G01 X327.611431 Y183.587824 Z-0.249992
G01 X327.074024 Y184.418658 Z-0.249992
G01 X326.916883 Y185.046913 Z-0.249992
G01 X326.413059 Y187.061500 Z-0.249992
G01 X326.402758 Y187.243195 Z-0.249992
G01 X326.311544 Y188.850507 Z-0.249992
G01 X326.311544 Y188.850083 Z-0.249992
G01 X326.308835 Y190.261194 Z-0.249992
G01 X326.306069 Y191.678768 Z-0.249992
G01 X326.305815 Y191.819880 Z-0.249992
G01 X326.300340 Y194.642102 Z-0.249992
G01 X326.296869 Y196.434044 Z-0.249992
G01 X325.703412 Y196.457778 Z-0.249992
G01 X324.293429 Y196.514195 Z-0.249992
G01 X322.529541 Y196.584750 Z-0.249992
G01 X322.285193 Y196.594515 Z-0.249992
G01 X320.875210 Y196.650903 Z-0.249992
G01 X319.240805 Y196.716294 Z-0.249992
G01 X318.805816 Y196.804206 Z-0.249992
G01 X318.256103 Y196.992928 Z-0.249992
G01 X316.921446 Y197.451144 Z-0.249992
G01 X315.021526 Y198.103416 Z-0.249992
G01 X314.823886 Y198.171262 Z-0.249992
G01 X313.489229 Y198.629478 Z-0.249992
G01 X311.946010 Y199.159266 Z-0.249992
G01 X310.732144 Y199.454527 Z-0.249992
G01 X310.291510 Y199.176792 Z-0.249992
G01 X309.504703 Y198.680843 Z-0.249992
G01 X309.203797 Y198.228977 Z-0.249992
G01 X307.639524 Y195.879928 Z-0.249992
G01 X306.577974 Y194.285796 Z-0.249992
G01 X306.516590 Y194.165062 Z-0.249992
G01 X305.877131 Y192.907169 Z-0.249992
G01 X305.182949 Y191.541608 Z-0.249992
G01 X305.152102 Y191.480931 Z-0.249992
G01 X304.484223 Y190.167130 Z-0.249992
G01 X304.237307 Y189.729008 Z-0.249992
G01 X303.297818 Y188.061950 Z-0.249992
G01 X303.297789 Y188.061921 Z-0.249992
G01 X302.545328 Y186.861235 Z-0.249992
G01 X302.542196 Y186.856268 Z-0.249992
G01 X301.786630 Y185.650643 Z-0.249992
G01 X301.732444 Y185.554490 Z-0.249992
G01 X300.981027 Y184.221187 Z-0.249992
G01 X300.758664 Y183.688013 Z-0.249992
G01 X300.730527 Y183.620506 Z-0.249992
G01 X300.147060 Y182.221417 Z-0.249992
G01 X300.041933 Y181.492606 Z-0.249992
G01 X299.738205 Y179.386551 Z-0.249992
G01 X299.709164 Y178.768061 Z-0.249992
G01 X299.642955 Y177.358502 Z-0.249992
G01 X299.548298 Y175.342504 Z-0.249992
G01 X299.534300 Y175.044195 Z-0.249992
G01 X299.454487 Y173.343863 Z-0.249992
G01 X299.430047 Y173.116223 Z-0.249992
G01 X299.259302 Y171.526437 Z-0.249992
G01 X299.130609 Y171.285955 Z-0.249992
G01 X298.939262 Y170.928408 Z-0.249992
G01 X298.664491 Y170.826554 Z-0.249992
G01 X297.686675 Y171.018803 Z-0.249992
G01 X297.088562 Y171.358204 Z-0.249992
G01 X296.417663 Y171.963288 Z-0.249992
G01 X295.724779 Y172.588128 Z-0.249992
G01 X294.997549 Y173.152657 Z-0.249992
G01 X294.800784 Y173.156467 Z-0.249992
G01 X294.403245 Y173.164059 Z-0.249992
G01 X294.268936 Y173.487994 Z-0.249992
G01 X292.107396 Y178.702162 Z-0.249992
G01 X291.379940 Y180.456964 Z-0.249992
G01 X291.280654 Y180.978962 Z-0.249992
G01 X290.912890 Y182.912523 Z-0.249992
G01 X290.783717 Y183.591606 Z-0.249992
G01 X290.520037 Y184.977882 Z-0.249992
G01 X290.129865 Y187.029101 Z-0.249992
G01 X290.128651 Y187.045837 Z-0.249992
G01 X290.025725 Y188.453194 Z-0.249992
G01 X289.923222 Y189.854540 Z-0.249992
G01 X289.942131 Y189.938248 Z-0.249992
G01 X290.280374 Y191.434618 Z-0.249992
G01 X290.480723 Y192.320824 Z-0.249992
G01 X290.527911 Y192.596019 Z-0.249992
G01 X290.813153 Y194.259493 Z-0.249992
G01 X290.819193 Y194.303068 Z-0.249992
G01 X291.018921 Y195.740398 Z-0.249992
G01 X291.048950 Y195.956552 Z-0.249992
G01 X291.270946 Y197.554099 Z-0.249992
G01 X291.368990 Y197.909219 Z-0.249992
G01 X291.844111 Y199.630126 Z-0.249992
G01 X291.844167 Y199.630210 Z-0.249992
G01 X292.334077 Y200.953550 Z-0.249992
G01 X292.827740 Y202.286994 Z-0.249992
G01 X292.981212 Y202.701550 Z-0.249992
G01 X293.626852 Y204.445514 Z-0.249992
G01 X293.725009 Y204.759853 Z-0.249992
G01 X294.260582 Y206.474974 Z-0.249992
G01 X294.201090 Y206.783838 Z-0.249992
G01 X294.076714 Y207.429647 Z-0.249992
G01 X293.970683 Y207.496223 Z-0.249992
G01 X291.580515 Y208.996884 Z-0.249992
G01 X290.362529 Y209.761621 Z-0.249992
G01 X290.100316 Y209.897116 Z-0.249992
G01 X287.593082 Y211.192770 Z-0.249992
G01 X286.086552 Y211.971308 Z-0.249992
G01 X285.953032 Y212.040312 Z-0.249992
G01 X284.699429 Y212.688153 Z-0.249992
G01 X283.321508 Y213.400228 Z-0.249992
G01 X283.019869 Y213.589260 Z-0.249992
G01 X280.628487 Y215.088001 Z-0.249992
G01 X279.125371 Y216.030059 Z-0.249992
G01 X278.820966 Y216.232949 Z-0.249992
G01 X272.950067 Y220.146186 Z-0.249992
G01 X271.468569 Y221.133681 Z-0.249992
G01 X271.393357 Y221.183832 Z-0.249992
G01 X270.140262 Y222.019069 Z-0.249992
G01 X269.357208 Y222.501584 Z-0.249992
G01 X268.044932 Y222.741304 Z-0.249992
G01 X267.515285 Y222.452082 Z-0.249992
G01 X266.778318 Y221.935700 Z-0.249992
G01 X266.536115 Y221.766000 Z-0.249992
G01 X265.146650 Y220.792446 Z-0.249992
G01 X264.601256 Y220.473366 Z-0.249992
G01 X260.947297 Y218.335673 Z-0.249992
G01 X259.181997 Y217.302909 Z-0.249992
G01 X258.674392 Y217.047978 Z-0.249992
G01 X256.898621 Y216.156128 Z-0.249992
G01 X256.347074 Y215.879127 Z-0.249992
G01 X255.086049 Y215.245792 Z-0.249992
G01 X253.286515 Y214.342031 Z-0.249992
G01 X253.101716 Y214.274806 Z-0.249992
G01 X250.449420 Y213.310312 Z-0.249992
G01 X248.943990 Y212.762857 Z-0.249992
G01 X248.926097 Y212.759499 Z-0.249992
G01 X247.539116 Y212.499600 Z-0.249992
G01 X246.114092 Y212.232590 Z-0.249992
G01 X245.081356 Y212.039070 Z-0.249992
G01 X244.247474 Y211.914187 Z-0.249992
G01 X243.987547 Y211.915400 Z-0.249992
G01 X242.312135 Y211.923331 Z-0.249992
G01 X241.226285 Y212.057781 Z-0.249992
G01 X240.985803 Y212.110331 Z-0.249992
G01 X238.228605 Y212.712763 Z-0.249992
G01 X236.608254 Y213.066782 Z-0.249992
G01 X236.226944 Y213.183340 Z-0.249992
G01 X233.527996 Y214.008247 Z-0.249992
G01 X231.788125 Y214.540039 Z-0.249992
G01 X231.317547 Y214.686766 Z-0.249992
G01 X224.581778 Y216.786838 Z-0.249992
G01 X222.763364 Y217.353766 Z-0.249992
G01 X222.095936 Y217.561877 Z-0.249992
G01 X216.707326 Y219.241945 Z-0.249992
G01 X214.691808 Y219.870341 Z-0.249992
G01 X214.118925 Y220.044106 Z-0.249992
G01 X212.768548 Y220.453667 Z-0.249992
G01 X210.864818 Y221.031093 Z-0.249992
G01 X210.401522 Y221.254698 Z-0.249992
G01 X209.130675 Y221.868080 Z-0.249992
G01 X207.397267 Y222.704728 Z-0.249992
G01 X206.638089 Y223.236716 Z-0.249992
G01 X206.412311 Y223.449089 Z-0.249992
G01 X205.156845 Y224.629991 Z-0.249992
G01 X204.450105 Y225.482218 Z-0.249992
G01 X204.400603 Y225.539678 Z-0.249992
G01 X203.431536 Y226.664390 Z-0.249992
G01 X203.000301 Y227.164911 Z-0.249992
G01 X201.662963 Y228.717049 Z-0.249992
G01 X201.340778 Y229.269724 Z-0.249992
G01 X201.196873 Y229.707790 Z-0.249992
G01 X200.604291 Y231.511557 Z-0.249992
G01 X200.531957 Y231.731718 Z-0.249992
G01 X200.022207 Y233.283376 Z-0.249992
G01 X199.998134 Y233.381476 Z-0.249992
G01 X199.638526 Y234.846859 Z-0.249992
G01 X199.610614 Y235.047745 Z-0.249992
G01 X199.416502 Y236.445450 Z-0.249992
G01 X199.194478 Y238.044098 Z-0.249992
G01 X199.190865 Y238.144908 Z-0.249992
G01 X199.136735 Y239.659199 Z-0.249992
G01 X199.145907 Y239.887320 Z-0.249992
G01 X199.212258 Y241.534933 Z-0.249992
G01 X199.212681 Y241.545093 Z-0.249992
G01 X199.269436 Y242.955075 Z-0.249992
G01 X199.325852 Y244.355575 Z-0.249992
G01 X199.433238 Y244.892926 Z-0.249992
G01 X199.552759 Y245.164254 Z-0.249992
G01 X200.252134 Y246.751924 Z-0.249992
G01 X200.314194 Y246.892837 Z-0.249992
G01 X200.940558 Y248.314842 Z-0.249992
G01 X200.976090 Y248.379161 Z-0.249992
G01 X201.693019 Y249.676818 Z-0.249992
G01 X201.778335 Y249.798710 Z-0.249992
G01 X202.587579 Y250.954721 Z-0.249992
G01 X203.482167 Y252.232651 Z-0.249992
G01 X203.530088 Y252.287684 Z-0.249992
G01 X204.506210 Y253.408332 Z-0.249992
G01 X204.611395 Y253.509311 Z-0.249992
G01 X205.742682 Y254.595161 Z-0.249992
G01 X206.007943 Y254.849782 Z-0.249992
G01 X207.281979 Y256.072679 Z-0.249992
G01 X207.529516 Y256.265719 Z-0.249992
G01 X208.889093 Y257.325972 Z-0.249992
G01 X209.209698 Y257.523669 Z-0.249992
G01 X211.611945 Y259.004940 Z-0.249992
G01 X213.137243 Y259.945446 Z-0.249992
G01 X213.194675 Y259.975079 Z-0.249992
G01 X214.448702 Y260.622102 Z-0.249992
G01 X215.764337 Y261.300903 Z-0.249992
G01 X216.267906 Y261.536474 Z-0.249992
G01 X217.546062 Y262.134418 Z-0.249992
G01 X219.332162 Y262.969993 Z-0.249992
G01 X219.352764 Y262.979617 Z-0.249992
G01 X220.656321 Y263.589443 Z-0.249992
G01 X220.710959 Y263.617891 Z-0.249992
G01 X221.962756 Y264.269203 Z-0.249992
G01 X223.267695 Y264.948173 Z-0.249992
G01 X223.585928 Y265.125578 Z-0.249992
G01 X225.133522 Y265.988360 Z-0.249992
G01 X225.448595 Y266.164015 Z-0.249992
G01 X226.991504 Y267.024172 Z-0.249992
G01 X227.376878 Y267.217861 Z-0.249992
G01 X228.637706 Y267.851534 Z-0.249992
G01 X230.284416 Y268.679151 Z-0.249992
G01 X230.724542 Y268.879642 Z-0.249992
G01 X232.453181 Y269.667070 Z-0.249992
G01 X232.698517 Y269.778830 Z-0.249992
G01 X236.550963 Y271.533716 Z-0.249992
G01 X238.086704 Y272.233260 Z-0.249992
G01 X238.272914 Y272.330796 Z-0.249992
G01 X239.522961 Y272.985467 Z-0.249992
G01 X240.977478 Y273.747241 Z-0.249992
G01 X241.057798 Y273.815088 Z-0.249992
G01 X242.195295 Y274.775631 Z-0.249992
G01 X242.749241 Y275.243386 Z-0.249992
G01 X243.577902 Y275.700473 Z-0.249992
G01 X244.047717 Y275.803682 Z-0.249992
G01 X244.587919 Y275.922328 Z-0.249992
G01 X245.710853 Y276.536613 Z-0.249992
G01 X246.534829 Y277.155752 Z-0.249992
G01 X247.337666 Y277.759002 Z-0.249992
G01 X248.032695 Y278.211602 Z-0.249992
G01 X248.082959 Y278.211602 Z-0.249992
G01 X248.296855 Y278.211602 Z-0.249992
G01 X249.264171 Y279.004533 Z-0.249992
G01 X250.235919 Y279.903693 Z-0.249992
G01 X251.198974 Y280.794838 Z-0.249992
G01 X251.231655 Y280.823061 Z-0.249992
G01 X252.327553 Y281.769239 Z-0.249992
G01 X252.745919 Y282.071837 Z-0.249992
G01 X253.475266 Y282.599367 Z-0.249992
G01 X253.657440 Y283.064187 Z-0.249992
G01 X253.688880 Y283.307971 Z-0.249992
G01 X253.896962 Y284.920730 Z-0.249992
G01 X254.048177 Y286.092629 Z-0.249992
G01 X254.065675 Y286.358003 Z-0.249992
G01 X254.176023 Y288.031298 Z-0.249992
G01 X254.180821 Y289.225409 Z-0.249992
G01 X254.185591 Y290.400300 Z-0.249992
G01 X254.208535 Y290.639060 Z-0.249992
G01 X254.366411 Y292.282214 Z-0.249992
G01 X254.583157 Y293.412683 Z-0.249992
G01 X254.587899 Y293.437434 Z-0.249992
G01 X254.853611 Y294.823315 Z-0.249992
G01 X255.125475 Y296.241256 Z-0.249992
G01 X255.169982 Y296.581644 Z-0.249992
G01 X255.352890 Y297.980845 Z-0.249992
G01 X255.580107 Y299.719024 Z-0.249992
G01 X255.611011 Y300.094464 Z-0.249992
G01 X255.726722 Y301.500834 Z-0.249992
G01 X255.872828 Y303.276661 Z-0.249992
G01 X255.882000 Y303.388392 Z-0.249992
G01 X256.006178 Y304.897576 Z-0.249992
G01 X256.083648 Y305.398012 Z-0.249992
G01 X256.376708 Y307.291102 Z-0.249992
G01 X256.696607 Y308.600021 Z-0.249992
G01 X256.703380 Y308.627735 Z-0.249992
G01 X257.046562 Y310.031960 Z-0.249992
G01 X257.234804 Y310.997160 Z-0.249992
G01 X257.289443 Y312.352758 Z-0.249992
G01 X257.116045 Y312.806487 Z-0.249992
G01 X256.783926 Y313.082105 Z-0.249992
G01 X256.416868 Y313.386736 Z-0.249992
G01 X255.957721 Y313.448401 Z-0.249992
G01 X255.328788 Y313.054673 Z-0.249992
G01 X255.078429 Y312.614406 Z-0.249992
G01 X254.954675 Y312.051006 Z-0.249992
G01 X254.848220 Y311.566233 Z-0.249992
G01 X254.478989 Y310.801128 Z-0.249992
G01 X254.126804 Y310.339413 Z-0.249992
G01 X253.748824 Y309.843831 Z-0.249992
G01 X253.407335 Y309.238887 Z-0.249992
G01 X253.407335 Y309.003966 Z-0.249992
G01 X253.407335 Y308.672693 Z-0.249992
G01 X253.113090 Y308.459248 Z-0.249992
G01 X250.828727 Y306.801983 Z-0.249992
G01 X249.295724 Y305.689802 Z-0.249992
G01 X249.284379 Y305.682662 Z-0.249992
G01 X245.702809 Y303.425787 Z-0.249992
G01 X244.490721 Y302.662009 Z-0.249992
G01 X243.917556 Y302.300849 Z-0.249992
G01 X242.148559 Y301.186128 Z-0.249992
G01 X241.656928 Y300.863153 Z-0.249992
G01 X240.477549 Y300.088368 Z-0.249992
G01 X238.805919 Y298.990213 Z-0.249992
G01 X238.513424 Y298.787521 Z-0.249992
G01 X237.063648 Y297.782866 Z-0.249992
G01 X236.818764 Y297.613166 Z-0.249992
G01 X235.658944 Y296.809426 Z-0.249992
G01 X234.269422 Y295.846511 Z-0.249992
G01 X233.891499 Y295.660019 Z-0.249992
G01 X233.091116 Y295.776549 Z-0.249992
G01 X232.591583 Y295.849249 Z-0.249992
G01 X232.104355 Y295.761421 Z-0.249992
G01 X231.961635 Y295.673142 Z-0.249992
G01 X230.761485 Y294.930954 Z-0.249992
G01 X229.453074 Y294.121851 Z-0.249992
G01 X228.923682 Y293.752338 Z-0.249992
G01 X227.242371 Y292.578830 Z-0.249992
G01 X226.938418 Y292.364623 Z-0.249992
G01 X224.631449 Y290.738967 Z-0.249992
G01 X223.174448 Y289.712270 Z-0.249992
G01 X222.641359 Y289.336661 Z-0.249992
G01 X218.027392 Y286.085348 Z-0.249992
G01 X216.336260 Y284.893665 Z-0.249992
G01 X215.941939 Y284.588582 Z-0.249992
G01 X214.317948 Y283.332016 Z-0.249992
G01 X214.411646 Y282.766386 Z-0.249992
G01 X214.460950 Y282.468698 Z-0.249992
G01 X214.593143 Y281.778439 Z-0.249992
G01 X214.705129 Y281.233496 Z-0.249992
G01 X214.978800 Y279.901859 Z-0.249992
G01 X214.890379 Y279.320848 Z-0.249992
G01 X214.588825 Y277.339451 Z-0.249992
G01 X214.567235 Y277.296158 Z-0.249992
G01 X213.898312 Y275.954981 Z-0.249992
G01 X213.566052 Y275.288852 Z-0.249992
G01 X213.540454 Y275.222389 Z-0.249992
G01 X213.009143 Y273.843112 Z-0.249992
G01 X212.661671 Y272.746510 Z-0.249992
G01 X212.260351 Y271.480037 Z-0.249992
G01 X212.059098 Y271.100053 Z-0.249992
G01 X211.191575 Y269.462064 Z-0.249992
G01 X211.152403 Y269.400680 Z-0.249992
G01 X210.393055 Y268.211283 Z-0.249992
G01 X209.589089 Y266.951979 Z-0.249992
G01 X209.288805 Y266.481600 Z-0.249992
G01 X208.230979 Y264.824673 Z-0.249992
G01 X208.014571 Y264.504887 Z-0.249992
G01 X207.035429 Y263.058018 Z-0.249992
G01 X206.940687 Y262.999457 Z-0.249992
G01 X206.752981 Y262.883464 Z-0.249992
G01 X206.074547 Y261.845817 Z-0.249992
G01 X205.424025 Y260.722291 Z-0.249992
G01 X205.116093 Y260.190471 Z-0.249992
G01 X204.107882 Y258.449188 Z-0.249992
G01 X204.020788 Y258.330570 Z-0.249992
G01 X201.515755 Y254.917939 Z-0.249992
G01 X200.594667 Y253.663123 Z-0.249992
G01 X200.283432 Y253.332415 Z-0.249992
G01 X198.994692 Y251.962931 Z-0.249992
G01 X198.406146 Y251.337527 Z-0.249992
G01 X198.304123 Y251.217723 Z-0.249992
G01 X197.288490 Y250.025081 Z-0.249992
G01 X196.512350 Y249.048253 Z-0.249992
G01 X196.479613 Y249.007049 Z-0.249992
G01 X195.578449 Y247.872826 Z-0.249992
G01 X195.467225 Y247.763098 Z-0.249992
G01 X194.348807 Y246.659693 Z-0.249992
G01 X194.355749 Y246.665394 Z-0.249992
G01 X192.174934 Y244.874045 Z-0.249992
G01 X191.088830 Y243.981913 Z-0.249992
G01 X190.654772 Y243.669521 Z-0.249992
G01 X189.073255 Y242.531375 Z-0.249992
G01 X189.007836 Y242.488421 Z-0.249992
G01 X187.828147 Y241.714088 Z-0.249992
G01 X186.578580 Y240.893865 Z-0.249992
G01 X186.091210 Y240.573966 Z-0.249992
G01 X183.731861 Y239.025300 Z-0.249992
G01 X182.069600 Y237.934201 Z-0.249992
G01 X181.543566 Y237.622260 Z-0.249992
G01 X180.329785 Y236.902537 Z-0.249992
G01 X178.594795 Y235.873724 Z-0.249992
G01 X178.463477 Y235.811099 Z-0.249992
G01 X173.368604 Y233.381702 Z-0.249992
G01 X171.965734 Y232.712751 Z-0.249992
G01 X171.730022 Y232.630568 Z-0.249992
G01 X170.397594 Y232.165974 Z-0.249992
G01 X168.825334 Y231.617757 Z-0.249992
G01 X168.268143 Y231.469082 Z-0.249992
G01 X166.904727 Y231.105298 Z-0.249992
G01 X164.975089 Y230.590440 Z-0.249992
G01 X163.655023 Y230.238226 Z-0.249992
G01 X163.445953 Y230.181133 Z-0.249992
G01 X161.875245 Y229.752268 Z-0.249992
G01 X161.020422 Y229.510629 Z-0.249992
G01 X160.182392 Y229.273732 Z-0.249992
G01 X159.938552 Y229.238059 Z-0.249992
G01 X158.291926 Y228.997070 Z-0.249992
G01 X158.261361 Y228.994981 Z-0.249992
G01 X156.813307 Y228.896288 Z-0.249992
G01 X156.781501 Y228.894115 Z-0.249992
G01 X155.352948 Y228.796776 Z-0.249992
G01 X154.353854 Y228.817746 Z-0.249992
G01 X154.269243 Y228.837953 Z-0.249992
G01 X152.827568 Y229.182151 Z-0.249992
G01 X152.335203 Y229.499340 Z-0.249992
G01 X151.846761 Y230.047529 Z-0.249992
G01 X151.483851 Y230.454832 Z-0.249992
G01 X151.436043 Y230.941157 Z-0.249992
G01 X151.422948 Y230.906303 Z-0.249992
G01 X151.913534 Y232.211129 Z-0.249992
G01 X152.445185 Y232.893147 Z-0.249992
G01 X153.274184 Y233.562099 Z-0.249992
G01 X153.606981 Y233.830690 Z-0.249992
G01 X154.705136 Y234.716867 Z-0.249992
G01 X156.141618 Y235.876067 Z-0.249992
G01 X156.198825 Y235.927855 Z-0.249992
G01 X160.382685 Y239.716688 Z-0.249992
G01 X161.486653 Y240.716432 Z-0.249992
G01 X161.618141 Y240.852266 Z-0.249992
G01 X162.599625 Y241.866149 Z-0.249992
G01 X163.706867 Y243.009939 Z-0.249992
G01 X164.018582 Y243.331955 Z-0.249992
G01 X165.000066 Y244.345838 Z-0.249992
G01 X166.298514 Y245.687156 Z-0.249992
G01 X166.760145 Y246.225861 Z-0.249992
G01 X168.144558 Y247.841414 Z-0.249992
G01 X168.485736 Y248.349358 Z-0.249992
G01 X170.059407 Y250.692113 Z-0.249992
G01 X171.187929 Y252.372153 Z-0.249992
G01 X171.474583 Y252.940267 Z-0.249992
G01 X172.393837 Y254.762209 Z-0.249992
G01 X172.508447 Y255.035654 Z-0.249992
G01 X173.053813 Y256.337093 Z-0.249992
G01 X173.710403 Y257.903878 Z-0.249992
G01 X173.933839 Y258.437081 Z-0.249992
G01 X174.711559 Y260.292946 Z-0.249992
G01 X174.787053 Y260.641519 Z-0.249992
G01 X175.085813 Y262.020626 Z-0.249992
G01 X175.458008 Y263.738654 Z-0.249992
G01 X175.497096 Y264.097443 Z-0.249992
G01 X175.955763 Y268.305856 Z-0.249992
G01 X176.148070 Y270.070168 Z-0.249992
G01 X176.147138 Y270.121278 Z-0.249992
G01 X176.121851 Y271.532164 Z-0.249992
G01 X176.094984 Y273.028788 Z-0.249992
G01 X176.065463 Y273.095562 Z-0.249992
G01 X175.485497 Y274.406654 Z-0.249992
G01 X175.162126 Y275.137722 Z-0.249992
G01 X174.565875 Y275.968754 Z-0.249992
G01 X174.162467 Y276.230176 Z-0.249992
G01 X173.215442 Y276.843840 Z-0.249992
G01 X172.741732 Y276.900059 Z-0.249992
G01 X169.939181 Y277.232601 Z-0.249992
G01 X168.105639 Y277.450166 Z-0.249992
G01 X167.691563 Y277.444861 Z-0.249992
G01 X166.280565 Y277.426827 Z-0.249992
G01 X164.471915 Y277.403684 Z-0.249992
G01 X164.432884 Y277.403176 Z-0.249992
G01 X163.021886 Y277.385142 Z-0.249992
G01 X161.553766 Y277.366375 Z-0.249992
G01 X161.361544 Y277.335866 Z-0.249992
G01 X158.574205 Y276.893596 Z-0.249992
G01 X156.990994 Y276.642418 Z-0.249992
G01 X156.694040 Y276.556961 Z-0.249992
G01 X155.337962 Y276.166704 Z-0.249992
G01 X153.699691 Y275.695224 Z-0.249992
G01 X153.262895 Y275.569522 Z-0.249992
G01 X151.453258 Y275.048766 Z-0.249992
G01 X151.292617 Y274.977138 Z-0.249992
G01 X150.003850 Y274.402420 Z-0.249992
G01 X148.561158 Y273.759038 Z-0.249992
G01 X148.145247 Y273.531736 Z-0.249992
G01 X144.430553 Y271.501373 Z-0.249992
G01 X142.777239 Y270.597726 Z-0.249992
G01 X142.504782 Y270.421704 Z-0.249992
G01 X141.319505 Y269.655950 Z-0.249992
G01 X139.859005 Y268.712369 Z-0.249992
G01 X139.804338 Y268.668737 Z-0.249992
G01 X138.701329 Y267.788627 Z-0.249992
G01 X137.553390 Y266.872703 Z-0.249992
G01 X137.062070 Y266.480668 Z-0.249992
G01 X135.453459 Y265.197150 Z-0.249992
G01 X134.562766 Y264.243577 Z-0.249992
G01 X134.340177 Y263.898504 Z-0.249992
G01 X133.364733 Y262.386470 Z-0.249992
G01 X133.135258 Y262.030786 Z-0.249992
G01 X132.370323 Y260.845001 Z-0.249992
G01 X131.367841 Y259.291029 Z-0.249992
G01 X131.257690 Y259.065364 Z-0.249992
G01 X130.522445 Y257.559257 Z-0.249992
G01 X130.458691 Y257.282115 Z-0.249992
G01 X130.085141 Y255.657643 Z-0.249992
G01 X129.955658 Y255.094667 Z-0.249992
G01 X129.513839 Y253.173354 Z-0.249992
G01 X129.515589 Y253.177898 Z-0.249992
G01 X127.502864 Y247.904491 Z-0.249992
G01 X127.012588 Y246.620013 Z-0.249992
G01 X126.402621 Y245.964721 Z-0.249992
G01 X126.072167 Y245.609714 Z-0.249992
G01 X125.694723 Y245.445743 Z-0.249992
G01 X124.795478 Y245.422093 Z-0.249992
G01 X124.355550 Y245.571924 Z-0.249992
G01 X123.917259 Y245.916687 Z-0.249992
G01 X123.217602 Y246.467049 Z-0.249992
G01 X123.109793 Y246.716928 Z-0.249992
G01 X122.424529 Y248.305077 Z-0.249992
G01 X122.246108 Y248.945947 Z-0.249992
G01 X121.489217 Y251.664792 Z-0.249992
G01 X120.930473 Y253.671843 Z-0.249992
G01 X120.863332 Y254.017283 Z-0.249992
G01 X120.594177 Y255.402486 Z-0.249992
G01 X120.257712 Y257.134174 Z-0.249992
G01 X120.202622 Y257.588241 Z-0.249992
G01 X120.032611 Y258.989079 Z-0.249992
G01 X119.806467 Y260.852818 Z-0.249992
G01 X119.758715 Y261.246236 Z-0.249992
G01 X119.543125 Y263.023023 Z-0.249992
G01 X119.543436 Y263.039561 Z-0.249992
G01 X119.571263 Y264.450390 Z-0.249992
G01 X119.599541 Y265.884643 Z-0.249992
G01 X119.620398 Y266.082086 Z-0.249992
G01 X120.065095 Y270.291995 Z-0.249992
G01 X120.234287 Y271.893747 Z-0.249992
G01 X120.266178 Y272.066354 Z-0.249992
G01 X120.522493 Y273.453984 Z-0.249992
G01 X120.810162 Y275.011428 Z-0.249992
G01 X121.000069 Y275.665308 Z-0.249992
G01 X121.587063 Y277.686330 Z-0.249992
G01 X121.762408 Y278.290088 Z-0.249992
G01 X122.324905 Y280.226810 Z-0.249992
G01 X122.494718 Y280.564093 Z-0.249992
G01 X123.129351 Y281.824441 Z-0.249992
G01 X123.938256 Y283.430935 Z-0.249992
G01 X124.060092 Y283.620363 Z-0.249992
G01 X127.113454 Y288.367651 Z-0.249992
G01 X127.999209 Y289.744839 Z-0.249992
G01 X128.340133 Y290.176893 Z-0.249992
G01 X129.214232 Y291.284700 Z-0.249992
G01 X130.426150 Y292.820638 Z-0.249992
G01 X130.584900 Y292.973517 Z-0.249992
G01 X131.601324 Y293.952349 Z-0.249992
G01 X132.788802 Y295.095885 Z-0.249992
G01 X133.095041 Y295.390807 Z-0.249992
G01 X134.111465 Y296.369610 Z-0.249992
G01 X135.424108 Y297.633684 Z-0.249992
G01 X135.438248 Y297.644549 Z-0.249992
G01 X141.033049 Y301.943274 Z-0.249992
G01 X142.161091 Y302.809978 Z-0.249992
G01 X142.636636 Y303.065558 Z-0.249992
G01 X144.373036 Y303.998726 Z-0.249992
G01 X144.520413 Y304.077918 Z-0.249992
G01 X145.763404 Y304.745910 Z-0.249992
G01 X147.144233 Y305.487985 Z-0.249992
G01 X147.607614 Y305.687488 Z-0.249992
G01 X151.495874 Y307.361517 Z-0.249992
G01 X153.252368 Y308.117760 Z-0.249992
G01 X153.728957 Y308.262173 Z-0.249992
G01 X155.569441 Y308.819900 Z-0.249992
G01 X155.792594 Y308.887521 Z-0.249992
G01 X157.357742 Y309.361795 Z-0.249992
G01 X157.423585 Y309.376725 Z-0.249992
G01 X158.861281 Y309.703086 Z-0.249992
G01 X159.252780 Y309.749258 Z-0.249992
G01 X160.654154 Y309.914612 Z-0.249992
G01 X162.450358 Y310.126561 Z-0.249992
G01 X162.778921 Y310.139148 Z-0.249992
G01 X164.523195 Y310.206006 Z-0.249992
G01 X164.568097 Y310.206204 Z-0.249992
G01 X165.979208 Y310.212046 Z-0.249992
G01 X167.439482 Y310.218114 Z-0.249992
G01 X167.926795 Y310.220146 Z-0.249992
G01 X170.749017 Y310.231858 Z-0.249992
G01 X172.634093 Y310.239676 Z-0.249992
G01 X172.850444 Y310.217436 Z-0.249992
G01 X173.089289 Y310.151876 Z-0.249992
G01 X174.450051 Y309.778355 Z-0.249992
G01 X176.069668 Y309.333799 Z-0.249992
G01 X176.306453 Y309.268803 Z-0.249992
G01 X177.908261 Y308.829101 Z-0.249992
G01 X178.094613 Y308.784905 Z-0.249992
G01 X179.678190 Y308.409380 Z-0.249992
G01 X179.996367 Y308.409380 Z-0.249992
G01 X180.523445 Y308.409380 Z-0.249992
G01 X180.861886 Y308.933749 Z-0.249992
G01 X181.192707 Y310.071245 Z-0.249992
G01 X181.468184 Y311.018411 Z-0.249992
G01 X181.634131 Y311.495564 Z-0.249992
G01 X182.464542 Y312.451254 Z-0.249992
G01 X183.135356 Y312.918670 Z-0.249992
G01 X183.198940 Y312.960975 Z-0.249992
G01 X184.439589 Y313.786447 Z-0.249992
G01 X184.453644 Y313.795788 Z-0.249992
G01 X185.646795 Y314.589651 Z-0.249992
G01 X185.778649 Y314.685438 Z-0.249992
G01 X187.056975 Y315.614118 Z-0.249992
G01 X187.569885 Y316.061525 Z-0.249992
G01 X188.061545 Y316.490390 Z-0.249992
G01 X189.019350 Y317.119125 Z-0.249992
G01 X189.704784 Y317.462194 Z-0.249992
G01 X190.412258 Y317.816298 Z-0.249992
G01 X190.706193 Y317.994183 Z-0.249992
G01 X192.202620 Y318.899777 Z-0.249992
G01 X192.353354 Y318.998471 Z-0.249992
G01 X193.680928 Y319.867687 Z-0.249992
G01 X193.827966 Y319.963925 Z-0.249992
G01 X195.152858 Y320.831391 Z-0.249992
G01 X195.629588 Y321.126313 Z-0.249992
G01 X197.305536 Y322.163028 Z-0.249992
G01 X198.466034 Y322.827803 Z-0.249992
G01 X198.800100 Y323.019178 Z-0.249992
G01 X200.024550 Y323.720585 Z-0.249992
G01 X201.588315 Y324.616330 Z-0.249992
G01 X202.065665 Y324.921299 Z-0.249992
G01 X208.011382 Y328.719869 Z-0.249992
G01 X210.389697 Y330.239269 Z-0.249992
G01 X212.067875 Y331.311403 Z-0.249992
G01 X212.901362 Y332.053506 Z-0.249992
G01 X213.275081 Y332.386246 Z-0.249992
G01 X214.094513 Y332.916401 Z-0.249992
G01 X214.729513 Y333.234578 Z-0.249992
G01 X215.389235 Y333.565173 Z-0.249992
G01 X215.479857 Y333.624045 Z-0.249992
G01 X216.748954 Y334.448444 Z-0.249992
G01 X217.747456 Y335.193821 Z-0.249992
G01 X218.735121 Y335.931098 Z-0.249992
G01 X218.824868 Y335.992284 Z-0.249992
G01 X220.077850 Y336.846571 Z-0.249992
G01 X220.733678 Y337.230280 Z-0.249992
G01 X221.399638 Y337.619888 Z-0.249992
G01 X222.585535 Y338.353948 Z-0.249992
G01 X223.367912 Y338.860819 Z-0.249992
G01 X224.145095 Y339.364332 Z-0.249992
G01 X224.470356 Y339.561972 Z-0.249992
G01 X226.002992 Y340.493249 Z-0.249992
G01 X226.140943 Y340.574190 Z-0.249992
G01 X227.497670 Y341.370113 Z-0.249992
G01 X227.824088 Y341.561629 Z-0.249992
G01 X229.041228 Y342.275652 Z-0.249992
G01 X230.590345 Y343.184464 Z-0.249992
G01 X230.911571 Y343.395933 Z-0.249992
G01 X233.268860 Y344.947760 Z-0.249992
G01 X234.772371 Y345.937570 Z-0.249992
G01 X235.064753 Y346.168653 Z-0.249992
G01 X236.455685 Y347.268050 Z-0.249992
G01 X236.875858 Y347.600169 Z-0.249992
G01 X238.389782 Y348.796763 Z-0.249992
G01 X238.785909 Y349.030556 Z-0.249992
G01 X247.292652 Y354.051120 Z-0.249992
G01 X248.859860 Y354.976047 Z-0.249992
G01 X249.452244 Y354.976047 Z-0.249992
G01 X249.753178 Y354.976047 Z-0.249992
G01 X250.343756 Y354.753627 Z-0.249992
G01 X252.984876 Y353.758907 Z-0.249992
G01 X254.936415 Y353.023887 Z-0.249992
G01 X255.333953 Y352.865589 Z-0.249992
G01 X259.266917 Y351.299425 Z-0.249992
G01 X260.977607 Y350.618169 Z-0.249992
G01 X261.377319 Y350.458995 Z-0.249992
G01 X265.310283 Y348.892831 Z-0.249992
G01 X267.023090 Y348.210757 Z-0.249992
G01 X267.092827 Y348.184425 Z-0.249992
G01 X271.053392 Y346.689410 Z-0.249992
G01 X272.464955 Y346.156602 Z-0.249992
G01 X273.066173 Y346.060449 Z-0.249992
G01 X273.962849 Y345.917052 Z-0.249992
G01 X274.475986 Y346.057091 Z-0.249992
G01 X275.405428 Y346.689861 Z-0.249992
G01 X276.003852 Y347.097277 Z-0.249992
G01 X276.045621 Y347.118670 Z-0.249992
G01 X279.813909 Y349.047687 Z-0.249992
G01 X281.124013 Y349.718360 Z-0.249992
G01 X281.424551 Y349.866724 Z-0.249992
G01 X285.220496 Y351.740736 Z-0.249992
G01 X286.787987 Y352.514561 Z-0.249992
G01 X287.208837 Y352.722333 Z-0.249992
G01 X293.535412 Y355.845658 Z-0.249992
G01 X295.216892 Y356.675787 Z-0.249992
G01 X295.367063 Y356.742222 Z-0.249992
G01 X296.657496 Y357.313214 Z-0.249992
G01 X298.093668 Y357.948722 Z-0.249992
G01 X298.396295 Y358.054357 Z-0.249992
G01 X301.060840 Y358.984421 Z-0.249992
G01 X302.705264 Y359.558433 Z-0.249992
G01 X302.925200 Y359.635197 Z-0.249992
G01 X304.257486 Y360.100243 Z-0.249992
G01 X305.811486 Y360.642674 Z-0.249992
G01 X306.380220 Y360.850841 Z-0.249992
G01 X307.705338 Y361.335925 Z-0.249992
G01 X309.600940 Y362.029853 Z-0.249992
G01 X309.709822 Y362.073484 Z-0.249992
G01 X311.125025 Y362.640666 Z-0.249992
G01 X311.230435 Y362.682915 Z-0.249992
G01 X312.639994 Y363.247839 Z-0.249992
G01 X313.237120 Y363.453974 Z-0.249992
G01 X314.570958 Y363.914476 Z-0.249992
G01 X316.504915 Y364.582157 Z-0.249992
G01 X316.764559 Y364.664961 Z-0.249992
G01 X318.108925 Y365.093770 Z-0.249992
G01 X319.715785 Y365.606285 Z-0.249992
G01 X319.948562 Y365.680538 Z-0.249992
G01 X323.981687 Y366.966935 Z-0.249992
G01 X325.527841 Y367.460090 Z-0.249992
G01 X325.482883 Y367.708164 Z0.000000
G01 X325.527841 Y367.460090 Z-0.249992
G01 X325.850732 Y367.476177 Z-0.249992
G01 X328.669454 Y367.616554 Z-0.249992
G01 X330.434218 Y367.704467 Z-0.249992
G01 X330.813073 Y367.723319 Z-0.249992
G01 X339.269270 Y368.144507 Z-0.249992
G01 X341.055115 Y368.233464 Z-0.249992
G01 X341.497132 Y368.247039 Z-0.249992
G01 X348.549357 Y368.463644 Z-0.249992
G01 X350.401074 Y368.520512 Z-0.249992
G01 X350.815968 Y368.522855 Z-0.249992
G01 X362.104660 Y368.586213 Z-0.249992
G01 X363.926799 Y368.596430 Z-0.249992
G01 X364.602665 Y368.562309 Z-0.249992
G01 X366.011998 Y368.491161 Z-0.249992
G01 X367.973132 Y368.392157 Z-0.249992
G01 X368.193294 Y368.035937 Z-0.249992
G01 X368.328394 Y367.817384 Z-0.249992
G01 X368.881634 Y367.676047 Z-0.249992
G01 X369.350631 Y367.676047 Z-0.249992
G01 X369.759938 Y367.676047 Z-0.249992
G01 X370.503255 Y367.505923 Z-0.249992
G01 X371.013625 Y367.292676 Z-0.249992
G01 X371.565285 Y367.062157 Z-0.249992
G01 X372.854843 Y366.788176 Z-0.249992
G01 X373.870307 Y366.682681 Z-0.249992
G01 X374.858028 Y366.580093 Z-0.249992
G01 X375.098651 Y366.526132 Z-0.249992
G01 X380.606359 Y365.291241 Z-0.249992
G01 X382.236474 Y364.925763 Z-0.249992
G01 X382.821521 Y364.785809 Z-0.249992
G01 X388.311082 Y363.472573 Z-0.249992
G01 X390.270240 Y363.003914 Z-0.249992
G01 X390.713273 Y362.897940 Z-0.249992
G01 X403.064785 Y359.943186 Z-0.249992
G01 X404.861129 Y359.513475 Z-0.249992
G01 X404.938373 Y359.752037 Z0.000000
G01 X404.861129 Y359.513475 Z-0.249992
G01 X405.376072 Y359.300877 Z-0.249992
G01 X411.897748 Y356.608477 Z-0.249992
G01 X413.735184 Y355.849920 Z-0.249992
G01 X414.224049 Y355.648103 Z-0.249992
G01 X416.832686 Y354.571143 Z-0.249992
G01 X418.624402 Y353.831466 Z-0.249992
G01 X418.968628 Y353.684118 Z-0.249992
G01 X421.563182 Y352.573630 Z-0.249992
G01 X423.196430 Y351.874594 Z-0.249992
G01 X423.898147 Y351.501044 Z-0.249992
G01 X424.629949 Y351.111465 Z-0.249992
G01 X425.501847 Y350.839882 Z-0.249992
G01 X425.808792 Y350.957682 Z-0.249992
G01 X426.086498 Y351.064249 Z-0.249992
G01 X426.136000 Y351.115585 Z-0.249992
G01 X427.132047 Y352.148801 Z-0.249992
G01 X427.181323 Y352.207221 Z-0.249992
G01 X428.135206 Y353.337831 Z-0.249992
G01 X428.587326 Y353.873743 Z-0.249992
G01 X430.008315 Y355.557961 Z-0.249992
G01 X430.008343 Y355.658629 Z-0.249992
G01 X430.010460 Y359.891963 Z-0.249992
G01 X430.011165 Y361.312415 Z-0.249992
G01 X430.011250 Y361.497638 Z-0.249992
G01 X430.011955 Y362.908749 Z-0.249992
G01 X430.012717 Y364.501273 Z-0.249992
G01 X430.022821 Y364.826731 Z-0.249992
G01 X430.076443 Y366.553621 Z-0.249992
G01 X430.098344 Y366.716886 Z-0.249992
G01 X430.286050 Y368.115467 Z-0.249992
G01 X430.494273 Y369.666758 Z-0.249992
G01 X430.840137 Y370.708976 Z-0.249992
G01 X431.422869 Y371.909070 Z-0.249992
G01 X431.679719 Y372.438011 Z-0.249992
G01 X432.544307 Y374.218438 Z-0.249992
G01 X432.579783 Y374.269125 Z-0.249992
G01 X433.388998 Y375.425164 Z-0.249992
G01 X434.186841 Y376.564974 Z-0.249992
G01 X434.662808 Y376.655681 Z-0.249992
G01 X434.844701 Y376.690338 Z-0.249992
G01 X435.055746 Y376.521117 Z-0.249992
G01 X435.290132 Y376.067896 Z-0.249992
G01 X435.671217 Y375.330958 Z-0.249992
G01 X435.707962 Y375.151916 Z-0.249992
G01 X436.275229 Y372.387295 Z-0.249992
G01 X436.600631 Y370.801404 Z-0.249992
G01 X436.615758 Y370.682052 Z-0.249992
G01 X436.793360 Y369.282173 Z-0.249992
G01 X436.987303 Y367.753489 Z-0.249992
G01 X437.024698 Y367.458707 Z-0.249992
G01 X437.243025 Y365.737801 Z-0.249992
G01 X437.750686 Y364.289380 Z-0.249992
G01 X438.372873 Y364.289380 Z-0.249992
G01 X438.933931 Y364.289380 Z-0.249992
G01 X439.413060 Y364.776157 Z-0.249992
G01 X441.392764 Y366.787527 Z-0.249992
G01 X442.807008 Y368.224405 Z-0.249992
G01 X442.855691 Y368.301254 Z-0.249992
G01 X443.645151 Y369.547632 Z-0.249992
G01 X444.197912 Y370.420291 Z-0.249992
G01 X444.283538 Y371.182489 Z-0.249992
G01 X444.297988 Y371.671693 Z-0.249992
G01 X444.381385 Y374.492673 Z-0.249992
G01 X444.437236 Y376.382066 Z-0.249992
G01 X444.447058 Y376.713593 Z-0.249992
G01 X444.530454 Y379.534573 Z-0.249992
G01 X444.581678 Y381.267446 Z-0.249992
G01 X444.695752 Y382.374491 Z-0.249992
G01 X444.695385 Y382.373446 Z-0.249992
G01 X445.187383 Y383.727746 Z-0.249992
G01 X445.230027 Y383.845151 Z-0.249992
G01 X445.750924 Y385.278952 Z-0.249992
G01 X446.243571 Y386.345583 Z-0.249992
G01 X446.515408 Y386.731070 Z-0.249992
G01 X447.600693 Y388.270141 Z-0.249992
G01 X448.454133 Y389.111954 Z-0.249992
G01 X448.559374 Y389.200261 Z-0.249992
G01 X449.753344 Y390.202009 Z-0.249992
G01 X450.273790 Y390.638691 Z-0.249992
G01 X451.859455 Y391.969059 Z-0.249992
G01 X452.173766 Y392.154563 Z-0.249992
G01 X452.519121 Y391.969736 Z-0.249992
G01 X452.782858 Y391.828597 Z-0.249992
G01 X452.938447 Y391.652857 Z-0.249992
G01 X452.938447 Y391.567400 Z-0.249992
G01 X452.938447 Y391.326495 Z-0.249992
G01 X453.282307 Y390.659999 Z-0.249992
G01 X453.668641 Y390.095554 Z-0.249992
G01 X454.243189 Y389.256226 Z-0.249992
G01 X454.276632 Y389.081812 Z-0.249992
G01 X454.065332 Y388.012275 Z-0.249992
G01 X454.032877 Y387.848106 Z-0.249992
G01 X453.722235 Y386.275677 Z-0.249992
G01 X453.722037 Y386.016032 Z-0.249992
G01 X453.719779 Y383.193810 Z-0.249992
G01 X453.718368 Y381.407908 Z-0.249992
G01 X454.173762 Y381.126391 Z-0.249992
G01 X454.623596 Y380.848402 Z-0.249992
G01 X455.194108 Y381.356684 Z-0.249992
G01 X457.301292 Y383.234111 Z-0.249992
G01 X458.798848 Y384.568373 Z-0.249992
G01 X459.143413 Y384.970907 Z-0.249992
G01 X460.394617 Y386.432649 Z-0.249992
G01 X460.419876 Y386.462169 Z-0.249992
G01 X461.429921 Y387.642168 Z-0.249992
G01 X461.409234 Y387.914456 Z-0.249992
G01 X461.302413 Y389.321532 Z-0.249992
G01 X461.182723 Y390.897856 Z-0.249992
G01 X461.158790 Y391.213154 Z-0.249992
G01 X461.051941 Y392.620230 Z-0.249992
G01 X460.921921 Y394.332585 Z-0.249992
G01 X460.924913 Y395.004415 Z-0.249992
G01 X460.934198 Y397.080978 Z-0.249992
G01 X460.960557 Y397.274836 Z-0.249992
G01 X461.340908 Y400.071320 Z-0.249992
G01 X461.556498 Y401.656308 Z-0.249992
G01 X461.632952 Y401.884908 Z-0.249992
G01 X462.155712 Y403.448165 Z-0.249992
G01 X462.251075 Y403.607226 Z-0.249992
G01 X463.086058 Y404.999936 Z-0.249992
G01 X463.664133 Y405.964205 Z-0.249992
G01 X463.763786 Y406.068316 Z-0.249992
G01 X464.849382 Y407.202398 Z-0.249992
G01 X464.909354 Y407.252972 Z-0.249992
G01 X465.988036 Y408.162744 Z-0.249992
G01 X467.122767 Y409.119816 Z-0.249992
G01 X468.058559 Y409.698146 Z-0.249992
G01 X468.259106 Y409.572500 Z-0.249992
G01 X468.458666 Y409.447448 Z-0.249992
G01 X468.650520 Y409.110446 Z-0.249992
G01 X468.693277 Y408.786709 Z-0.249992
G01 X468.783278 Y408.105791 Z-0.249992
G01 X468.853184 Y407.805874 Z-0.249992
G01 X469.814433 Y403.683115 Z-0.249992
G01 X470.202855 Y402.017073 Z-0.249992
G01 X470.295029 Y401.670758 Z-0.249992
G01 X470.749125 Y399.964527 Z-0.249992
G01 X470.911233 Y399.355379 Z-0.249992
G01 X471.244340 Y398.720491 Z-0.249992
G01 X471.546007 Y398.720491 Z-0.249992
G01 X472.105682 Y398.720491 Z-0.249992
G01 X472.495742 Y399.059045 Z-0.249992
G01 X474.627112 Y400.908955 Z-0.249992
G01 X476.028317 Y402.125136 Z-0.249992
G01 X476.170501 Y402.298477 Z-0.249992
G01 X477.194177 Y403.546463 Z-0.249992
G01 X477.293519 Y403.667593 Z-0.249992
G01 X478.351063 Y404.956869 Z-0.249992
G01 X478.333311 Y405.201189 Z-0.249992
G01 X478.231090 Y406.608603 Z-0.249992
G01 X478.118370 Y408.160825 Z-0.249992
G01 X478.113093 Y408.233356 Z-0.249992
G01 X478.010900 Y409.640742 Z-0.249992
G01 X477.903543 Y411.118824 Z-0.249992
G01 X477.897334 Y411.226859 Z-0.249992
G01 X477.810861 Y412.726926 Z-0.249992
G01 X477.855650 Y413.216526 Z-0.249992
G01 X478.027382 Y415.093868 Z-0.249992
G01 X478.326650 Y415.846300 Z-0.249992
G01 X478.326001 Y415.844918 Z-0.249992
G01 X478.927078 Y417.128154 Z-0.249992
G01 X479.117324 Y417.534300 Z-0.249992
G01 X479.893238 Y419.190831 Z-0.249992
G01 X480.200295 Y419.570646 Z-0.249992
G01 X480.715577 Y419.997846 Z-0.249992
G01 X482.336407 Y421.341590 Z-0.249992
G01 X482.567265 Y421.532994 Z-0.249992
G01 X483.880925 Y422.622089 Z-0.249992
G01 X484.578973 Y423.159017 Z-0.249992
G01 X485.274482 Y422.885318 Z-0.249992
G01 X485.400720 Y422.028548 Z-0.249992
G01 X485.431651 Y421.745704 Z-0.249992
G01 X485.616479 Y420.055476 Z-0.249992
G01 X485.674052 Y419.529131 Z-0.249992
G01 X485.827440 Y418.126374 Z-0.249992
G01 X486.039925 Y416.183500 Z-0.249992
G01 X486.114093 Y415.851550 Z-0.249992
G01 X486.536664 Y413.960492 Z-0.249992
G01 X487.177196 Y413.960492 Z-0.249992
G01 X487.797915 Y413.960492 Z-0.249992
G01 X488.247608 Y414.305706 Z-0.249992
G01 X489.767544 Y415.472469 Z-0.249992
G01 X489.909643 Y415.630344 Z-0.249992
G01 X490.980310 Y416.820052 Z-0.249992
G01 X491.037488 Y416.883580 Z-0.249992
G01 X492.102820 Y418.067305 Z-0.249992
G01 X492.102820 Y418.400158 Z-0.249992
G01 X492.102820 Y419.811269 Z-0.249992
G01 X492.102820 Y421.459305 Z-0.249992
G01 X492.102820 Y421.940212 Z-0.249992
G01 X492.102820 Y423.820574 Z-0.249992
G01 X492.117496 Y423.977461 Z-0.249992
G01 X492.262445 Y425.527002 Z-0.249992
G01 X492.330574 Y425.759356 Z-0.249992
G01 X492.727717 Y427.113430 Z-0.249992
G01 X493.192678 Y428.698729 Z-0.249992
G01 X493.241615 Y428.791241 Z-0.249992
G01 X493.955948 Y430.141900 Z-0.249992
G01 X494.173795 Y430.466625 Z-0.249992
G01 X495.185138 Y431.973974 Z-0.249992
G01 X495.385798 Y432.273073 Z-0.249992
G01 X496.368581 Y433.737891 Z-0.249992
G01 X496.405467 Y433.786433 Z-0.249992
G01 X497.290657 Y434.951673 Z-0.249992
G01 X497.509464 Y435.173697 Z-0.249992
G01 X498.698466 Y436.380056 Z-0.249992
G01 X499.048930 Y436.543152 Z-0.249992
G01 X499.278010 Y436.399444 Z-0.249992
G01 X499.723949 Y436.119706 Z-0.249992
G01 X499.744072 Y435.986215 Z-0.249992
G01 X499.988928 Y434.360586 Z-0.249992
G01 X499.994120 Y433.989013 Z-0.249992
G01 X500.013791 Y432.578043 Z-0.249992
G01 X500.038909 Y430.778509 Z-0.249992
G01 X500.056068 Y429.547173 Z-0.249992
G01 X500.213464 Y428.447861 Z-0.249992
G01 X500.241093 Y428.360288 Z-0.249992
G01 X500.700128 Y426.905658 Z-0.249992
G01 X501.137431 Y426.325212 Z-0.249992
G01 X501.636823 Y426.432710 Z-0.249992
G01 X502.176855 Y426.548957 Z-0.249992
G01 X502.359510 Y426.689419 Z-0.249992
G01 X504.596713 Y428.409846 Z-0.249992
G01 X505.861577 Y429.382553 Z-0.249992
G01 X506.292163 Y429.774898 Z-0.249992
G01 X507.758082 Y431.110600 Z-0.249992
G01 X508.372960 Y431.670867 Z-0.249992
G01 X508.727882 Y432.009393 Z-0.249992
G01 X509.244377 Y433.212478 Z-0.249992
G01 X509.420004 Y434.069559 Z-0.249992
G01 X509.443457 Y434.187528 Z-0.249992
G01 X509.741907 Y435.688809 Z-0.249992
G01 X509.761662 Y435.788123 Z-0.249992
G01 X510.036801 Y437.172141 Z-0.249992
G01 X510.328280 Y438.638426 Z-0.249992
G01 X510.462787 Y439.024365 Z-0.249992
G01 X511.056329 Y440.727548 Z-0.249992
G01 X511.055877 Y440.726899 Z-0.249992
G01 X511.855751 Y441.889429 Z-0.249992
G01 X512.662540 Y443.061977 Z-0.249992
G01 X513.266213 Y443.687579 Z-0.249992
G01 X513.426318 Y443.806621 Z-0.249992
G01 X514.719827 Y444.768236 Z-0.249992
G01 X515.543154 Y445.201617 Z-0.249992
G01 X516.517385 Y445.577339 Z-0.249992
G01 X516.642579 Y445.625627 Z-0.249992
G01 X518.072175 Y446.176920 Z-0.249992
G01 X519.036303 Y446.436932 Z-0.249992
G01 X519.003085 Y446.440601 Z-0.249992
G01 X520.327780 Y446.294043 Z-0.249992
G01 X520.641075 Y445.960569 Z-0.249992
G01 X520.961171 Y445.187760 Z-0.249992
G01 X521.232867 Y444.531819 Z-0.249992
G01 X521.209668 Y444.272569 Z-0.249992
G01 X520.748348 Y443.031413 Z-0.249992
G01 X520.437141 Y442.194059 Z-0.249992
G01 X520.403359 Y442.060512 Z-0.249992
G01 X520.024448 Y440.562053 Z-0.249992
G01 X519.831972 Y439.410106 Z-0.249992
G01 X519.804625 Y439.246474 Z-0.249992
G01 X519.541057 Y437.668711 Z-0.249992
G01 X519.549270 Y437.121228 Z-0.249992
G01 X519.944127 Y436.751263 Z-0.249992
G01 X520.221495 Y436.491336 Z-0.249992
G01 X521.565466 Y436.259857 Z-0.249992
G01 X521.634751 Y436.255680 Z-0.249992
G01 X523.098779 Y436.167627 Z-0.249992
G01 X523.702227 Y436.131333 Z-0.249992
G01 X525.850530 Y436.002104 Z-0.249992
G01 X526.561194 Y436.974726 Z-0.249992
G01 X526.895345 Y437.431983 Z-0.249992
G01 X527.024208 Y437.557289 Z-0.249992
G01 X528.174405 Y438.675821 Z-0.249992
G01 X528.255177 Y438.745445 Z-0.249992
G01 X529.410482 Y439.741238 Z-0.249992
G01 X529.621245 Y439.922904 Z-0.249992
G01 X530.888903 Y441.015499 Z-0.249992
G01 X530.883512 Y441.011943 Z-0.249992
G01 X532.039946 Y441.777527 Z-0.249992
G01 X532.039015 Y441.777245 Z-0.249992
G01 X533.379514 Y442.218048 Z-0.249992
G01 X534.721734 Y442.659415 Z-0.249992
G01 X534.762657 Y442.662379 Z-0.249992
G01 X536.228773 Y442.768918 Z-0.249992
G01 X536.614204 Y442.756923 Z-0.249992
G01 X538.423022 Y442.700620 Z-0.249992
G01 X538.969433 Y442.683630 Z-0.249992
G01 X540.908554 Y442.623291 Z-0.249992
G01 X541.456121 Y442.527900 Z-0.249992
G01 X541.891703 Y442.133184 Z-0.249992
G01 X542.193173 Y441.859965 Z-0.249992
G01 X542.402836 Y441.531486 Z-0.249992
G01 X542.402836 Y441.388936 Z-0.249992
G01 X542.402836 Y441.256094 Z-0.249992
G01 X542.373174 Y441.216159 Z-0.249992
G01 X541.458097 Y439.983751 Z-0.249992
G01 X541.311426 Y439.812132 Z-0.249992
G01 X540.242509 Y438.561210 Z-0.249992
G01 X540.090278 Y438.383071 Z-0.249992
G01 X539.013544 Y437.123006 Z-0.249992
G01 X538.683006 Y436.651158 Z-0.249992
G01 X537.539272 Y435.018559 Z-0.249992
G01 X536.971582 Y433.889473 Z-0.249992
G01 X536.779840 Y433.508191 Z-0.249992
G01 X535.881075 Y431.720680 Z-0.249992
G01 X536.174276 Y431.364543 Z-0.249992
G01 X537.260831 Y430.044703 Z-0.249992
G01 X537.968955 Y429.184546 Z-0.249992
G01 X538.741792 Y428.382104 Z-0.249992
G01 X538.981258 Y428.292724 Z-0.249992
G01 X539.216660 Y428.204840 Z-0.249992
G01 X540.382463 Y428.271021 Z-0.249992
G01 X541.555096 Y428.418256 Z-0.249992
G01 X541.636715 Y428.428501 Z-0.249992
G01 X543.106641 Y428.613074 Z-0.249992
G01 X544.303800 Y428.648662 Z-0.249992
G01 X544.774970 Y428.583921 Z-0.249992
G01 X546.643704 Y428.327155 Z-0.249992
G01 X547.763223 Y427.973530 Z-0.249992
G01 X547.806940 Y427.954734 Z-0.249992
G01 X549.158699 Y427.374034 Z-0.249992
G01 X549.576473 Y427.194541 Z-0.249992
G01 X551.266843 Y426.468383 Z-0.249992
G01 X551.707448 Y426.158051 Z-0.249992
G01 X551.731127 Y426.126696 Z-0.249992
G01 X552.628622 Y424.937920 Z-0.249992
G01 X553.197695 Y424.184217 Z-0.249992
G01 X553.713484 Y423.096194 Z-0.249992
G01 X553.840823 Y422.706530 Z-0.249992
G01 X554.405521 Y420.978624 Z-0.249992
G01 X554.563255 Y420.023359 Z-0.249992
G01 X554.431909 Y419.500006 Z-0.249992
G01 X554.350826 Y419.176918 Z-0.249992
G01 X554.062875 Y418.638381 Z-0.249992
G01 X553.782995 Y418.292800 Z-0.249992
G01 X553.325852 Y417.728215 Z-0.249992
G01 X553.283462 Y417.722344 Z-0.249992
G01 X553.247733 Y417.722062 Z-0.249992
G01 X550.425567 Y417.701375 Z-0.249992
G01 X548.962442 Y417.690651 Z-0.249992
G01 X548.352786 Y417.686164 Z-0.249992
G01 X546.324539 Y417.671319 Z-0.249992
G01 X545.937641 Y417.645213 Z-0.249992
G01 X544.109349 Y417.521797 Z-0.249992
G01 X543.615432 Y417.317102 Z-0.249992
G01 X542.685058 Y416.931473 Z-0.249992
G01 X542.685058 Y416.334178 Z-0.249992
G01 X542.685058 Y414.923067 Z-0.249992
G01 X542.685058 Y413.081652 Z-0.249992
G01 X542.685058 Y412.651347 Z-0.249992
G01 X542.685058 Y411.240236 Z-0.249992
G01 X542.685058 Y409.255734 Z-0.249992
G01 X542.854843 Y409.155997 Z-0.249992
G01 X544.117985 Y408.414091 Z-0.249992
G01 X544.835563 Y407.992620 Z-0.249992
G01 X544.997051 Y407.892290 Z-0.249992
G01 X546.358180 Y407.046583 Z-0.249992
G01 X547.502535 Y406.311112 Z-0.249992
G01 X548.484583 Y405.679979 Z-0.249992
G01 X548.990185 Y405.335159 Z-0.249992
G01 X549.762853 Y404.453469 Z-0.249992
G01 X550.027182 Y403.920436 Z-0.249992
G01 X550.502162 Y402.889083 Z-0.249992
G01 X550.685973 Y402.489936 Z-0.249992
G01 X551.447381 Y400.836594 Z-0.249992
G01 X551.478989 Y400.672594 Z-0.249992
G01 X551.457202 Y400.300851 Z-0.249992
G01 X551.350973 Y398.489182 Z-0.249992
G01 X551.333673 Y398.193978 Z-0.249992
G01 X551.235178 Y396.514022 Z-0.249992
G01 X550.970171 Y395.475811 Z-0.249992
G01 X550.939691 Y395.455745 Z-0.249992
G01 X549.737029 Y394.663462 Z-0.249992
G01 X548.758988 Y394.868892 Z-0.249992
G01 X548.557877 Y394.958582 Z-0.249992
G01 X547.043670 Y395.633912 Z-0.249992
G01 X546.654965 Y395.807281 Z-0.249992
G01 X545.366225 Y396.382055 Z-0.249992
G01 X543.673372 Y397.137084 Z-0.249992
G01 X543.588508 Y397.161947 Z-0.249992
G01 X542.234292 Y397.558611 Z-0.249992
G01 X540.705833 Y398.006328 Z-0.249992
G01 X540.039761 Y397.603371 Z-0.249992
G01 X539.387348 Y397.208683 Z-0.249992
G01 X539.207064 Y396.852971 Z-0.249992
G01 X538.413088 Y395.286440 Z-0.249992
G01 X538.222955 Y394.723971 Z-0.249992
G01 X537.586742 Y392.841661 Z-0.249992
G01 X537.248385 Y391.840591 Z-0.249992
G01 X536.808373 Y390.777403 Z-0.249992
G01 X536.609462 Y390.470825 Z-0.249992
G01 X536.199196 Y389.838450 Z-0.249992
G01 X536.369517 Y389.300817 Z-0.249992
G01 X536.522848 Y388.981595 Z-0.249992
G01 X537.133775 Y387.709591 Z-0.249992
G01 X537.890413 Y386.134283 Z-0.249992
G01 X538.112268 Y385.672398 Z-0.249992
G01 X538.942876 Y383.943025 Z-0.249992
G01 X539.020656 Y383.762883 Z-0.249992
G01 X539.655713 Y382.291997 Z-0.249992
G01 X539.678601 Y382.224264 Z-0.249992
G01 X540.130241 Y380.887377 Z-0.249992
G01 X540.603020 Y379.487865 Z-0.249992
G01 X540.833426 Y378.354912 Z-0.249992
G01 X540.922439 Y377.177481 Z-0.249992
G01 X540.925684 Y377.134386 Z-0.249992
G01 X541.034340 Y375.696802 Z-0.249992
G01 X541.002900 Y374.478844 Z-0.249992
G01 X540.954048 Y374.201843 Z-0.249992
G01 X540.661920 Y372.545876 Z-0.249992
G01 X540.375464 Y371.885504 Z-0.249992
G01 X539.952187 Y371.462227 Z-0.249992
G01 X539.555608 Y371.065649 Z-0.249992
G01 X538.947053 Y370.760058 Z-0.249992
G01 X537.701267 Y370.424468 Z-0.249992
G01 X537.172411 Y370.411937 Z-0.249992
G01 X536.880311 Y370.589116 Z-0.249992
G01 X536.686537 Y370.706634 Z-0.249992
G01 X536.662831 Y370.745919 Z-0.249992
G01 X535.882797 Y372.037509 Z-0.249992
G01 X535.813850 Y372.174500 Z-0.249992
G01 X535.106121 Y373.580531 Z-0.249992
G01 X534.949177 Y373.892386 Z-0.249992
G01 X534.314770 Y375.152847 Z-0.249992
G01 X533.516109 Y376.739642 Z-0.249992
G01 X533.129775 Y377.309477 Z-0.249992
G01 X532.337916 Y378.477482 Z-0.249992
G01 X531.094445 Y380.311616 Z-0.249992
G01 X530.412766 Y380.311616 Z-0.249992
G01 X530.126903 Y380.311616 Z-0.249992
G01 X529.380820 Y379.704894 Z-0.249992
G01 X528.754851 Y379.032500 Z-0.249992
G01 X528.145449 Y378.377970 Z-0.249992
G01 X528.067584 Y378.303209 Z-0.249992
G01 X526.970812 Y377.250323 Z-0.249992
G01 X526.142320 Y376.524758 Z-0.249992
G01 X525.916034 Y376.326581 Z-0.249992
G01 X524.533625 Y375.115904 Z-0.249992
G01 X524.587106 Y374.451892 Z-0.249992
G01 X524.743796 Y372.506619 Z-0.249992
G01 X524.854201 Y371.135978 Z-0.249992
G01 X524.908557 Y370.670171 Z-0.249992
G01 X525.126433 Y368.803158 Z-0.249992
G01 X525.133009 Y368.759498 Z-0.249992
G01 X525.348542 Y367.324483 Z-0.249992
G01 X525.354497 Y367.284915 Z-0.249992
G01 X525.568732 Y365.858225 Z-0.249992
G01 X525.601639 Y365.455268 Z-0.249992
G01 X525.749213 Y363.647494 Z-0.249992
G01 X525.750116 Y362.407522 Z-0.249992
G01 X525.750567 Y362.078113 Z-0.249992
G01 X525.752882 Y360.368100 Z-0.249992
G01 X525.666098 Y360.015237 Z-0.249992
G01 X525.478957 Y359.628198 Z-0.249992
G01 X524.666015 Y357.947169 Z-0.249992
G01 X524.567717 Y357.743885 Z-0.249992
G01 X523.864420 Y356.289565 Z-0.249992
G01 X523.382610 Y355.617340 Z-0.249992
G01 X522.814722 Y355.323660 Z-0.249992
G01 X521.913925 Y354.857852 Z-0.249992
G01 X521.901649 Y354.857203 Z-0.249992
G01 X520.505495 Y354.783684 Z-0.249992
G01 X519.925952 Y355.148061 Z-0.249992
G01 X519.754051 Y355.256124 Z-0.249992
G01 X519.551669 Y355.676466 Z-0.249992
G01 X518.708615 Y357.427203 Z-0.249992
G01 X518.440475 Y358.067227 Z-0.249992
G01 X517.624571 Y360.014758 Z-0.249992
G01 X517.353920 Y360.660793 Z-0.249992
G01 X516.535729 Y362.613827 Z-0.249992
G01 X516.319829 Y363.067217 Z-0.249992
G01 X515.454056 Y364.885349 Z-0.249992
G01 X515.176717 Y364.977692 Z-0.249992
G01 X514.625678 Y365.161136 Z-0.249992
G01 X514.467803 Y365.003656 Z-0.249992
G01 X511.470574 Y362.014048 Z-0.249992
G01 X510.395223 Y360.941434 Z-0.249992
G01 X509.802331 Y359.794907 Z-0.249992
G01 X509.373381 Y358.965427 Z-0.249992
G01 X509.403551 Y358.593656 Z-0.249992
G01 X509.567268 Y357.958148 Z-0.249992
G01 X510.077667 Y355.976920 Z-0.249992
G01 X510.215645 Y355.441262 Z-0.249992
G01 X510.700898 Y353.557626 Z-0.249992
G01 X510.793805 Y352.626321 Z-0.249992
G01 X510.793608 Y352.127662 Z-0.249992
G01 X510.793100 Y350.716551 Z-0.249992
G01 X510.792423 Y348.794308 Z-0.249992
G01 X510.792084 Y348.162722 Z-0.249992
G01 X510.791011 Y346.124344 Z-0.249992
G01 X510.788189 Y346.043798 Z-0.249992
G01 X510.736655 Y344.572150 Z-0.249992
G01 X510.665394 Y344.256485 Z-0.249992
G01 X510.291930 Y342.602408 Z-0.249992
G01 X509.947506 Y342.202951 Z-0.249992
G01 X509.269749 Y341.760794 Z-0.249992
G01 X509.211611 Y341.722863 Z-0.249992
G01 X508.005393 Y340.935943 Z-0.249992
G01 X507.092405 Y340.694840 Z-0.249992
G01 X506.989760 Y340.735396 Z-0.249992
G01 X505.569590 Y341.296707 Z-0.249992
G01 X504.994054 Y342.136685 Z-0.249992
G01 X504.968710 Y342.213873 Z-0.249992
G01 X504.491924 Y343.665624 Z-0.249992
G01 X504.309976 Y344.219655 Z-0.249992
G01 X503.683640 Y346.126771 Z-0.249992
G01 X503.592764 Y346.329181 Z-0.249992
G01 X503.014801 Y347.616510 Z-0.249992
G01 X502.335126 Y349.130321 Z-0.249992
G01 X501.722732 Y349.807034 Z-0.249992
G01 X501.442146 Y350.117083 Z-0.249992
G01 X500.937533 Y350.393040 Z-0.249992
G01 X500.623166 Y350.386238 Z-0.249992
G01 X500.288563 Y350.378985 Z-0.249992
G01 X500.037385 Y350.170875 Z-0.249992
G01 X498.759680 Y349.112203 Z-0.249992
G01 X498.497073 Y348.860319 Z-0.249992
G01 X497.222614 Y347.637958 Z-0.249992
G01 X497.181437 Y347.598476 Z-0.249992
G01 X496.163038 Y346.621704 Z-0.249992
G01 X495.092570 Y345.595008 Z-0.249992
G01 X494.372988 Y344.715773 Z-0.249992
G01 X494.572011 Y344.201988 Z-0.249992
G01 X494.643215 Y344.018148 Z-0.249992
G01 X495.152880 Y342.702287 Z-0.249992
G01 X495.726102 Y341.222342 Z-0.249992
G01 X495.780543 Y340.954456 Z-0.249992
G01 X496.342729 Y338.188792 Z-0.249992
G01 X496.677501 Y336.541856 Z-0.249992
G01 X496.678263 Y335.906404 Z-0.249992
G01 X496.680747 Y333.834836 Z-0.249992
G01 X496.681227 Y333.466988 Z-0.249992
G01 X496.683513 Y331.716533 Z-0.249992
G01 X496.628959 Y331.479043 Z-0.249992
G01 X496.312983 Y330.103746 Z-0.249992
G01 X495.955549 Y328.547996 Z-0.249992
G01 X495.416137 Y328.116224 Z-0.249992
G01 X494.937573 Y327.733135 Z-0.249992
G01 X493.927697 Y327.721903 Z-0.249992
G01 X493.823952 Y327.748009 Z-0.249992
G01 X492.320414 Y328.126610 Z-0.249992
G01 X491.270152 Y328.391080 Z-0.249992
G01 X491.048664 Y328.585672 Z-0.249992
G01 X490.902275 Y328.805862 Z-0.249992
G01 X489.956323 Y330.228742 Z-0.249992
G01 X489.269535 Y331.261873 Z-0.249992
G01 X489.273063 Y331.255749 Z-0.249992
G01 X488.576679 Y332.460696 Z-0.249992
G01 X488.411043 Y332.897040 Z-0.249992
G01 X488.378785 Y332.982017 Z-0.249992
G01 X487.834350 Y334.416242 Z-0.249992
G01 X487.600360 Y334.745060 Z-0.249992
G01 X486.474547 Y336.327282 Z-0.249992
G01 X485.880864 Y336.217780 Z-0.249992
G01 X485.577363 Y336.161787 Z-0.249992
G01 X485.382770 Y335.983338 Z-0.249992
G01 X484.195292 Y334.894440 Z-0.249992
G01 X483.986561 Y334.677298 Z-0.249992
G01 X482.805291 Y333.448559 Z-0.249992
G01 X482.524565 Y333.156572 Z-0.249992
G01 X481.546608 Y332.139302 Z-0.249992
G01 X480.183955 Y330.721897 Z-0.249992
G01 X480.310729 Y330.333192 Z-0.249992
G01 X480.748315 Y328.991621 Z-0.249992
G01 X481.266164 Y327.404008 Z-0.249992
G01 X481.332204 Y327.201570 Z-0.249992
G01 X481.832725 Y325.667071 Z-0.249992
G01 X481.898737 Y325.392046 Z-0.249992
G01 X482.289558 Y323.763962 Z-0.249992
G01 X482.289558 Y323.166865 Z-0.249992
G01 X482.289558 Y321.799357 Z-0.249992
G01 X482.290010 Y321.802123 Z-0.249992
G01 X482.053875 Y320.410908 Z-0.249992
G01 X481.819009 Y319.027088 Z-0.249992
G01 X481.412835 Y317.991332 Z-0.249992
G01 X481.083115 Y317.150367 Z-0.249992
G01 X481.055288 Y317.123668 Z-0.249992
G01 X479.019449 Y315.169138 Z-0.249992
G01 X478.043073 Y314.231737 Z-0.249992
G01 X477.756279 Y314.327326 Z-0.249992
G01 X477.702967 Y314.345106 Z-0.249992
G01 X477.209502 Y315.438604 Z-0.249992
G01 X477.197112 Y315.473261 Z-0.249992
G01 X476.706836 Y316.846385 Z-0.249992
G01 X476.689141 Y316.895971 Z-0.249992
G01 X476.191696 Y318.289218 Z-0.249992
G01 X476.123539 Y318.424261 Z-0.249992
G01 X475.420890 Y319.816435 Z-0.249992
G01 X475.062666 Y320.377408 Z-0.249992
G01 X473.940973 Y322.134072 Z-0.249992
G01 X473.148832 Y323.020504 Z-0.249992
G01 X472.634934 Y323.020504 Z-0.249992
G01 X472.006255 Y323.020504 Z-0.249992
G01 X471.815699 Y322.805140 Z-0.249992
G01 X469.010128 Y319.634995 Z-0.249992
G01 X467.896225 Y318.376283 Z-0.249992
G01 X467.896225 Y317.698414 Z-0.249992
G01 X467.896225 Y317.494508 Z-0.249992
G01 X468.150902 Y316.590522 Z-0.249992
G01 X468.450622 Y315.697091 Z-0.249992
G01 X468.777266 Y314.723340 Z-0.249992
G01 X468.969939 Y313.469624 Z-0.249992
G01 X468.974229 Y313.361251 Z-0.249992
G01 X469.030025 Y311.951240 Z-0.249992
G01 X469.090223 Y310.429047 Z-0.249992
G01 X469.082772 Y310.256214 Z-0.249992
G01 X469.014220 Y308.671508 Z-0.249992
G01 X468.984051 Y308.396764 Z-0.249992
G01 X468.798856 Y306.711136 Z-0.249992
G01 X468.741029 Y306.184904 Z-0.249992
G01 X468.530040 Y304.264438 Z-0.249992
G01 X468.523238 Y304.226451 Z-0.249992
G01 X468.272568 Y302.828040 Z-0.249992
G01 X468.165973 Y302.620889 Z-0.249992
G01 X467.439110 Y301.208141 Z-0.249992
G01 X466.942794 Y301.007171 Z-0.249992
G01 X465.998026 Y301.007171 Z-0.249992
G01 X465.301841 Y301.007171 Z-0.249992
G01 X464.932722 Y301.138376 Z-0.249992
G01 X464.969185 Y301.084584 Z-0.249992
G01 X464.188333 Y302.236531 Z-0.249992
G01 X463.878030 Y303.216773 Z-0.249992
G01 X463.840127 Y303.372842 Z-0.249992
G01 X463.467029 Y304.908413 Z-0.249992
G01 X463.404658 Y305.165094 Z-0.249992
G01 X463.007205 Y306.800939 Z-0.249992
G01 X462.978051 Y306.893931 Z-0.249992
G01 X462.525649 Y308.337780 Z-0.249992
G01 X462.350332 Y308.746748 Z-0.249992
G01 X461.612773 Y310.467288 Z-0.249992
G01 X461.099608 Y311.167171 Z-0.249992
G01 X460.622935 Y311.167171 Z-0.249992
G01 X460.256328 Y311.167171 Z-0.249992
G01 X460.049403 Y310.990584 Z-0.249992
G01 X458.830570 Y309.950426 Z-0.249992
G01 X458.629571 Y309.744630 Z-0.249992
G01 X457.450672 Y308.537339 Z-0.249992
G01 X457.397812 Y308.483209 Z-0.249992
G01 X456.411954 Y307.473616 Z-0.249992
G01 X455.360337 Y306.396627 Z-0.249992
G01 X454.891764 Y305.748476 Z-0.249992
G01 X455.096205 Y305.111303 Z-0.249992
G01 X455.147259 Y304.952242 Z-0.249992
G01 X455.621590 Y303.473962 Z-0.249992
G01 X455.747744 Y302.290125 Z-0.249992
G01 X455.748223 Y302.014478 Z-0.249992
G01 X455.750820 Y300.603367 Z-0.249992
G01 X455.753924 Y298.903543 Z-0.249992
G01 X455.754912 Y298.347847 Z-0.249992
G01 X455.757452 Y296.936736 Z-0.249992
G01 X455.760952 Y294.986439 Z-0.249992
G01 X455.677188 Y294.347488 Z-0.249992
G01 X455.415145 Y292.348536 Z-0.249992
G01 X454.788273 Y291.373205 Z-0.249992
G01 X454.335560 Y290.668806 Z-0.249992
G01 X453.513334 Y290.245473 Z-0.249992
G01 X453.370586 Y290.225774 Z-0.249992
G01 X451.838091 Y290.014305 Z-0.249992
G01 X451.143232 Y290.202434 Z-0.249992
G01 X450.848620 Y290.752937 Z-0.249992
G01 X450.690096 Y291.049129 Z-0.249992
G01 X450.686116 Y291.062224 Z-0.249992
G01 X450.266085 Y292.443137 Z-0.249992
G01 X450.260779 Y292.464106 Z-0.249992
G01 X449.908538 Y293.859018 Z-0.249992
G01 X449.861011 Y294.047204 Z-0.249992
G01 X449.515515 Y295.415361 Z-0.249992
G01 X449.118118 Y296.988947 Z-0.249992
G01 X449.053178 Y297.147161 Z-0.249992
G01 X448.395488 Y298.749393 Z-0.249992
G01 X447.736273 Y298.749393 Z-0.249992
G01 X447.138752 Y298.749393 Z-0.249992
G01 X446.936794 Y298.543822 Z-0.249992
G01 X441.991753 Y293.511179 Z-0.249992
G01 X440.802271 Y292.300615 Z-0.249992
G01 X440.804105 Y291.698437 Z-0.249992
G01 X440.804105 Y291.420787 Z-0.249992
G01 X441.221342 Y290.604431 Z-0.249992
G01 X441.696322 Y289.893796 Z-0.249992
G01 X442.151208 Y289.213245 Z-0.249992
G01 X442.587637 Y288.227471 Z-0.249992
G01 X442.675492 Y287.692829 Z-0.249992
G01 X442.807685 Y286.888298 Z-0.249992
G01 X443.409468 Y285.995517 Z-0.249992
G01 X443.929857 Y285.523302 Z-0.249992
G01 X445.485043 Y284.112078 Z-0.249992
G01 X445.661855 Y283.989622 Z-0.249992
G01 X446.992984 Y283.067659 Z-0.249992
G01 X447.386430 Y282.837055 Z-0.249992
G01 X448.989142 Y281.897650 Z-0.249992
G01 X449.306445 Y281.711637 Z-0.249992
G01 X450.845261 Y280.809683 Z-0.249992
G01 X451.121529 Y280.661545 Z-0.249992
G01 X452.663676 Y279.834605 Z-0.249992
G01 X453.025738 Y279.740936 Z-0.249992
G01 X453.510173 Y279.615629 Z-0.249992
G01 X454.211072 Y279.892405 Z-0.249992
G01 X455.041228 Y280.493735 Z-0.249992
G01 X456.053588 Y281.227090 Z-0.249992
G01 X456.363835 Y281.316046 Z-0.249992
G01 X456.422988 Y281.316046 Z-0.249992
G01 X457.928418 Y281.316046 Z-0.249992
G01 X459.107768 Y281.316046 Z-0.249992
G01 X459.983871 Y281.120325 Z-0.249992
G01 X460.259235 Y280.949835 Z-0.249992
G01 X461.743272 Y280.031089 Z-0.249992
G01 X462.589600 Y279.147056 Z-0.249992
G01 X462.691172 Y279.013565 Z-0.249992
G01 X463.655723 Y277.745794 Z-0.249992
G01 X464.033732 Y277.248970 Z-0.249992
G01 X465.215170 Y275.696099 Z-0.249992
G01 X465.465106 Y275.780483 Z0.000000
G01 X465.215170 Y275.696099 Z-0.249992
G01 X465.215283 Y275.568619 Z-0.249992
G01 X465.217682 Y272.746397 Z-0.249992
G01 X465.219065 Y271.123591 Z-0.249992
G01 X465.219093 Y271.093844 Z-0.249992
G01 X465.220476 Y269.682733 Z-0.249992
G01 X465.221859 Y268.249383 Z-0.249992
G01 X465.197164 Y267.831694 Z-0.249992
G01 X465.090287 Y266.024484 Z-0.249992
G01 X464.878507 Y265.264262 Z-0.249992
G01 X464.678581 Y264.546656 Z-0.249992
G01 X464.675872 Y264.522893 Z-0.249992
G01 X464.514187 Y263.102892 Z-0.249992
G01 X464.512465 Y262.063862 Z-0.249992
G01 X464.512070 Y261.837548 Z-0.249992
G01 X464.509530 Y260.303642 Z-0.249992
G01 X464.759353 Y260.199728 Z0.000000
G01 X464.509530 Y260.303642 Z-0.249992
G01 X464.443490 Y260.237743 Z-0.249992
G01 X461.446600 Y257.247825 Z-0.249992
G01 X460.308342 Y256.112191 Z-0.249992
G01 X460.255651 Y256.059641 Z-0.249992
G01 X459.256669 Y255.063001 Z-0.249992
G01 X458.204855 Y254.013614 Z-0.249992
G01 X458.169718 Y253.978421 Z-0.249992
G01 X457.126935 Y252.933804 Z-0.249992
G01 X457.065721 Y252.855092 Z-0.249992
G01 X456.047181 Y251.545440 Z-0.249992
G01 X456.229525 Y251.210640 Z-0.249992
G01 X456.462387 Y250.881286 Z-0.249992
G01 X456.606094 Y250.678030 Z-0.249992
G01 X457.420700 Y249.525801 Z-0.249992
G01 X458.371225 Y248.181379 Z-0.249992
G01 X459.000496 Y247.049273 Z-0.249992
G01 X459.151852 Y246.638047 Z-0.249992
G01 X459.797350 Y244.884375 Z-0.249992
G01 X459.976505 Y244.397654 Z-0.249992
G01 X460.634478 Y242.610002 Z-0.249992
G01 X460.697470 Y242.206114 Z-0.249992
G01 X460.697018 Y242.141485 Z-0.249992
G01 X460.687338 Y240.730402 Z-0.249992
G01 X460.677093 Y239.234427 Z-0.249992
G01 X460.676839 Y239.198980 Z-0.249992
G01 X460.667216 Y237.787897 Z-0.249992
G01 X460.657479 Y236.360247 Z-0.249992
G01 X460.569143 Y235.804890 Z-0.249992
G01 X460.445812 Y235.477089 Z-0.249992
G01 X459.816739 Y233.804838 Z-0.249992
G01 X459.683756 Y233.451355 Z-0.249992
G01 X459.186904 Y232.130611 Z-0.249992
G01 X458.562346 Y230.470326 Z-0.249992
G01 X458.521508 Y230.391642 Z-0.249992
G01 X457.871409 Y229.139168 Z-0.249992
G01 X457.191592 Y227.829432 Z-0.249992
G01 X456.230344 Y226.873460 Z-0.249992
G01 X456.010803 Y226.655105 Z-0.249992
G01 X454.801481 Y225.452358 Z-0.249992
G01 X454.412691 Y225.149562 Z-0.249992
G01 X452.914994 Y223.983110 Z-0.249992
G01 X452.898005 Y223.973909 Z-0.249992
G01 X451.622191 Y223.282493 Z-0.249992
G01 X451.563404 Y223.250630 Z-0.249992
G01 X450.259453 Y222.543974 Z-0.249992
G01 X450.254824 Y222.541208 Z-0.249992
G01 X446.618758 Y220.373205 Z-0.249992
G01 X445.404863 Y219.649418 Z-0.249992
G01 X444.883655 Y219.327459 Z-0.249992
G01 X443.683110 Y218.585892 Z-0.249992
G01 X441.963022 Y217.523381 Z-0.249992
G01 X441.957237 Y217.519825 Z-0.249992
G01 X440.751217 Y216.774843 Z-0.249992
G01 X440.527330 Y216.637458 Z-0.249992
G01 X439.100979 Y215.762004 Z-0.249992
G01 X438.295657 Y215.272490 Z-0.249992
G01 X437.781449 Y214.959929 Z-0.249992
G01 X435.369775 Y213.494038 Z-0.249992
G01 X433.646724 Y212.446683 Z-0.249992
G01 X433.132656 Y212.113972 Z-0.249992
G01 X430.763372 Y210.580545 Z-0.249992
G01 X429.060048 Y209.478157 Z-0.249992
G01 X428.763828 Y209.254637 Z-0.249992
G01 X427.348370 Y208.186652 Z-0.249992
G01 X426.282022 Y207.382093 Z-0.249992
G01 X426.175116 Y207.311199 Z-0.249992
G01 X424.897609 Y206.464221 Z-0.249992
G01 X424.268394 Y206.143222 Z-0.249992
G01 X423.615558 Y205.810171 Z-0.249992
G01 X423.081057 Y205.467554 Z-0.249992
G01 X421.365936 Y204.368185 Z-0.249992
G01 X420.900467 Y204.051137 Z-0.249992
G01 X419.271622 Y202.941665 Z-0.249992
G01 X418.809031 Y202.626564 Z-0.249992
G01 X417.181540 Y201.518023 Z-0.249992
G01 X416.698969 Y201.198406 Z-0.249992
G01 X415.522497 Y200.419219 Z-0.249992
G01 X413.863567 Y199.320500 Z-0.249992
G01 X413.475060 Y199.070959 Z-0.249992
G01 X411.897776 Y198.057866 Z-0.249992
G01 X411.507801 Y197.807393 Z-0.249992
G01 X409.928091 Y196.792748 Z-0.249992
G01 X409.750629 Y196.672916 Z-0.249992
G01 X408.581157 Y195.883230 Z-0.249992
G01 X407.233207 Y194.973036 Z-0.249992
G01 X407.141569 Y194.906657 Z-0.249992
G01 X405.910460 Y194.014863 Z-0.249992
G01 X405.585509 Y193.779461 Z-0.249992
G01 X403.299932 Y192.123861 Z-0.249992
G01 X401.834493 Y191.062339 Z-0.249992
G01 X401.687851 Y190.961162 Z-0.249992
G01 X400.526309 Y190.159877 Z-0.249992
G01 X399.228566 Y189.264611 Z-0.249992
G01 X398.412069 Y188.839782 Z-0.249992
G01 X397.962574 Y188.605905 Z-0.249992
G01 X397.935424 Y188.587871 Z-0.249992
G01 X396.739310 Y187.794121 Z-0.249992
G01 X395.696555 Y187.039148 Z-0.249992
G01 X395.307597 Y186.757518 Z-0.249992
G01 X393.021625 Y185.102426 Z-0.249992
G01 X391.493589 Y183.996059 Z-0.249992
G01 X390.987169 Y183.658239 Z-0.249992
G01 X388.639363 Y182.092103 Z-0.249992
G01 X386.962455 Y180.973459 Z-0.249992
G01 X386.363494 Y180.632732 Z-0.249992
G01 X384.530292 Y179.589836 Z-0.249992
G01 X383.385598 Y178.938636 Z-0.249992
G01 X383.339540 Y178.909172 Z-0.249992
G01 X382.096831 Y178.114435 Z-0.249992
G01 X381.671550 Y177.759681 Z-0.249992
G01 X381.582650 Y177.685513 Z-0.249992
G01 X380.440186 Y176.732477 Z-0.249992
G01 X379.286603 Y176.264948 Z-0.249992
G01 X378.000319 Y176.264948 Z-0.249992
G01 X377.386006 Y176.264948 Z-0.249992
G01 X376.978844 Y176.240394 Z-0.249992
G01 X376.187041 Y175.738095 Z-0.249992
G01 X375.790208 Y175.280585 Z-0.249992
G01 X375.109996 Y174.463241 Z-0.249992
G01 X374.321919 Y173.516216 Z-0.249992
G01 X374.185916 Y173.331925 Z-0.249992
G01 X373.211290 Y172.011238 Z-0.249992
G01 X372.644221 Y171.121589 Z-0.249992
G01 X372.092363 Y170.255787 Z-0.249992
G01 X372.074047 Y170.235129 Z-0.249992
G01 X371.137803 Y169.179335 Z-0.249992
G01 X370.175482 Y168.094163 Z-0.249992
G01 X369.781161 Y167.703765 Z-0.249992
G01 X368.378291 Y166.314808 Z-0.249992
G01 X368.070499 Y166.010093 Z-0.249992
G01 X367.067735 Y165.017291 Z-0.249992
G01 X365.766747 Y163.729229 Z-0.249992
G01 X365.632861 Y163.622549 Z-0.249992
G01 X364.396107 Y162.637057 Z-0.249992
G01 X364.138551 Y162.476304 Z-0.249992
G01 X362.941505 Y161.729092 Z-0.249992
G01 X361.474740 Y160.813507 Z-0.249992
G01 X361.007521 Y160.521858 Z-0.249992
G01 X358.613430 Y159.027435 Z-0.249992
G01 X356.958394 Y157.994361 Z-0.249992
G01 X356.529924 Y157.776118 Z-0.249992
G01 X354.850533 Y156.920674 Z-0.249992
G01 X354.683993 Y156.864315 Z-0.249992
G01 X353.347361 Y156.411969 Z-0.249992
G01 X351.827001 Y155.897421 Z-0.249992
G01 X350.521836 Y155.455715 Z-0.249992
G01 X349.273172 Y154.961685 Z-0.249992
G01 X349.067574 Y154.793199 Z-0.249992
G01 X348.540354 Y154.361145 Z-0.249992
G01 X348.306815 Y154.289488 Z-0.249992
G01 X344.259805 Y153.047400 Z-0.249992
G01 X342.666068 Y152.558281 Z-0.249992
G01 X341.759542 Y152.558281 Z-0.249992
G01 X341.229754 Y152.558281 Z-0.249992
G01 X340.314141 Y152.357113 Z-0.249992
G01 X339.736122 Y152.115615 Z-0.249992
G01 X338.974742 Y151.797494 Z-0.249992
G01 X338.550929 Y151.772772 Z-0.249992
G01 X336.685102 Y151.663975 Z-0.249992
G01 X336.434545 Y151.667954 Z-0.249992
G01 X333.612689 Y151.712630 Z-0.249992
G01 X331.950937 Y151.738962 Z-0.249992
G01 X331.457217 Y151.782311 Z-0.249992
G01 X329.568586 Y151.880496 Z-0.182541
G01 X329.568586 Y151.880496 Z-0.182541
G01 X328.587130 Y152.063009 Z0.000000
G01 X329.568586 Y151.880496 Z-0.182541
G01 X329.568812 Y151.880496 Z-0.182541
G00 Z5.000000

G00 Z5.000000
G00 X342.335727 Y157.758874

G01 Z-0.249992 F100.0(Penetrate)
G01 X342.821770 Y157.880428 Z-0.249992 F400.000000
G01 X344.692565 Y158.348239 Z-0.249992
G01 X345.019717 Y158.476989 Z-0.249992
G01 X350.272126 Y160.543872 Z-0.249992
G01 X351.907322 Y161.187338 Z-0.249992
G01 X352.270909 Y161.368158 Z-0.249992
G01 X353.534389 Y161.996498 Z-0.249992
G01 X355.151777 Y162.800859 Z-0.249992
G01 X355.580501 Y163.014050 Z-0.249992
G01 X357.289667 Y163.864047 Z-0.249992
G01 X357.348623 Y163.905533 Z-0.249992
G01 X358.502940 Y164.717205 Z-0.249992
G01 X359.711049 Y165.566722 Z-0.249992
G01 X359.844088 Y165.682038 Z-0.249992
G01 X363.043133 Y168.454617 Z-0.249992
G01 X364.242042 Y169.493703 Z-0.249992
G01 X364.336417 Y169.592960 Z-0.249992
G01 X365.308757 Y170.615593 Z-0.249992
G01 X366.378238 Y171.740446 Z-0.249992
G01 X366.753029 Y172.253074 Z-0.249992
G01 X367.951119 Y173.891826 Z-0.249992
G01 X367.994130 Y173.950669 Z-0.249992
G01 X369.659777 Y176.228936 Z-0.249992
G01 X370.533029 Y177.423385 Z-0.249992
G01 X370.549257 Y177.443987 Z-0.249992
G01 X371.421634 Y178.553149 Z-0.249992
G01 X372.308150 Y179.680260 Z-0.249992
G01 X372.659574 Y180.074073 Z-0.249992
G01 X373.955707 Y181.526558 Z-0.249992
G01 X374.303744 Y181.916589 Z-0.249992
G01 X375.243290 Y182.969447 Z-0.249992
G01 X376.534569 Y184.416485 Z-0.249992
G01 X376.773555 Y184.709573 Z-0.249992
G01 X377.916527 Y186.111286 Z-0.249992
G01 X378.335260 Y186.904951 Z-0.249992
G01 X378.524857 Y187.264305 Z-0.249992
G01 X378.513116 Y187.251548 Z-0.249992
G01 X379.471374 Y188.293654 Z-0.249992
G01 X380.451306 Y189.195213 Z-0.249992
G01 X381.451332 Y190.115257 Z-0.249992
G01 X381.669828 Y190.378825 Z-0.249992
G01 X382.790166 Y191.730246 Z-0.249992
G01 X383.420735 Y192.778052 Z-0.249992
G01 X383.585666 Y193.052146 Z-0.249992
G01 X384.475936 Y194.531442 Z-0.249992
G01 X385.235452 Y195.696653 Z-0.249992
G01 X385.385058 Y195.921443 Z-0.249992
G01 X388.512814 Y200.620048 Z-0.249992
G01 X389.445051 Y202.020463 Z-0.249992
G01 X389.511994 Y202.121047 Z-0.249992
G01 X390.364164 Y203.401151 Z-0.249992
G01 X390.408134 Y203.474416 Z-0.249992
G01 X391.193474 Y204.782770 Z-0.249992
G01 X391.274443 Y205.086582 Z-0.249992
G01 X391.409515 Y205.593453 Z-0.249992
G01 X391.103784 Y205.998047 Z-0.249992
G01 X390.281642 Y206.107605 Z-0.249992
G01 X389.700885 Y205.950831 Z-0.249992
G01 X389.114681 Y205.604968 Z-0.249992
G01 X388.039245 Y204.970476 Z-0.249992
G01 X386.994346 Y204.537519 Z-0.249992
G01 X386.405461 Y204.399032 Z-0.249992
G01 X384.438316 Y203.936442 Z-0.249992
G01 X384.399792 Y203.932321 Z-0.249992
G01 X382.951371 Y203.777184 Z-0.249992
G01 X382.688707 Y203.767475 Z-0.249992
G01 X381.007142 Y203.705245 Z-0.249992
G01 X380.656764 Y203.692291 Z-0.249992
G01 X378.899930 Y203.627267 Z-0.249992
G01 X377.791700 Y203.619026 Z-0.249992
G01 X377.734437 Y203.637201 Z-0.249992
G01 X376.368651 Y204.070356 Z-0.249992
G01 X376.040822 Y204.493774 Z-0.249992
G01 X375.472680 Y205.412549 Z-0.249992
G01 X374.911792 Y206.319611 Z-0.249992
G01 X374.857605 Y206.651222 Z-0.249992
G01 X374.870361 Y207.003605 Z-0.249992
G01 X374.935018 Y208.791003 Z-0.249992
G01 X374.946448 Y209.106950 Z-0.249992
G01 X375.009694 Y210.854978 Z-0.249992
G01 X374.901829 Y211.628041 Z-0.249992
G01 X374.839458 Y211.800903 Z-0.249992
G01 X374.307046 Y213.276643 Z-0.249992
G01 X373.924635 Y214.336782 Z-0.249992
G01 X373.908576 Y214.396613 Z-0.249992
G01 X373.527802 Y215.814441 Z-0.249992
G01 X373.422702 Y216.565745 Z-0.249992
G01 X373.312325 Y217.354923 Z-0.249992
G01 X373.244084 Y217.560324 Z-0.249992
G01 X372.734278 Y219.094795 Z-0.249992
G01 X372.722763 Y219.120731 Z-0.249992
G01 X372.143558 Y220.425275 Z-0.249992
G01 X372.136983 Y220.440120 Z-0.249992
G01 X371.558512 Y221.742971 Z-0.249992
G01 X371.012214 Y223.024118 Z-0.249992
G01 X370.927858 Y223.274393 Z-0.249992
G01 X370.750509 Y223.800625 Z-0.249992
G01 X370.005302 Y224.365210 Z-0.249992
G01 X369.797050 Y224.463085 Z-0.249992
G01 X368.316089 Y225.158960 Z-0.249992
G01 X367.278358 Y225.445275 Z-0.249992
G01 X366.449838 Y225.436159 Z-0.249992
G01 X366.375331 Y225.435340 Z-0.249992
G01 X364.850739 Y225.418548 Z-0.249992
G01 X364.392240 Y225.266092 Z-0.249992
G01 X362.613732 Y224.674723 Z-0.249992
G01 X362.490655 Y224.611788 Z-0.249992
G01 X359.977918 Y223.326830 Z-0.249992
G01 X358.597879 Y222.621133 Z-0.249992
G01 X358.252609 Y222.369673 Z-0.249992
G01 X356.746643 Y221.272930 Z-0.249992
G01 X356.716981 Y221.228677 Z-0.249992
G01 X355.926703 Y220.048847 Z-0.249992
G01 X355.883777 Y219.984754 Z-0.249992
G01 X355.030675 Y218.711114 Z-0.249992
G01 X354.904578 Y218.186858 Z-0.249992
G01 X354.454208 Y216.314426 Z-0.249992
G01 X354.420624 Y215.864705 Z-0.249992
G01 X354.210509 Y213.050300 Z-0.249992
G01 X354.072051 Y211.195987 Z-0.249992
G01 X354.117545 Y210.508833 Z-0.249992
G01 X354.256907 Y208.404273 Z-0.249992
G01 X354.376033 Y207.992144 Z-0.249992
G01 X354.879573 Y206.250382 Z-0.249992
G01 X354.991813 Y205.862157 Z-0.249992
G01 X355.383707 Y204.506531 Z-0.249992
G01 X355.882676 Y202.780488 Z-0.249992
G01 X355.963984 Y202.174754 Z-0.249992
G01 X356.233027 Y200.170779 Z-0.249992
G01 X356.226959 Y199.816449 Z-0.249992
G01 X356.202801 Y198.405535 Z-0.249992
G01 X356.172236 Y196.621439 Z-0.249992
G01 X356.171163 Y196.559040 Z-0.249992
G01 X356.147005 Y195.148126 Z-0.249992
G01 X356.122000 Y193.686610 Z-0.249992
G01 X356.094371 Y193.439299 Z-0.249992
G01 X355.937709 Y192.036908 Z-0.249992
G01 X355.753164 Y190.384638 Z-0.249992
G01 X355.692769 Y190.061720 Z-0.249992
G01 X354.914484 Y185.900551 Z-0.249992
G01 X354.594839 Y184.191639 Z-0.249992
G01 X354.574689 Y184.117922 Z-0.249992
G01 X354.202184 Y182.756877 Z-0.249992
G01 X353.811334 Y181.328748 Z-0.249992
G01 X353.650778 Y180.953364 Z-0.249992
G01 X352.928458 Y179.264801 Z-0.249992
G01 X352.512886 Y178.293448 Z-0.249992
G01 X352.227983 Y177.778816 Z-0.249992
G01 X351.256517 Y176.024099 Z-0.249992
G01 X351.069348 Y175.723137 Z-0.249992
G01 X350.133555 Y174.218526 Z-0.249992
G01 X349.943027 Y173.912174 Z-0.249992
G01 X349.006529 Y172.406434 Z-0.249992
G01 X348.740450 Y171.968255 Z-0.249992
G01 X347.740819 Y170.322223 Z-0.249992
G01 X347.321521 Y169.587796 Z-0.249992
G01 X346.909646 Y168.866492 Z-0.249992
G01 X346.914077 Y168.872786 Z-0.249992
G01 X346.107260 Y167.723549 Z-0.249992
G01 X345.535308 Y167.043901 Z-0.249992
G01 X344.955398 Y166.354743 Z-0.249992
G01 X344.847843 Y166.223763 Z-0.249992
G01 X343.845051 Y165.002503 Z-0.249992
G01 X343.068263 Y164.039391 Z-0.249992
G01 X342.303554 Y163.091238 Z-0.249992
G01 X342.231220 Y163.024238 Z-0.249992
G01 X341.130892 Y162.005021 Z-0.249992
G01 X340.456663 Y161.615385 Z-0.249992
G01 X339.753873 Y161.209210 Z-0.249992
G01 X338.791298 Y160.600909 Z-0.249992
G01 X338.319930 Y160.264810 Z-0.249992
G01 X337.865553 Y159.940791 Z-0.249992
G01 X336.773409 Y159.331840 Z-0.249992
G01 X335.888106 Y158.910059 Z-0.249992
G01 X334.904788 Y158.441570 Z-0.249992
G01 X334.122863 Y157.854971 Z-0.249992
G01 X334.122863 Y157.466972 Z-0.249992
G01 X334.122863 Y156.852292 Z-0.249992
G01 X334.726028 Y156.796468 Z-0.249992
G01 X335.240039 Y156.831831 Z-0.249992
G01 X337.141681 Y156.962697 Z-0.249992
G01 X337.194513 Y156.966338 Z-0.249992
G01 X338.665512 Y157.067571 Z-0.249992
G01 X339.137274 Y157.139876 Z-0.249992
G01 X341.005049 Y157.426106 Z-0.249992
G01 X342.335727 Y157.758874 Z-0.249992
G00 Z5.000000

G00 Z5.000000
G00 X346.843606 Y178.957884

G01 Z-0.249992 F100.0(Penetrate)
G01 X346.980851 Y179.179993 Z-0.249992 F400.000000
G01 X346.827491 Y179.961918 Z-0.249992
G01 X346.575326 Y180.656325 Z-0.249992
G01 X346.298324 Y181.419172 Z-0.249992
G01 X346.212331 Y182.645625 Z-0.249992
G01 X346.248597 Y183.226664 Z-0.249992
G01 X346.372746 Y185.216924 Z-0.249992
G01 X346.616445 Y186.498918 Z-0.249992
G01 X346.999026 Y187.363788 Z-0.249992
G01 X347.538409 Y188.583158 Z-0.249992
G01 X347.764554 Y188.895267 Z-0.249992
G01 X348.825512 Y190.359464 Z-0.249992
G01 X349.156332 Y190.718225 Z-0.249992
G01 X350.453764 Y192.125188 Z-0.249992
G01 X350.932272 Y192.644081 Z-0.249992
G01 X351.302802 Y193.359063 Z-0.249992
G01 X351.177636 Y193.685227 Z-0.249992
G01 X351.058059 Y193.996857 Z-0.249992
G01 X350.295861 Y194.380228 Z-0.249992
G01 X349.558189 Y194.565986 Z-0.249992
G01 X348.253983 Y194.894380 Z-0.249992
G01 X348.269901 Y194.887014 Z-0.249992
G01 X345.708819 Y196.072686 Z-0.249992
G01 X344.440230 Y196.659991 Z-0.249992
G01 X344.344585 Y196.723406 Z-0.249992
G01 X343.057087 Y197.577326 Z-0.249992
G01 X342.618683 Y197.868071 Z-0.249992
G01 X341.792167 Y198.342910 Z-0.249992
G01 X341.223320 Y198.631031 Z-0.249992
G01 X340.303247 Y199.097008 Z-0.249992
G01 X339.646206 Y199.569109 Z-0.249992
G01 X339.665114 Y199.547293 Z-0.249992
G01 X338.768269 Y200.582682 Z-0.249992
G01 X338.573959 Y201.065818 Z-0.249992
G01 X338.573959 Y201.624816 Z-0.249992
G01 X338.573959 Y202.177125 Z-0.249992
G01 X338.632238 Y202.541248 Z-0.249992
G01 X338.913387 Y203.018965 Z-0.249992
G01 X339.070049 Y203.104281 Z-0.249992
G01 X340.172381 Y203.123331 Z-0.249992
G01 X340.143933 Y203.134959 Z-0.249992
G01 X341.458975 Y202.598059 Z-0.249992
G01 X341.891537 Y202.374031 Z-0.249992
G01 X343.587157 Y201.495812 Z-0.249992
G01 X343.848777 Y201.360317 Z-0.249992
G01 X345.367358 Y200.573820 Z-0.249992
G01 X345.809685 Y200.364270 Z-0.249992
G01 X347.531974 Y199.548253 Z-0.249992
G01 X348.394756 Y199.218702 Z-0.249992
G01 X349.244724 Y198.894062 Z-0.249992
G01 X350.225108 Y198.482977 Z-0.249992
G01 X350.576334 Y198.304528 Z-0.249992
G01 X351.030175 Y198.073952 Z-0.249992
G01 X351.485202 Y198.044855 Z-0.249992
G01 X351.990436 Y198.718181 Z-0.249992
G01 X352.128358 Y199.321657 Z-0.249992
G01 X352.246948 Y200.240544 Z-0.249992
G01 X352.412697 Y201.524740 Z-0.249992
G01 X352.455962 Y202.323513 Z-0.249992
G01 X352.312960 Y202.494089 Z-0.249992
G01 X351.295182 Y203.708209 Z-0.249992
G01 X350.145916 Y204.312785 Z-0.249992
G01 X349.716685 Y204.526455 Z-0.249992
G01 X348.026738 Y205.367732 Z-0.249992
G01 X347.500281 Y205.629803 Z-0.249992
G01 X345.710794 Y206.520609 Z-0.249992
G01 X344.563335 Y207.094480 Z-0.249992
G01 X343.711871 Y207.739894 Z-0.249992
G01 X343.718729 Y207.751635 Z-0.249992
G01 X343.979474 Y208.148185 Z-0.249992
G01 X344.182307 Y208.456626 Z-0.249992
G01 X344.636431 Y208.871662 Z-0.249992
G01 X345.000554 Y209.079293 Z-0.249992
G01 X345.567538 Y209.402635 Z-0.249992
G01 X345.688781 Y209.379492 Z-0.249992
G01 X346.006563 Y209.239849 Z-0.249992
G01 X347.642154 Y208.521057 Z-0.249992
G01 X347.656716 Y208.514651 Z-0.249992
G01 X348.978843 Y207.933640 Z-0.249992
G01 X350.077054 Y207.621248 Z-0.249992
G01 X350.332860 Y207.894044 Z-0.249992
G01 X350.701048 Y208.286643 Z-0.249992
G01 X350.541959 Y208.987683 Z-0.249992
G01 X350.084053 Y211.005770 Z-0.249992
G01 X349.587455 Y211.502368 Z-0.249992
G01 X349.375619 Y211.714176 Z-0.249992
G01 X348.025158 Y211.928411 Z-0.249992
G01 X346.629456 Y212.018835 Z-0.249992
G01 X346.075200 Y212.054733 Z-0.249992
G01 X344.013792 Y212.188281 Z-0.249992
G01 X343.647524 Y211.885541 Z-0.249992
G01 X342.270082 Y210.746915 Z-0.249992
G01 X342.080542 Y210.590226 Z-0.249992
G01 X340.992914 Y209.691179 Z-0.249992
G01 X339.705218 Y208.626749 Z-0.249992
G01 X339.220332 Y208.127809 Z-0.249992
G01 X336.269953 Y205.091944 Z-0.249992
G01 X334.794298 Y203.573560 Z-0.249992
G01 X334.651352 Y203.354810 Z-0.249992
G01 X333.749567 Y201.975054 Z-0.249992
G01 X333.584241 Y201.722098 Z-0.249992
G01 X332.635072 Y200.269839 Z-0.249992
G01 X332.514789 Y199.990044 Z-0.249992
G01 X331.839939 Y198.420154 Z-0.249992
G01 X331.819224 Y198.350191 Z-0.249992
G01 X331.418779 Y196.997105 Z-0.249992
G01 X331.001852 Y195.588252 Z-0.249992
G01 X330.925511 Y195.330244 Z-0.249992
G01 X330.439975 Y193.689630 Z-0.249992
G01 X330.420897 Y193.241376 Z-0.249992
G01 X330.342101 Y191.391551 Z-0.249992
G01 X330.428094 Y190.768743 Z-0.249992
G01 X330.621134 Y189.370896 Z-0.249992
G01 X330.900844 Y187.345641 Z-0.249992
G01 X330.989406 Y187.106006 Z-0.249992
G01 X331.578065 Y185.513511 Z-0.249992
G01 X332.553679 Y184.590278 Z-0.249992
G01 X332.581845 Y184.563636 Z-0.249992
G01 X333.664788 Y183.538830 Z-0.249992
G01 X334.207078 Y183.288810 Z-0.249992
G01 X335.488564 Y182.698034 Z-0.249992
G01 X337.288295 Y181.868301 Z-0.249992
G01 X337.905290 Y181.667104 Z-0.249992
G01 X339.246861 Y181.229603 Z-0.249992
G01 X341.191542 Y180.595422 Z-0.249992
G01 X341.524648 Y180.486766 Z-0.249992
G01 X343.193993 Y179.942388 Z-0.249992
G01 X343.479263 Y179.834833 Z-0.249992
G01 X345.060752 Y179.238526 Z-0.249992
G01 X345.351187 Y179.035100 Z-0.249992
G01 X346.068144 Y178.532942 Z-0.249992
G01 X346.542164 Y178.470147 Z-0.249992
G01 X346.843606 Y178.957884 Z-0.249992
G00 Z5.000000

G00 Z5.000000
G00 X341.342361 Y185.765056

G01 Z-0.249992 F100.0(Penetrate)
G01 X340.929160 Y185.858358 Z-0.249992 F400.000000
G01 X339.163888 Y186.256969 Z-0.249992
G01 X338.778993 Y186.429633 Z-0.249992
G01 X336.203941 Y187.584684 Z-0.249992
G01 X334.550627 Y188.326279 Z-0.249992
G01 X333.693349 Y189.183585 Z-0.249992
G01 X333.353073 Y189.523832 Z-0.249992
G01 X333.199911 Y190.042670 Z-0.249992
G01 X333.230984 Y191.317298 Z-0.249992
G01 X333.425887 Y191.978178 Z-0.249992
G01 X333.813914 Y192.555379 Z-0.249992
G01 X334.244783 Y193.196249 Z-0.249992
G01 X334.551107 Y193.451265 Z-0.249992
G01 X335.471913 Y193.452958 Z-0.249992
G01 X336.070817 Y193.153380 Z-0.249992
G01 X337.035424 Y192.494927 Z-0.249992
G01 X337.958291 Y191.865007 Z-0.249992
G01 X338.429941 Y191.598787 Z-0.249992
G01 X340.126576 Y190.641235 Z-0.249992
G01 X340.360454 Y190.523915 Z-0.249992
G01 X341.850248 Y189.776760 Z-0.249992
G01 X342.043147 Y189.680014 Z-0.249992
G01 X343.490044 Y188.954364 Z-0.249992
G01 X344.406871 Y188.416590 Z-0.249992
G01 X345.232089 Y187.500158 Z-0.249992
G01 X345.209370 Y187.196318 Z-0.249992
G01 X344.897571 Y186.613754 Z-0.249992
G01 X344.707099 Y186.257872 Z-0.249992
G01 X344.219052 Y185.981210 Z-0.249992
G01 X344.222524 Y185.982113 Z-0.249992
G01 X342.851403 Y185.633258 Z-0.249992
G01 X342.065189 Y185.601818 Z-0.249992
G01 X341.342361 Y185.765056 Z-0.249992
G00 Z5.000000

G00 Z5.000000
G00 X322.640623 Y202.696809

G01 Z-0.249992 F100.0(Penetrate)
G01 X322.710558 Y204.410998 Z-0.249992 F400.000000
G01 X322.750464 Y205.388983 Z-0.249992
G01 X322.765365 Y205.938780 Z-0.249992
G01 X322.539221 Y206.726857 Z-0.249992
G01 X322.264139 Y206.945241 Z-0.249992
G01 X321.856666 Y207.235394 Z-0.249992
G01 X321.387782 Y207.569291 Z-0.249992
G01 X320.837110 Y207.873837 Z-0.249992
G01 X320.641107 Y207.873837 Z-0.249992
G01 X320.144057 Y207.873837 Z-0.249992
G01 X319.894686 Y207.737298 Z-0.249992
G01 X317.419258 Y206.381897 Z-0.249992
G01 X315.946425 Y205.575447 Z-0.249992
G01 X315.555237 Y205.104108 Z-0.249992
G01 X315.089965 Y204.543473 Z-0.249992
G01 X315.564522 Y204.167243 Z-0.249992
G01 X315.839745 Y204.042360 Z-0.249992
G01 X317.372042 Y203.347049 Z-0.249992
G01 X317.532853 Y203.274066 Z-0.249992
G01 X318.817839 Y202.690967 Z-0.249992
G01 X320.310907 Y202.283974 Z-0.003669
G01 X320.310907 Y202.283974 Z-0.003669
G01 X321.404518 Y202.098131 Z-0.249992
G01 X322.618949 Y202.165723 Z-0.249992
G01 X322.640623 Y202.696809 Z-0.249992
G00 Z5.000000

G00 Z5.000000
G00 X329.456826 Y208.416465

G01 Z-0.249992 F100.0(Penetrate)
G01 X330.271461 Y208.675969 Z-0.249992 F400.000000
G01 X331.129952 Y209.025670 Z-0.249992
G01 X331.351102 Y209.197261 Z-0.249992
G01 X331.860626 Y209.592570 Z-0.249992
G01 X331.922291 Y210.759164 Z-0.249992
G01 X331.407010 Y211.077623 Z-0.249992
G01 X330.994316 Y211.332668 Z-0.249992
G01 X330.730749 Y211.284605 Z-0.249992
G01 X327.954360 Y210.778073 Z-0.249992
G01 X326.320378 Y210.479990 Z-0.249992
G01 X325.941184 Y210.100824 Z-0.249992
G01 X325.482855 Y209.642495 Z-0.249992
G01 X325.752575 Y209.302869 Z-0.249992
G01 X326.836252 Y207.938268 Z-0.249992
G01 X327.496426 Y207.938268 Z-0.249992
G01 X327.758102 Y207.938268 Z-0.249992
G01 X328.643716 Y208.157442 Z-0.249992
G01 X329.456826 Y208.416465 Z-0.249992
G00 Z5.000000

G00 Z5.000000
G00 X299.972873 Y214.717726

G01 Z-0.249992 F100.0(Penetrate)
G01 X299.527329 Y214.467705 Z0.000000 F400.000000
G01 X299.972873 Y214.717726 Z-0.249992
G01 X299.567432 Y214.490226 Z-0.022493
G01 X300.496931 Y215.576076 Z-0.249992
G01 X301.247473 Y216.805436 Z-0.249992
G01 X301.252920 Y216.812831 Z-0.249992
G01 X302.089765 Y217.949001 Z-0.249992
G01 X302.931916 Y219.092396 Z-0.249992
G01 X303.246284 Y219.448447 Z-0.249992
G01 X305.114256 Y221.564014 Z-0.249992
G01 X306.361058 Y222.976112 Z-0.249992
G01 X306.704324 Y223.289802 Z-0.249992
G01 X308.084476 Y224.551166 Z-0.249992
G01 X308.285446 Y224.683557 Z-0.249992
G01 X309.681317 Y225.603150 Z-0.249992
G01 X310.738098 Y226.299364 Z-0.249992
G01 X310.756471 Y226.314124 Z-0.249992
G01 X311.888634 Y227.222597 Z-0.249992
G01 X312.227103 Y227.652873 Z-0.249992
G01 X312.536757 Y228.046545 Z-0.249992
G01 X313.221626 Y228.698535 Z-0.249992
G01 X313.755110 Y229.106007 Z-0.249992
G01 X314.301775 Y229.523527 Z-0.249992
G01 X314.566640 Y229.736125 Z-0.249992
G01 X315.930508 Y230.830780 Z-0.249992
G01 X316.106304 Y230.974460 Z-0.249992
G01 X317.373877 Y232.010413 Z-0.249992
G01 X317.731593 Y232.302795 Z-0.249992
G01 X318.824245 Y233.195746 Z-0.249992
G01 X323.318549 Y236.868840 Z-0.249992
G01 X315.821259 Y232.187507 Z-0.249992
G01 X320.021714 Y234.213552 Z-0.249992
G01 X322.563689 Y235.439638 Z-0.249992
G01 X323.898121 Y236.083274 Z-0.249992
G01 X324.038752 Y236.151092 Z-0.249992
G01 X325.455395 Y236.834409 Z-0.249992
G01 X325.515508 Y236.866780 Z-0.249992
G01 X326.864333 Y237.593671 Z-0.249992
G01 X326.999009 Y237.783522 Z-0.249992
G01 X327.145765 Y237.990391 Z-0.249992
G01 X327.146950 Y238.511966 Z-0.249992
G01 X327.159735 Y244.156382 Z-0.249992
G01 X327.163940 Y246.011006 Z-0.249992
G01 X327.159424 Y246.560210 Z-0.249992
G01 X327.101230 Y253.615540 Z-0.249992
G01 X327.085087 Y255.574501 Z-0.249992
G01 X327.084156 Y255.688349 Z-0.249992
G01 X326.956168 Y271.210035 Z-0.249992
G01 X326.943637 Y272.730959 Z-0.249992
G01 X326.951314 Y273.053906 Z-0.249992
G01 X327.010044 Y273.710468 Z-0.249992
G01 X327.512879 Y279.332476 Z-0.249992
G01 X327.698045 Y281.402660 Z-0.249992
G01 X327.712467 Y281.563894 Z-0.249992
G01 X328.215302 Y287.185902 Z-0.249992
G01 X328.355341 Y288.751642 Z-0.249992
G01 X328.407213 Y289.284478 Z-0.249992
G01 X328.543922 Y290.688957 Z-0.249992
G01 X328.730866 Y292.609846 Z-0.249992
G01 X328.822024 Y292.987911 Z-0.249992
G01 X329.814402 Y297.103275 Z-0.249992
G01 X330.234405 Y298.845094 Z-0.249992
G01 X330.489703 Y299.384449 Z-0.249992
G01 X331.358806 Y301.220587 Z-0.249992
G01 X331.507199 Y301.520533 Z-0.249992
G01 X332.758431 Y304.050232 Z-0.249992
G01 X333.533385 Y305.616960 Z-0.249992
G01 X333.558983 Y305.668720 Z-0.249992
G01 X336.061475 Y310.728089 Z-0.249992
G01 X336.694584 Y312.008024 Z-0.249992
G01 X336.488619 Y312.155513 Z0.000000
G01 X336.694584 Y312.008024 Z-0.249992
G01 X336.790625 Y312.104402 Z-0.249992
G01 X339.778596 Y315.103239 Z-0.249992
G01 X340.899498 Y316.228205 Z-0.249992
G01 X341.067787 Y316.397115 Z-0.249992
G01 X342.063806 Y317.396718 Z-0.249992
G01 X343.224896 Y318.562042 Z-0.249992
G01 X343.333100 Y318.663049 Z-0.249992
G01 X344.364679 Y319.625907 Z-0.249992
G01 X345.487246 Y320.673713 Z-0.249992
G01 X345.928642 Y320.930705 Z-0.249992
G01 X346.401787 Y321.206182 Z-0.249992
G01 X347.256328 Y321.786205 Z-0.249992
G01 X347.824977 Y322.217582 Z-0.249992
G01 X347.853256 Y322.239059 Z-0.249992
G01 X348.977516 Y323.091878 Z-0.249992
G01 X350.125484 Y323.962731 Z-0.249992
G01 X350.609100 Y324.295923 Z-0.249992
G01 X351.771121 Y325.096503 Z-0.249992
G01 X353.357380 Y326.189380 Z-0.249992
G01 X353.512574 Y326.189380 Z-0.249992
G01 X353.718991 Y326.189380 Z-0.249992
G01 X354.454067 Y326.632384 Z-0.249992
G01 X355.140347 Y327.129519 Z-0.249992
G01 X355.227299 Y327.192482 Z-0.249992
G01 X356.439585 Y328.070673 Z-0.249992
G01 X356.452116 Y328.076797 Z-0.249992
G01 X362.789500 Y331.178166 Z-0.249992
G01 X364.072878 Y331.806195 Z-0.249992
G01 X364.318580 Y331.885725 Z-0.249992
G01 X365.923719 Y332.405324 Z-0.249992
G01 X366.554853 Y332.609625 Z-0.249992
G01 X367.622245 Y333.095555 Z-0.249992
G01 X368.290378 Y333.482313 Z-0.249992
G01 X368.931757 Y333.853576 Z-0.249992
G01 X370.105152 Y334.315912 Z-0.249992
G01 X370.905788 Y334.512311 Z-0.249992
G01 X371.729510 Y334.714354 Z-0.249992
G01 X371.966859 Y334.786631 Z-0.249992
G01 X373.551311 Y335.268977 Z-0.249992
G01 X373.585319 Y335.280520 Z-0.249992
G01 X374.952008 Y335.743844 Z-0.249992
G01 X374.982319 Y335.754117 Z-0.249992
G01 X376.344718 Y336.216002 Z-0.249992
G01 X376.550712 Y336.277583 Z-0.249992
G01 X378.104882 Y336.742318 Z-0.249992
G01 X378.866233 Y336.914671 Z-0.249992
G01 X379.644771 Y337.090919 Z-0.249992
G01 X380.682982 Y337.407459 Z-0.249992
G01 X381.168094 Y337.617376 Z-0.249992
G01 X382.113200 Y338.026401 Z-0.249992
G01 X382.596392 Y338.169572 Z-0.249992
G01 X384.439360 Y338.715616 Z-0.249992
G01 X384.706652 Y338.776632 Z-0.249992
G01 X386.357398 Y339.153540 Z-0.249992
G01 X387.057084 Y339.313278 Z-0.249992
G01 X387.165796 Y339.339242 Z-0.249992
G01 X388.646475 Y339.692754 Z-0.249992
G01 X389.888930 Y339.996679 Z-0.249992
G01 X390.456422 Y340.135476 Z-0.249992
G01 X391.827119 Y340.470784 Z-0.249992
G01 X393.758027 Y340.943111 Z-0.249992
G01 X394.002799 Y340.987702 Z-0.249992
G01 X396.779301 Y341.493557 Z-0.249992
G01 X398.414355 Y341.791415 Z-0.249992
G01 X398.673068 Y341.827088 Z-0.249992
G01 X404.264624 Y342.598006 Z-0.249992
G01 X405.917656 Y342.825928 Z-0.249992
G01 X405.924881 Y342.826380 Z-0.249992
G01 X407.333001 Y342.918272 Z-0.249992
G01 X408.607375 Y343.001414 Z-0.249992
G01 X408.764037 Y342.747922 Z-0.249992
G01 X408.907942 Y342.515089 Z-0.249992
G01 X408.840434 Y342.446227 Z-0.249992
G01 X407.852515 Y341.438609 Z-0.249992
G01 X406.711604 Y340.274978 Z-0.249992
G01 X405.963997 Y340.106548 Z-0.249992
G01 X405.612123 Y340.027272 Z-0.249992
G01 X405.400992 Y340.006472 Z-0.249992
G01 X403.773219 Y339.846000 Z-0.249992
G01 X403.528363 Y339.827854 Z-0.249992
G01 X401.873214 Y339.705115 Z-0.249992
G01 X401.401508 Y339.670148 Z-0.249992
G01 X399.510563 Y339.529940 Z-0.249992
G01 X399.289272 Y339.491981 Z-0.249992
G01 X397.671123 Y339.214359 Z-0.249992
G01 X397.582646 Y339.185544 Z-0.249992
G01 X396.169785 Y338.725127 Z-0.249992
G01 X394.968817 Y338.333741 Z-0.249992
G01 X394.355633 Y338.136383 Z-0.249992
G01 X392.399014 Y337.506604 Z-0.249992
G01 X392.101270 Y337.411523 Z-0.249992
G01 X390.459019 Y336.887013 Z-0.249992
G01 X390.160992 Y336.791820 Z-0.249992
G01 X388.517866 Y336.267028 Z-0.249992
G01 X388.397526 Y336.227601 Z-0.249992
G01 X387.056491 Y335.788407 Z-0.249992
G01 X385.594947 Y335.309758 Z-0.249992
G01 X385.447599 Y335.260087 Z-0.249992
G01 X383.964098 Y334.759904 Z-0.249992
G01 X383.817765 Y334.710572 Z-0.249992
G01 X382.335308 Y334.210756 Z-0.249992
G01 X382.026388 Y334.109608 Z-0.249992
G01 X380.685324 Y333.670498 Z-0.249992
G01 X379.035058 Y333.130127 Z-0.249992
G01 X378.504593 Y332.959947 Z-0.249992
G01 X376.629819 Y332.358391 Z-0.249992
G01 X376.628295 Y332.357911 Z-0.249992
G01 X375.284664 Y331.926817 Z-0.249992
G01 X373.929940 Y331.492138 Z-0.249992
G01 X373.584754 Y331.349926 Z-0.249992
G01 X372.280041 Y330.812377 Z-0.249992
G01 X370.633331 Y330.133887 Z-0.249992
G01 X370.215021 Y329.935061 Z-0.249992
G01 X366.391672 Y328.117635 Z-0.249992
G01 X364.697887 Y327.312483 Z-0.249992
G01 X364.604810 Y327.260893 Z-0.249992
G01 X363.370483 Y326.577040 Z-0.249992
G01 X362.033399 Y325.836235 Z-0.249992
G01 X361.872306 Y325.712199 Z-0.249992
G01 X360.608092 Y324.738673 Z-0.249992
G01 X359.522750 Y323.902872 Z-0.249992
G01 X359.490238 Y323.878460 Z-0.249992
G01 X358.361772 Y323.031200 Z-0.249992
G01 X357.200371 Y322.159190 Z-0.249992
G01 X356.891395 Y321.930901 Z-0.249992
G01 X355.446784 Y320.863480 Z-0.249992
G01 X355.137045 Y320.634626 Z-0.249992
G01 X353.688624 Y319.564411 Z-0.249992
G01 X353.366241 Y319.306996 Z-0.249992
G01 X351.930154 Y318.160327 Z-0.249992
G01 X351.544892 Y317.744614 Z-0.249992
G01 X351.192396 Y317.364291 Z-0.249992
G01 X350.787154 Y317.093837 Z-0.249992
G01 X350.633145 Y317.093837 Z-0.249992
G01 X350.302296 Y317.093837 Z-0.249992
G01 X349.912998 Y316.717663 Z-0.249992
G01 X349.792236 Y316.337143 Z-0.249992
G01 X349.706186 Y316.066012 Z-0.249992
G01 X349.500305 Y315.828522 Z-0.249992
G01 X348.341162 Y314.491156 Z-0.249992
G01 X348.031282 Y314.172640 Z-0.249992
G01 X346.732439 Y312.837503 Z-0.249992
G01 X346.417535 Y312.513822 Z-0.249992
G01 X345.118579 Y311.178601 Z-0.249992
G01 X344.699592 Y310.746942 Z-0.249992
G01 X343.297597 Y309.302585 Z-0.249992
G01 X342.685852 Y308.668657 Z-0.249992
G01 X341.932064 Y307.887494 Z-0.249992
G01 X341.447066 Y307.053979 Z-0.249992
G01 X341.306180 Y306.282158 Z-0.249992
G01 X341.199105 Y305.695954 Z-0.249992
G01 X340.912226 Y304.929439 Z-0.249992
G01 X340.666919 Y304.565880 Z-0.249992
G01 X340.396268 Y304.164786 Z-0.249992
G01 X339.998447 Y303.377470 Z-0.249992
G01 X339.785144 Y302.822396 Z-0.249992
G01 X339.579037 Y302.285891 Z-0.249992
G01 X339.053624 Y301.125309 Z-0.249992
G01 X338.616264 Y300.241050 Z-0.249992
G01 X338.172272 Y299.343273 Z-0.249992
G01 X337.791752 Y298.371328 Z-0.249992
G01 X337.791752 Y298.090291 Z-0.249992
G01 X337.791752 Y297.902726 Z-0.249992
G01 X337.383912 Y296.838918 Z-0.249992
G01 X336.865047 Y295.717790 Z-0.249992
G01 X336.823673 Y295.628410 Z-0.249992
G01 X336.180940 Y294.239623 Z-0.249992
G01 X335.842189 Y293.007610 Z-0.249992
G01 X335.837334 Y292.952718 Z-0.249992
G01 X335.710024 Y291.514683 Z-0.249992
G01 X335.610654 Y290.392200 Z-0.249992
G01 X335.347820 Y289.141109 Z-0.249992
G01 X335.130622 Y288.721049 Z-0.249992
G01 X334.584042 Y287.664127 Z-0.249992
G01 X334.478914 Y287.139843 Z-0.249992
G01 X333.091707 Y280.222012 Z-0.249992
G01 X332.711159 Y278.324152 Z-0.249992
G01 X332.711328 Y278.200567 Z-0.249992
G01 X332.713417 Y276.691045 Z-0.249992
G01 X332.713417 Y276.048792 Z-0.249992
G01 X332.668317 Y275.638046 Z-0.249992
G01 X332.468194 Y273.815370 Z-0.249992
G01 X332.418099 Y273.470156 Z-0.249992
G01 X332.164720 Y271.724188 Z-0.249992
G01 X332.130712 Y271.489915 Z-0.249992
G01 X331.725357 Y268.696931 Z-0.249992
G01 X331.488741 Y267.066562 Z-0.249992
G01 X331.444207 Y266.765967 Z-0.249992
G01 X331.030441 Y263.974224 Z-0.249992
G01 X330.779065 Y262.278154 Z-0.249992
G01 X330.711953 Y261.843842 Z-0.249992
G01 X330.429195 Y260.014223 Z-0.249992
G01 X330.372411 Y259.646798 Z-0.249992
G01 X330.097188 Y257.866004 Z-0.249992
G01 X330.096624 Y257.520451 Z-0.249992
G01 X330.082626 Y249.053813 Z-0.249992
G01 X330.079719 Y247.299322 Z-0.249992
G01 X330.149399 Y246.777493 Z-0.249992
G01 X330.403625 Y244.873650 Z-0.249992
G01 X330.561641 Y243.690010 Z-0.249992
G01 X330.603297 Y243.000400 Z-0.249992
G01 X330.333437 Y241.918529 Z-0.249992
G01 X330.040067 Y241.540662 Z-0.249992
G01 X329.449912 Y240.967441 Z-0.249992
G01 X328.640103 Y240.180859 Z-0.249992
G01 X328.380826 Y239.678419 Z-0.249992
G01 X328.766793 Y239.292423 Z-0.249992
G01 X329.189477 Y238.869767 Z-0.249992
G01 X330.436984 Y239.122526 Z-0.249992
G01 X330.485695 Y239.139431 Z-0.249992
G01 X331.818857 Y239.601908 Z-0.249992
G01 X333.184897 Y240.075788 Z-0.249992
G01 X333.638513 Y240.233155 Z-0.249992
G01 X333.823086 Y240.276758 Z-0.249992
G01 X335.389843 Y240.646808 Z-0.249992
G01 X335.542384 Y240.678191 Z-0.249992
G01 X337.080636 Y240.994731 Z-0.249992
G01 X337.130787 Y241.005061 Z-0.249992
G01 X338.512942 Y241.289456 Z-0.249992
G01 X339.926142 Y241.580258 Z-0.249992
G01 X340.354583 Y241.600493 Z-0.249992
G01 X340.583353 Y241.579835 Z-0.249992
G01 X341.988735 Y241.452976 Z-0.249992
G01 X343.640017 Y241.303934 Z-0.249992
G01 X344.281847 Y241.245994 Z-0.249992
G01 X345.687229 Y241.119135 Z-0.249992
G01 X347.723434 Y240.935324 Z-0.249992
G01 X347.985957 Y240.887995 Z-0.249992
G01 X350.763362 Y240.387107 Z-0.249992
G01 X352.407674 Y240.090548 Z-0.249992
G01 X352.919596 Y239.919437 Z-0.249992
G01 X354.786976 Y239.295274 Z-0.249992
G01 X355.138145 Y239.177898 Z-0.249992
G01 X359.153123 Y237.835903 Z-0.249992
G01 X360.834011 Y237.274055 Z-0.249992
G01 X360.924322 Y237.236406 Z-0.249992
G01 X362.308255 Y236.659290 Z-0.249992
G01 X362.424446 Y236.589101 Z-0.249992
G01 X363.632301 Y235.859500 Z-0.249992
G01 X364.972235 Y235.050115 Z-0.249992
G01 X365.522540 Y234.717742 Z-0.249992
G01 X365.974068 Y234.678542 Z-0.249992
G01 X366.130786 Y235.109777 Z-0.249992
G01 X366.187202 Y235.264971 Z-0.249992
G01 X366.592106 Y235.852304 Z-0.249992
G01 X367.042476 Y236.419006 Z-0.249992
G01 X367.506591 Y237.002980 Z-0.249992
G01 X367.925183 Y237.666400 Z-0.249992
G01 X367.925183 Y237.887408 Z-0.249992
G01 X367.925183 Y238.492069 Z-0.249992
G01 X368.030931 Y238.595617 Z-0.249992
G01 X369.188720 Y239.729529 Z-0.249992
G01 X369.187958 Y239.729191 Z-0.249992
G01 X370.509887 Y240.334388 Z-0.249992
G01 X371.481917 Y240.779396 Z-0.249992
G01 X372.265196 Y241.381743 Z-0.249992
G01 X372.543580 Y241.920110 Z-0.249992
G01 X372.779010 Y242.375391 Z-0.249992
G01 X373.483070 Y242.900945 Z-0.249992
G01 X374.617716 Y243.442925 Z-0.249992
G01 X375.612690 Y243.918187 Z-0.249992
G01 X375.820858 Y244.050154 Z-0.249992
G01 X377.219494 Y244.936811 Z-0.249992
G01 X378.183142 Y245.702763 Z-0.249992
G01 X379.135134 Y246.459457 Z-0.249992
G01 X379.427178 Y246.685658 Z-0.249992
G01 X380.835015 Y247.776080 Z-0.249992
G01 X380.835100 Y247.776136 Z-0.249992
G01 X381.961166 Y248.628984 Z-0.249992
G01 X381.962352 Y248.629859 Z-0.249992
G01 X383.091382 Y249.484935 Z-0.249992
G01 X383.264638 Y249.624410 Z-0.249992
G01 X384.539041 Y250.650287 Z-0.249992
G01 X385.176411 Y251.217413 Z-0.249992
G01 X385.801759 Y251.773842 Z-0.249992
G01 X386.745482 Y252.487865 Z-0.249992
G01 X387.277386 Y252.807820 Z-0.249992
G01 X387.830796 Y253.140729 Z-0.249992
G01 X387.844145 Y253.150579 Z-0.249992
G01 X388.988726 Y253.995552 Z-0.249992
G01 X389.847641 Y254.704353 Z-0.249992
G01 X390.696847 Y255.405139 Z-0.249992
G01 X390.870442 Y255.535215 Z-0.249992
G01 X392.173462 Y256.511733 Z-0.249992
G01 X393.131071 Y257.164992 Z-0.249992
G01 X393.257845 Y257.251465 Z-0.249992
G01 X396.754945 Y259.637146 Z-0.249992
G01 X398.057090 Y260.525412 Z-0.249992
G01 X398.578806 Y260.957862 Z-0.249992
G01 X402.924492 Y264.559892 Z-0.249992
G01 X404.614072 Y265.960335 Z-0.249992
G01 X404.614072 Y266.799043 Z-0.249992
G01 X404.614072 Y267.267730 Z-0.249992
G01 X404.220654 Y267.443469 Z-0.249992
G01 X403.771018 Y267.249159 Z-0.249992
G01 X403.524243 Y267.142508 Z-0.249992
G01 X402.574875 Y266.957906 Z-0.249992
G01 X401.651924 Y266.842421 Z-0.249992
G01 X400.714946 Y266.725186 Z-0.249992
G01 X400.691804 Y266.721206 Z-0.249992
G01 X399.277193 Y266.478213 Z-0.249992
G01 X398.459680 Y266.293978 Z-0.249992
G01 X397.638950 Y266.109010 Z-0.249992
G01 X396.764145 Y266.122810 Z-0.249992
G01 X396.468010 Y266.187580 Z-0.249992
G01 X394.788251 Y266.555034 Z-0.249992
G01 X393.730934 Y266.969336 Z-0.249992
G01 X392.573851 Y267.595502 Z-0.249992
G01 X392.541621 Y267.612944 Z-0.249992
G01 X391.298714 Y268.285508 Z-0.249992
G01 X391.067349 Y268.510128 Z-0.249992
G01 X389.042461 Y270.476032 Z-0.249992
G01 X387.790664 Y271.691337 Z-0.249992
G01 X387.586646 Y271.981151 Z-0.249992
G01 X386.556930 Y273.444022 Z-0.249992
G01 X386.013906 Y274.215448 Z-0.249992
G01 X385.950998 Y274.378177 Z-0.249992
G01 X385.372076 Y275.875564 Z-0.249992
G01 X385.203505 Y276.457816 Z-0.249992
G01 X384.811131 Y277.813273 Z-0.249992
G01 X384.249650 Y279.752959 Z-0.249992
G01 X384.163854 Y280.153150 Z-0.249992
G01 X383.783221 Y281.928723 Z-0.249992
G01 X383.764058 Y282.110558 Z-0.249992
G01 X383.595544 Y283.708924 Z-0.249992
G01 X383.556456 Y284.079736 Z-0.249992
G01 X383.372673 Y285.823192 Z-0.249992
G01 X383.403774 Y286.042365 Z-0.249992
G01 X383.800014 Y288.836648 Z-0.249992
G01 X384.030758 Y290.463913 Z-0.249992
G01 X384.099875 Y290.688025 Z-0.249992
G01 X384.515757 Y292.036455 Z-0.249992
G01 X385.006598 Y293.627934 Z-0.249992
G01 X385.022882 Y293.680738 Z-0.249992
G01 X385.438737 Y295.029168 Z-0.249992
G01 X385.864413 Y296.409376 Z-0.249992
G01 X386.051413 Y296.773075 Z-0.249992
G01 X387.341959 Y299.282934 Z-0.249992
G01 X388.168814 Y300.891008 Z-0.249992
G01 X388.319746 Y301.054753 Z-0.249992
G01 X389.450046 Y302.281065 Z-0.249992
G01 X389.954490 Y302.828322 Z-0.249992
G01 X390.012176 Y302.896648 Z-0.249992
G01 X390.978985 Y304.041539 Z-0.249992
G01 X391.725547 Y304.975497 Z-0.249992
G01 X392.025042 Y305.350176 Z-0.249992
G01 X393.188136 Y306.805200 Z-0.249992
G01 X393.411938 Y306.983678 Z-0.249992
G01 X395.618380 Y308.743390 Z-0.249992
G01 X396.951231 Y309.806352 Z-0.249992
G01 X397.103969 Y309.891639 Z-0.249992
G01 X398.336067 Y310.579499 Z-0.249992
G01 X399.738852 Y311.362666 Z-0.249992
G01 X400.708737 Y311.904138 Z-0.249992
G01 X401.053613 Y312.052756 Z-0.249992
G01 X402.697727 Y312.761162 Z-0.249992
G01 X402.759561 Y312.782582 Z-0.249992
G01 X404.163617 Y313.268541 Z-0.249992
G01 X404.731194 Y313.464968 Z-0.249992
G01 X406.610455 Y314.115405 Z-0.249992
G01 X407.061475 Y314.183280 Z-0.249992
G01 X407.255982 Y314.183590 Z-0.249992
G01 X408.667093 Y314.186045 Z-0.249992
G01 X410.291169 Y314.188839 Z-0.249992
G01 X410.456354 Y314.189122 Z-0.249992
G01 X412.032227 Y314.191859 Z-0.249992
G01 X412.898282 Y314.190166 Z-0.249992
G01 X412.896702 Y314.190448 Z-0.249992
G01 X414.272986 Y313.942516 Z-0.249992
G01 X414.782482 Y313.701413 Z-0.249992
G01 X415.826422 Y313.196913 Z-0.249992
G01 X416.353529 Y312.942151 Z-0.249992
G01 X418.137681 Y312.079906 Z-0.249992
G01 X418.247832 Y312.009322 Z-0.249992
G01 X419.521417 Y311.193276 Z-0.249992
G01 X419.571172 Y311.127829 Z-0.249992
