%
(Header)
(Generated by gcodetools from Inkscape.)
(Using default header. To add your own header create file "header" in the output dir.)
M3
(Header end.)
G21 (All units in mm)
(Tool diameter should be at least 0.5 mm)
(Depth, as a function of radius w, must be 10)
(Rapid feeds use safe Z=5.0 mm)
(Material surface at Z=0.0 mm)
(Change tool to Cylindrical cutter)

G00 Z5.000000
G00 X83.474786 Y95.768924

G01 Z-0.249992 F100.0(Penetrate)
G01 X83.474786 Y95.768924 Z-0.249992 F400.000000
G01 X83.474786 Y97.098840 Z-0.249992
G01 X83.593320 Y97.538203 Z-0.249992
G01 X84.137642 Y98.275960 Z-0.249992
G01 X84.152599 Y98.296280 Z-0.249992
G01 X85.033330 Y99.489996 Z-0.249992
G01 X85.347246 Y100.655376 Z-0.249992
G01 X85.354273 Y100.741002 Z-0.249992
G01 X85.469505 Y102.147400 Z-0.249992
G01 X85.589901 Y103.616790 Z-0.249992
G01 X85.615865 Y103.933839 Z-0.249992
G01 X85.759319 Y105.684802 Z-0.249992
G01 X85.699657 Y106.113892 Z-0.249992
G01 X85.659412 Y106.200535 Z-0.249992
G01 X85.040414 Y107.533075 Z-0.249992
G01 X84.981655 Y107.659567 Z-0.249992
G01 X83.699830 Y110.419023 Z-0.249992
G01 X83.860810 Y108.859096 Z-0.249992
G01 X84.013520 Y107.379687 Z-0.249992
G01 X84.134424 Y106.208042 Z-0.249992
G01 X84.052410 Y105.637812 Z-0.249992
G01 X83.631278 Y104.705519 Z-0.249992
G01 X83.481221 Y104.373315 Z-0.249992
G01 X82.763699 Y102.784940 Z-0.249992
G01 X82.577574 Y102.556933 Z-0.249992
G01 X81.531037 Y101.274910 Z-0.249992
G01 X80.720015 Y101.073545 Z-0.249992
G01 X80.247152 Y100.956140 Z-0.249992
G01 X79.534400 Y100.559336 Z-0.249992
G01 X79.149561 Y100.200885 Z-0.249992
G01 X78.653669 Y99.738972 Z-0.249992
G01 X78.293638 Y99.653854 Z-0.249992
G01 X78.228021 Y99.653854 Z-0.249992
G01 X76.722196 Y99.653854 Z-0.249992
G01 X75.766479 Y99.653854 Z-0.249992
G01 X75.228733 Y99.649423 Z-0.249992
G01 X74.325198 Y99.297492 Z-0.249992
G01 X73.962825 Y98.948919 Z-0.249992
G01 X73.331748 Y98.329949 Z-0.249992
G01 X72.639852 Y97.651318 Z-0.249992
G01 X72.184402 Y97.298145 Z-0.249992
G01 X72.174383 Y97.139028 Z-0.130387
G01 X72.180648 Y97.301899 Z-0.249992
G01 X72.218438 Y97.412473 Z-0.249992
G01 X72.674650 Y98.747808 Z-0.249992
G01 X73.200289 Y100.286370 Z-0.249992
G01 X73.543894 Y100.630710 Z-0.249992
G01 X73.649304 Y100.736345 Z-0.249992
G01 X74.536921 Y100.912537 Z-0.249992
G01 X75.556901 Y100.989019 Z-0.249992
G01 X76.444574 Y101.055567 Z-0.249992
G01 X76.967645 Y101.110064 Z-0.249992
G01 X77.734245 Y101.447941 Z-0.249992
G01 X77.971227 Y101.751132 Z-0.249992
G01 X78.285058 Y102.218012 Z-0.249992
G01 X78.730631 Y102.880924 Z-0.249992
G01 X78.945148 Y103.557862 Z-0.249992
G01 X78.855881 Y104.588368 Z-0.249992
G01 X78.470732 Y105.027591 Z-0.249992
G01 X77.888480 Y105.088297 Z-0.249992
G01 X77.508185 Y105.127949 Z-0.249992
G01 X76.479767 Y105.300415 Z-0.249992
G01 X75.600702 Y105.472401 Z-0.249992
G01 X75.567569 Y105.478892 Z-0.249992
G01 X74.112487 Y105.763570 Z-0.249992
G01 X73.735043 Y105.723099 Z-0.249992
G01 X73.638580 Y105.683137 Z-0.249992
G01 X72.271834 Y105.116660 Z-0.249992
G01 X72.182511 Y105.079633 Z-0.249992
G01 X70.825191 Y104.517051 Z-0.249992
G01 X70.704061 Y104.506467 Z-0.249992
G01 X70.674005 Y104.513467 Z-0.249992
G01 X69.230861 Y104.850017 Z-0.249992
G01 X69.034999 Y104.895680 Z-0.249992
G01 X67.462457 Y105.262372 Z-0.249992
G01 X66.481904 Y105.470567 Z-0.249992
G01 X65.008506 Y105.245692 Z-0.249992
G01 X64.530507 Y104.780985 Z-0.249992
G01 X63.795572 Y103.983143 Z-0.249992
G01 X63.618477 Y103.790893 Z-0.249992
G01 X62.566804 Y102.649219 Z-0.249992
G01 X62.669195 Y102.391381 Z0.000000
G01 X62.566804 Y102.649219 Z-0.249992
G01 X62.210640 Y102.674365 Z-0.249992
G01 X60.326891 Y102.807292 Z-0.249992
G01 X59.995054 Y102.830717 Z-0.249992
G01 X58.231081 Y102.955205 Z-0.249992
G01 X57.726355 Y102.891338 Z-0.249992
G01 X56.623148 Y102.328502 Z-0.249992
G01 X55.979935 Y102.000362 Z-0.249992
G01 X55.167728 Y101.784886 Z-0.249992
G01 X54.796577 Y101.795638 Z-0.213473
G01 X54.407957 Y101.738291 Z-0.107188
G01 X54.330939 Y101.727030 Z-0.085937
G01 X54.330939 Y101.727030 Z-0.085937
G01 X54.573594 Y101.762844 Z-0.152598
G01 X55.104425 Y101.892977 Z-0.249992
G01 X55.666923 Y102.143957 Z-0.249992
G01 X56.340643 Y102.592775 Z-0.249992
G01 X56.585556 Y102.888064 Z-0.249992
G01 X57.250500 Y103.689829 Z-0.249992
G01 X58.361383 Y104.092758 Z-0.249992
G01 X58.435099 Y104.092758 Z-0.249992
G01 X59.963841 Y104.092758 Z-0.249992
G01 X60.751974 Y104.092758 Z-0.249992
G01 X61.218572 Y104.101225 Z-0.249992
G01 X62.091345 Y104.536863 Z-0.249992
G01 X62.498535 Y104.951955 Z-0.249992
G01 X63.223648 Y105.706618 Z-0.249992
G01 X64.187861 Y106.710143 Z-0.249992
G01 X64.761054 Y107.201323 Z-0.249992
G01 X64.708899 Y107.189300 Z-0.249992
G01 X66.028599 Y107.493649 Z-0.249992
G01 X66.714991 Y107.296770 Z-0.249992
G01 X67.939779 Y106.799156 Z-0.249992
G01 X68.393169 Y106.614950 Z-0.249992
G01 X69.159826 Y107.100005 Z-0.249992
G01 X69.262696 Y107.194578 Z-0.249992
G01 X70.387860 Y108.228979 Z-0.249992
G01 X71.332655 Y109.097518 Z-0.249992
G01 X71.868002 Y109.520117 Z-0.249992
G01 X72.921002 Y109.763816 Z-0.249992
G01 X73.430130 Y109.598462 Z-0.249992
G01 X74.372555 Y109.170641 Z-0.249992
G01 X75.136813 Y108.823706 Z-0.249992
G01 X75.941033 Y108.621860 Z-0.249992
G01 X77.360131 Y108.542076 Z-0.249992
G01 X78.041754 Y108.670177 Z-0.249992
G01 X78.518287 Y108.966115 Z-0.249992
G01 X79.012119 Y109.272778 Z-0.249992
G01 X79.458820 Y109.894598 Z-0.249992
G01 X79.585877 Y110.197620 Z-0.249992
G01 X80.253163 Y111.789071 Z-0.249992
G01 X80.635800 Y113.106371 Z-0.249992
G01 X80.681125 Y113.304068 Z-0.249992
G01 X81.040027 Y114.870232 Z-0.249992
G01 X81.078042 Y115.036235 Z-0.249992
G01 X81.431018 Y116.576463 Z-0.249992
G01 X81.465844 Y116.721779 Z-0.249992
G01 X81.828415 Y118.234264 Z-0.249992
G01 X81.923241 Y118.555970 Z-0.249992
G01 X82.083431 Y119.099388 Z-0.249992
G01 X81.847098 Y119.426907 Z-0.194395
G01 X81.352080 Y119.613823 Z-0.249992
G01 X81.044994 Y119.694115 Z-0.249992
G01 X80.815322 Y120.083554 Z-0.249992
G01 X80.489609 Y121.203920 Z-0.249992
G01 X80.213708 Y122.153005 Z-0.249992
G01 X80.130001 Y122.292084 Z-0.249992
G01 X79.329055 Y123.623241 Z-0.249992
G01 X79.158621 Y123.850938 Z-0.249992
G01 X78.313111 Y124.980674 Z-0.249992
G01 X77.297309 Y126.337881 Z-0.249992
G01 X77.187524 Y126.457910 Z-0.249992
G01 X76.113838 Y127.631672 Z-0.249992
G01 X75.234744 Y128.229052 Z-0.249992
G01 X74.366995 Y128.818699 Z-0.249992
G01 X73.453781 Y129.264271 Z-0.249992
G01 X73.253092 Y129.325993 Z-0.249992
G01 X71.700475 Y129.803541 Z-0.249992
G01 X70.816414 Y129.907201 Z-0.249992
G01 X70.027998 Y129.820700 Z-0.249992
G01 X69.065169 Y129.715065 Z-0.249992
G01 X68.102452 Y129.862921 Z-0.249992
G01 X67.927305 Y129.916289 Z-0.249992
G01 X66.385130 Y130.386189 Z-0.249992
G01 X65.796894 Y130.565428 Z-0.249992
G01 X63.833559 Y131.163655 Z-0.249992
G01 X63.752928 Y131.170541 Z-0.249992
G01 X62.235814 Y131.299996 Z-0.249992
G01 X60.992061 Y130.827133 Z-0.249992
G01 X60.164896 Y130.512625 Z-0.249992
G01 X60.008008 Y130.375295 Z-0.249992
G01 X58.812967 Y129.329182 Z-0.249992
G01 X58.647161 Y129.148842 Z-0.249992
G01 X57.692149 Y128.110010 Z-0.249992
G01 X56.570344 Y126.889766 Z-0.249992
G01 X56.515706 Y126.813735 Z-0.249992
G01 X55.599217 Y125.538712 Z-0.249992
G01 X55.599217 Y124.902639 Z-0.249992
G01 X55.599217 Y124.308392 Z-0.249992
G01 X56.035279 Y124.205438 Z-0.175119
G01 X57.084666 Y124.130536 Z-0.249992
G01 X57.741115 Y124.130536 Z-0.249992
G01 X58.246377 Y124.218758 Z-0.249992
G01 X58.938104 Y124.670427 Z-0.249992
G01 X59.144888 Y125.073497 Z-0.249992
G01 X59.239602 Y125.581299 Z-0.249992
G01 X59.305162 Y125.932694 Z-0.249992
G01 X59.376959 Y126.012704 Z-0.249992
G01 X59.556961 Y126.016204 Z-0.249992
G01 X59.637451 Y125.935234 Z-0.249992
G01 X59.725335 Y125.585166 Z-0.249992
G01 X59.820528 Y125.205887 Z-0.249992
G01 X59.755673 Y124.885932 Z-0.249992
G01 X59.377609 Y124.234535 Z-0.249992
G01 X59.094765 Y123.976555 Z-0.249992
G01 X58.367733 Y123.582065 Z-0.249992
G01 X57.985096 Y123.480211 Z-0.249992
G01 X57.190669 Y123.500813 Z-0.249992
G01 X56.854090 Y123.613589 Z-0.249992
G01 X56.552000 Y123.886978 Z-0.249992
G01 X56.129090 Y124.189774 Z-0.190754
G01 X55.727431 Y124.323096 Z-0.186549
G01 X55.253128 Y123.847749 Z-0.249992
G01 X55.185649 Y123.314716 Z-0.249992
G01 X55.201877 Y122.565614 Z-0.249992
G01 X55.228519 Y121.333318 Z-0.249992
G01 X55.677901 Y120.282266 Z-0.249992
G01 X55.796717 Y120.172792 Z-0.249992
G01 X56.966895 Y119.094506 Z-0.249992
G01 X57.914202 Y118.919726 Z-0.249992
G01 X58.774613 Y119.404442 Z-0.249992
G01 X59.435408 Y119.776750 Z-0.249992
G01 X59.630197 Y120.192012 Z-0.249992
G01 X59.650094 Y121.212640 Z-0.249992
G01 X59.664798 Y121.965750 Z-0.249992
G01 X59.701543 Y122.268575 Z-0.249992
G01 X59.734225 Y122.294539 Z-0.249992
G01 X59.785504 Y122.249609 Z-0.249992
G01 X60.136109 Y121.803896 Z-0.249992
G01 X60.506836 Y121.332613 Z-0.249992
G01 X60.656583 Y121.017822 Z-0.249992
G01 X60.630167 Y120.339558 Z-0.249992
G01 X60.450956 Y120.010402 Z-0.249992
G01 X60.040238 Y119.522327 Z-0.249992
G01 X59.609567 Y119.010488 Z-0.249992
G01 X59.341033 Y118.564606 Z-0.249992
G01 X59.689718 Y118.017094 Z-0.249992
G01 X60.212873 Y118.006285 Z-0.249992
G01 X60.904290 Y118.163794 Z-0.174498
G01 X60.466168 Y118.036116 Z-0.249992
G01 X61.916988 Y118.458885 Z0.000000
G01 X60.466168 Y118.036116 Z-0.249992
G01 X61.001769 Y118.192185 Z-0.157706
G01 X60.463007 Y118.034620 Z-0.249992
G01 X59.826229 Y117.954526 Z-0.249992
G01 X59.171022 Y118.053783 Z-0.249992
G01 X57.739450 Y118.270643 Z-0.249992
G01 X57.984983 Y116.817340 Z-0.249992
G01 X58.135803 Y115.924530 Z-0.249992
G01 X57.877682 Y115.258175 Z-0.249992
G01 X57.902179 Y115.277902 Z-0.249992
G01 X56.826941 Y114.412326 Z-0.249992
G01 X56.111479 Y114.297095 Z-0.249992
G01 X55.256317 Y114.625263 Z-0.249992
G01 X54.918215 Y114.695508 Z-0.194451
G01 X54.918215 Y114.695508 Z-0.194451
G01 X55.027689 Y114.758416 Z-0.249992
G01 X55.250588 Y114.849517 Z-0.249992
G01 X55.750771 Y114.943356 Z-0.249992
G01 X56.718878 Y115.124966 Z-0.249992
G01 X57.359042 Y115.819345 Z-0.249992
G01 X57.375468 Y115.908330 Z-0.249992
G01 X57.646288 Y117.376083 Z-0.249992
G01 X57.334997 Y118.340041 Z-0.249992
G01 X56.560720 Y119.076133 Z-0.249992
G01 X56.094151 Y119.519730 Z-0.249992
G01 X55.535633 Y120.227628 Z-0.249992
G01 X55.312113 Y120.655788 Z-0.249992
G01 X54.713604 Y121.802174 Z-0.249992
G01 X53.866317 Y120.798479 Z-0.249992
G01 X53.258749 Y120.078756 Z-0.249992
G01 X52.592281 Y119.705517 Z-0.249992
G01 X52.587906 Y119.705094 Z-0.249992
G01 X51.183089 Y119.563559 Z-0.249992
G01 X50.520657 Y119.795772 Z-0.249992
G01 X49.895619 Y120.382963 Z-0.249992
G01 X49.361344 Y120.884896 Z-0.249992
G01 X49.243940 Y121.289856 Z-0.249992
G01 X49.404891 Y121.643452 Z-0.249992
G01 X49.574309 Y121.650593 Z-0.249992
G01 X50.088998 Y121.184813 Z-0.249992
G01 X50.614975 Y120.708817 Z-0.249992
G01 X51.266993 Y120.525062 Z-0.249992
G01 X52.504905 Y120.812280 Z-0.249992
G01 X53.164430 Y121.269339 Z-0.249992
G01 X53.789609 Y121.981329 Z-0.249992
G01 X54.400874 Y122.677458 Z-0.249992
G01 X54.948949 Y123.464689 Z-0.249992
G01 X54.958150 Y123.726902 Z-0.249992
G01 X54.985779 Y124.513935 Z-0.249992
G01 X55.174529 Y124.962922 Z-0.249992
G01 X55.913303 Y126.720038 Z-0.249992
G01 X56.530833 Y127.454493 Z-0.249992
G01 X56.929246 Y127.928344 Z-0.249992
G01 X57.118871 Y128.400699 Z-0.249992
G01 X56.773488 Y128.908276 Z-0.249992
G01 X56.267181 Y128.838877 Z-0.249992
G01 X55.733329 Y128.553184 Z-0.249992
G01 X55.247907 Y128.293398 Z-0.249992
G01 X55.041772 Y127.868823 Z-0.249992
G01 X55.193071 Y127.392178 Z-0.249992
G01 X55.316685 Y127.143230 Z-0.207490
G01 X55.316685 Y127.143230 Z-0.207490
G01 X55.231510 Y127.175714 Z-0.249992
G01 X55.139844 Y127.237295 Z-0.249992
G01 X54.987444 Y127.509554 Z-0.249992
G01 X54.762344 Y127.911777 Z-0.249992
G01 X54.285812 Y128.029549 Z-0.249992
G01 X53.644772 Y127.780234 Z-0.249992
G01 X53.341440 Y127.389638 Z-0.249992
G01 X53.341440 Y126.929390 Z-0.249992
G01 X53.341440 Y126.672257 Z-0.249992
G01 X53.308871 Y126.606076 Z-0.249992
G01 X53.309210 Y126.605512 Z-0.249428
G01 X53.287789 Y126.606076 Z-0.249992
G01 X53.277008 Y126.622276 Z-0.249992
G01 X53.277008 Y126.779417 Z-0.249992
G01 X53.277008 Y127.139617 Z-0.249992
G01 X52.859461 Y127.452743 Z-0.249992
G01 X52.462543 Y127.452743 Z-0.249992
G01 X51.982709 Y127.452743 Z-0.249992
G01 X51.648106 Y127.118169 Z-0.249992
G01 X51.648106 Y126.638306 Z-0.249992
G01 X51.648106 Y126.386874 Z-0.249992
G01 X51.616610 Y126.323854 Z-0.249992
G01 X51.615877 Y126.323854 Z-0.249992
G01 X51.615171 Y126.323854 Z-0.249992
G01 X51.583675 Y126.386874 Z-0.249992
G01 X51.583675 Y126.638306 Z-0.249992
G01 X51.583675 Y127.172383 Z-0.249992
G01 X51.233211 Y127.452743 Z-0.249992
G01 X50.628099 Y127.452743 Z-0.249992
G01 X50.119845 Y127.452743 Z-0.249992
G01 X49.681017 Y127.179580 Z-0.241554
G01 X49.672551 Y126.779417 Z-0.249992
G01 X49.672551 Y126.626171 Z-0.249992
G01 X49.658327 Y126.606076 Z-0.249992
G01 X49.622597 Y126.584994 Z-0.228882
G01 X49.637809 Y126.606076 Z-0.249992
G01 X49.618054 Y126.665371 Z-0.249992
G01 X49.658553 Y126.956653 Z-0.249992
G01 X49.739127 Y127.536140 Z-0.249992
G01 X49.478777 Y127.881495 Z-0.249992
G01 X48.899375 Y127.963791 Z-0.249992
G01 X48.408365 Y127.932323 Z-0.149804
G01 X48.137601 Y127.715351 Z-0.091609
G01 X47.991861 Y127.363504 Z-0.237349
G01 X47.979217 Y127.192732 Z-0.249992
G01 X47.965078 Y127.170521 Z-0.249992
G01 X47.946988 Y127.170521 Z-0.249992
G01 X47.833055 Y127.170521 Z-0.249992
G01 X47.834099 Y127.187849 Z-0.249992
G01 X48.091542 Y127.604155 Z-0.137668
G01 X48.400999 Y127.914035 Z-0.137386
G01 X48.410114 Y128.265487 Z-0.249992
G01 X47.923676 Y128.452148 Z-0.249992
G01 X47.591359 Y128.579685 Z-0.249992
G01 X47.080989 Y128.496514 Z-0.249992
G01 X46.848155 Y128.263680 Z-0.249992
G01 X46.635501 Y128.051026 Z-0.249992
G01 X46.571916 Y128.019248 Z-0.249992
G01 X46.516375 Y128.037903 Z-0.249992
G01 X46.503675 Y128.070556 Z-0.249992
G01 X46.503675 Y128.346033 Z-0.249992
G01 X46.503675 Y128.818699 Z-0.249992
G01 X46.020059 Y129.270508 Z-0.249992
G01 X44.803258 Y129.814576 Z-0.249992
G01 X43.970787 Y129.992743 Z-0.249992
G01 X43.130075 Y129.992743 Z-0.249992
G01 X42.126324 Y129.992743 Z-0.249992
G01 X41.641494 Y129.773908 Z-0.249992
G01 X40.827565 Y128.959979 Z-0.249992
G01 X40.012253 Y128.144667 Z-0.249992
G01 X39.794773 Y127.661785 Z-0.249992
G01 X39.794773 Y126.652530 Z-0.249992
G01 X39.794773 Y125.913531 Z-0.249992
G01 X39.964812 Y125.176310 Z-0.249992
G01 X40.509416 Y124.044345 Z-0.249992
G01 X40.938620 Y123.576844 Z-0.249992
G01 X41.405584 Y123.428649 Z-0.249992
G01 X41.878222 Y123.278648 Z-0.249992
G01 X42.371631 Y123.402939 Z-0.249992
G01 X42.843620 Y123.871399 Z-0.249992
G01 X42.814240 Y124.370651 Z-0.249992
G01 X42.354867 Y124.629872 Z-0.249992
G01 X41.902154 Y124.885283 Z-0.249992
G01 X41.859680 Y125.190252 Z-0.249992
G01 X42.268225 Y125.886156 Z-0.249992
G01 X42.697090 Y126.128443 Z-0.249992
G01 X43.315354 Y126.057549 Z-0.249992
G01 X43.885358 Y125.992187 Z-0.249992
G01 X43.910024 Y125.963908 Z-0.249992
G01 X43.976855 Y125.270206 Z-0.249992
G01 X44.024804 Y124.772450 Z-0.249992
G01 X43.769224 Y124.215485 Z-0.249992
G01 X42.916405 Y123.250144 Z-0.249992
G01 X42.405498 Y122.937187 Z-0.249992
G01 X41.922587 Y122.937187 Z-0.249992
G01 X41.508342 Y122.937187 Z-0.249992
G01 X40.999664 Y123.203154 Z-0.249992
G01 X40.045499 Y124.039350 Z-0.249992
G01 X39.684001 Y124.540633 Z-0.249992
G01 X39.581723 Y125.006243 Z-0.249992
G01 X39.424892 Y125.720265 Z-0.249992
G01 X39.099039 Y126.041632 Z-0.249992
G01 X38.486786 Y126.041632 Z-0.249992
G01 X38.165081 Y126.041632 Z-0.249992
G01 X37.898635 Y126.140438 Z-0.249992
G01 X37.834824 Y126.243675 Z-0.249992
G01 X37.556976 Y126.553639 Z-0.176615
G01 X37.188027 Y126.289818 Z-0.102249
G01 X36.724139 Y125.920163 Z-0.249992
G01 X36.388153 Y125.258917 Z-0.120001
G01 X36.388153 Y125.258917 Z-0.120001
G01 X35.736784 Y125.735675 Z-0.249992
G01 X35.444600 Y125.884152 Z-0.249992
G01 X33.925256 Y126.656143 Z-0.249992
G01 X33.868050 Y126.708918 Z-0.249992
G01 X34.075737 Y126.959193 Z-0.249992
G01 X34.404187 Y127.354953 Z-0.249992
G01 X34.386294 Y127.720911 Z-0.249992
G01 X33.983563 Y127.969831 Z-0.249992
G01 X33.740880 Y128.043208 Z-0.184827
G01 X33.740880 Y128.043208 Z-0.184827
G01 X34.081579 Y128.329438 Z-0.249992
G01 X34.489560 Y128.580193 Z-0.249992
G01 X35.230308 Y128.961164 Z-0.249992
G01 X35.258672 Y128.975755 Z-0.249992
G01 X36.354738 Y129.539494 Z-0.249992
G01 X36.427580 Y129.858095 Z0.000000
G01 X36.354738 Y129.539494 Z-0.249992
G01 X36.726199 Y129.047045 Z-0.249992
G01 X37.163022 Y128.647418 Z-0.141930
G01 X37.557146 Y128.416334 Z-0.176728
G01 X37.834824 Y128.726271 Z-0.249992
G01 X38.042483 Y129.062256 Z-0.249992
G01 X38.383662 Y129.024636 Z-0.249992
G01 X38.383662 Y128.746111 Z-0.249992
G01 X38.383662 Y128.355741 Z-0.249992
G01 X37.902078 Y128.175006 Z-0.249992
G01 X37.553872 Y128.418677 Z-0.176050
G01 X37.322563 Y128.583692 Z-0.129201
G01 X36.836407 Y128.863854 Z-0.249992
G01 X36.416827 Y128.863854 Z-0.249992
G01 X36.079374 Y128.863854 Z-0.249992
G01 X35.737236 Y128.853694 Z-0.249992
G01 X35.578260 Y128.415093 Z-0.249992
G01 X35.792834 Y128.165185 Z-0.249992
G01 X36.033315 Y127.899444 Z-0.249992
G01 X36.262056 Y127.646714 Z-0.249992
G01 X36.319009 Y127.478312 Z-0.249992
G01 X36.253561 Y127.212882 Z-0.249992
G01 X36.192771 Y127.170521 Z-0.249992
G01 X35.935892 Y127.170521 Z-0.249992
G01 X35.633971 Y127.170521 Z-0.249992
G01 X35.279217 Y126.924338 Z-0.249992
G01 X35.279217 Y126.638306 Z-0.249992
G01 X35.279217 Y125.979289 Z-0.249992
G01 X35.588222 Y125.989477 Z-0.249992
G01 X37.089306 Y126.176308 Z-0.112720
G01 X37.609667 Y126.547515 Z-0.218186
G01 X37.831720 Y126.724610 Z-0.249992
G01 X37.846198 Y126.724610 Z-0.249992
G01 X38.222231 Y126.489744 Z-0.249992
G01 X38.616467 Y126.243562 Z-0.249992
G01 X38.949912 Y126.066609 Z-0.249992
G01 X39.419220 Y126.305792 Z-0.249992
G01 X39.448571 Y126.683377 Z-0.249992
G01 X39.449164 Y127.131856 Z-0.249992
G01 X39.450349 Y127.996416 Z-0.249992
G01 X39.917794 Y128.793722 Z-0.249992
G01 X40.145434 Y128.979847 Z-0.249992
G01 X41.469705 Y130.062762 Z-0.249992
G01 X42.481754 Y130.459087 Z-0.249992
G01 X43.572741 Y130.458410 Z-0.249992
G01 X44.236612 Y130.457873 Z-0.249992
G01 X44.260206 Y130.450649 Z-0.249992
G01 X45.655456 Y130.023054 Z-0.249992
G01 X45.849399 Y129.939262 Z-0.249992
G01 X47.351329 Y129.290179 Z-0.249992
G01 X47.530484 Y129.212765 Z-0.249992
G01 X49.017287 Y128.570230 Z-0.249992
G01 X49.120552 Y128.538254 Z-0.249992
G01 X50.595022 Y128.081647 Z-0.249992
G01 X51.286890 Y128.081647 Z-0.249992
G01 X52.626176 Y128.081647 Z-0.249992
G01 X52.990581 Y128.204611 Z-0.249992
G01 X54.666840 Y128.770326 Z-0.249992
G01 X55.029721 Y128.941691 Z-0.249992
G01 X56.305733 Y129.544235 Z-0.249992
G01 X57.931530 Y130.311965 Z-0.249992
G01 X58.419916 Y130.542597 Z-0.249992
G01 X60.164162 Y131.366262 Z-0.249992
G01 X60.258114 Y131.391606 Z-0.249992
G01 X61.620541 Y131.759059 Z-0.249992
G01 X63.028746 Y132.138845 Z-0.249992
G01 X63.749739 Y131.916934 Z-0.249992
G01 X63.962280 Y131.851515 Z-0.249992
G01 X64.894630 Y131.721919 Z-0.249992
G01 X65.815549 Y131.626697 Z-0.249992
G01 X65.946980 Y131.613122 Z-0.249992
G01 X68.115717 Y131.388925 Z-0.249992
G01 X67.631649 Y131.940951 Z-0.249992
G01 X66.637295 Y133.074977 Z-0.249992
G01 X66.061139 Y133.732046 Z-0.249992
G01 X65.926688 Y133.909846 Z-0.249992
G01 X64.939108 Y135.215971 Z-0.249992
G01 X64.941874 Y135.211907 Z-0.249992
G01 X64.142197 Y136.375453 Z-0.249992
G01 X63.446519 Y137.387727 Z-0.249992
G01 X63.062020 Y137.935944 Z-0.249992
G01 X62.309587 Y138.559627 Z-0.249992
G01 X62.193170 Y137.943028 Z-0.249992
G01 X62.155099 Y137.526609 Z-0.249992
G01 X62.144120 Y137.406523 Z-0.249992
G01 X62.008230 Y135.919692 Z-0.249992
G01 X61.889358 Y135.637187 Z-0.249992
G01 X61.513466 Y135.637187 Z-0.249992
G01 X61.272815 Y135.637187 Z-0.249992
G01 X60.985541 Y135.948648 Z-0.249992
G01 X60.614984 Y136.714119 Z-0.249992
G01 X60.241321 Y137.485969 Z-0.249992
G01 X60.080596 Y137.870412 Z-0.249992
G01 X60.106165 Y138.349456 Z-0.249992
G01 X60.234322 Y138.464095 Z-0.249992
G01 X60.651927 Y138.737737 Z-0.249992
G01 X61.412657 Y139.236170 Z-0.249992
G01 X61.478132 Y139.512889 Z-0.249992
G01 X60.936209 Y140.111680 Z-0.249992
G01 X60.424992 Y140.676576 Z-0.249992
G01 X59.848581 Y140.884235 Z-0.249992
G01 X57.962264 Y141.563854 Z-0.249992
G01 X56.948522 Y141.563854 Z-0.249992
G01 X56.259871 Y141.563854 Z-0.249992
G01 X56.235459 Y141.197784 Z-0.249992
G01 X56.666864 Y140.333027 Z-0.249992
G01 X57.046622 Y139.571789 Z-0.249992
G01 X57.406456 Y139.338250 Z-0.249992
G01 X58.038267 Y139.496830 Z-0.249992
G01 X58.351364 Y139.575429 Z-0.249992
G01 X58.622664 Y139.496322 Z-0.249992
G01 X59.125951 Y139.085379 Z-0.249992
G01 X59.268106 Y138.822460 Z-0.249992
G01 X59.268106 Y138.481310 Z-0.249992
G01 X59.268106 Y137.974185 Z-0.249992
G01 X59.038773 Y137.693769 Z-0.249992
G01 X57.891144 Y136.290588 Z-0.249992
G01 X57.067761 Y135.849927 Z-0.249992
G01 X56.744757 Y135.677037 Z-0.249992
G01 X56.670731 Y135.688157 Z-0.249992
G01 X56.444529 Y136.102149 Z-0.249992
G01 X56.415997 Y136.553309 Z-0.249992
G01 X56.507606 Y137.294199 Z-0.249992
G01 X56.580504 Y137.883930 Z-0.249992
G01 X56.618153 Y138.260528 Z-0.249992
G01 X56.379505 Y138.775894 Z-0.249992
G01 X56.017443 Y138.698875 Z-0.249992
G01 X55.705361 Y138.604500 Z-0.249992
G01 X55.369122 Y138.502787 Z-0.249992
G01 X54.563829 Y138.348383 Z-0.249992
G01 X53.911218 Y138.261403 Z-0.249992
G01 X52.911192 Y138.043866 Z-0.166426
G01 X52.911192 Y138.043866 Z-0.166426
G01 X52.994786 Y138.392156 Z-0.249992
G01 X52.994786 Y139.052528 Z-0.249992
G01 X53.663681 Y139.944604 Z-0.249992
G01 X54.647536 Y140.542915 Z-0.249992
G01 X56.018571 Y141.376684 Z-0.249992
G01 X54.642653 Y141.722011 Z-0.249992
G01 X54.175265 Y141.839331 Z-0.249992
G01 X53.815432 Y141.840686 Z-0.249992
G01 X52.068448 Y141.847290 Z-0.249992
G01 X51.720722 Y141.830639 Z-0.249992
G01 X49.969957 Y141.746678 Z-0.249992
G01 X49.776267 Y141.737393 Z-0.249992
G01 X48.366765 Y141.669772 Z-0.249992
G01 X46.749095 Y141.592217 Z-0.249992
G01 X45.915806 Y141.454267 Z-0.249992
G01 X44.919505 Y140.897443 Z-0.249992
G01 X44.150816 Y140.467788 Z-0.249992
G01 X43.554848 Y139.968706 Z-0.249992
G01 X42.720176 Y138.783288 Z-0.249992
G01 X42.456608 Y138.060686 Z-0.249992
G01 X42.322637 Y137.207274 Z-0.249992
G01 X42.192928 Y136.026090 Z-0.194959
G01 X42.478847 Y135.089112 Z-0.097536
G01 X42.572122 Y134.933466 Z-0.123585
G01 X43.551518 Y133.662704 Z-0.167442
G01 X44.505852 Y133.169041 Z-0.199616
G01 X45.826285 Y133.014835 Z-0.133745
G01 X45.826962 Y133.014779 Z-0.133689
G01 X44.975752 Y133.075682 Z-0.214122
G01 X47.241432 Y132.913602 Z0.000000
G01 X44.975752 Y133.075682 Z-0.214122
G01 X47.224978 Y132.914787 Z-0.001552
G01 X45.794704 Y133.017093 Z-0.136737
G01 X44.975752 Y133.075682 Z-0.214122
G01 X44.346509 Y133.224837 Z-0.218242
G01 X43.295852 Y133.888369 Z-0.223012
G01 X42.908954 Y134.371421 Z-0.217678
G01 X42.506618 Y135.042799 Z-0.105297
G01 X42.189400 Y136.055413 Z-0.203002
G01 X42.225186 Y137.223671 Z-0.249992
G01 X42.332769 Y137.620927 Z-0.249992
G01 X42.808568 Y139.377676 Z-0.249992
G01 X43.370613 Y140.275707 Z-0.249992
G01 X44.147486 Y140.734629 Z-0.249992
G01 X44.619418 Y141.013380 Z-0.249992
G01 X45.092564 Y141.425227 Z-0.249992
G01 X45.092564 Y141.665567 Z-0.249992
G01 X45.092564 Y141.887732 Z-0.249992
G01 X44.581967 Y142.457031 Z-0.249992
G01 X44.036968 Y142.935567 Z-0.249992
G01 X43.469673 Y143.433661 Z-0.249992
G01 X43.083791 Y143.992151 Z-0.249992
G01 X43.089604 Y143.976008 Z-0.249992
G01 X42.616854 Y145.287664 Z-0.249992
G01 X42.555414 Y145.971375 Z-0.249992
G01 X42.670222 Y146.730412 Z-0.249992
G01 X42.810035 Y147.702724 Z-0.242824
G01 X42.840628 Y148.107684 Z-0.151694
G01 X42.840628 Y148.107684 Z-0.151694
G01 X42.817655 Y147.754483 Z-0.234724
G01 X42.811446 Y146.790102 Z-0.249992
G01 X42.819574 Y145.926107 Z-0.249992
G01 X42.919678 Y145.182112 Z-0.249992
G01 X43.364602 Y143.968980 Z-0.249992
G01 X43.736938 Y143.456154 Z-0.249992
G01 X43.916516 Y143.323764 Z-0.249992
G01 X45.246177 Y142.343408 Z-0.249992
G01 X45.383168 Y142.316936 Z-0.249992
G01 X46.869689 Y142.029718 Z-0.249992
G01 X47.379354 Y142.013293 Z-0.249992
G01 X49.279500 Y141.952051 Z-0.249992
G01 X49.557940 Y141.943076 Z-0.249992
G01 X51.257680 Y141.888297 Z-0.249992
G01 X52.712564 Y141.968899 Z-0.249992
G01 X52.712564 Y142.377811 Z-0.249992
G01 X52.712564 Y142.570767 Z-0.249992
G01 X52.506542 Y143.199219 Z-0.249992
G01 X52.269898 Y143.765583 Z-0.249992
G01 X51.986688 Y144.443424 Z-0.249992
G01 X51.869933 Y145.089233 Z-0.249992
G01 X51.905211 Y146.337417 Z-0.249992
G01 X52.052757 Y146.885324 Z-0.249992
G01 X52.592478 Y147.866130 Z-0.249992
G01 X52.953158 Y148.247328 Z-0.249992
G01 X53.906138 Y148.813494 Z-0.249992
G01 X54.445719 Y148.966092 Z-0.249992
G01 X55.091584 Y148.966092 Z-0.249992
G01 X55.679340 Y148.966092 Z-0.249992
G01 X56.213785 Y148.762807 Z-0.249992
G01 X57.056387 Y148.099556 Z-0.249992
G01 X57.290491 Y147.717202 Z-0.249992
G01 X57.313915 Y147.292006 Z-0.223887
G01 X57.288374 Y147.380341 Z-0.249992
G01 X57.533032 Y146.534973 Z0.000000
G01 X57.288374 Y147.380341 Z-0.249992
G01 X57.173933 Y147.558960 Z-0.249992
G01 X56.845708 Y148.071278 Z-0.249992
G01 X56.385489 Y148.442485 Z-0.249992
G01 X55.445463 Y148.832375 Z-0.249992
G01 X54.900576 Y148.876345 Z-0.249992
G01 X53.941049 Y148.677209 Z-0.249992
G01 X53.455853 Y148.419963 Z-0.249992
G01 X52.734436 Y147.686891 Z-0.249992
G01 X52.448545 Y147.163284 Z-0.249992
G01 X52.335515 Y146.560712 Z-0.249992
G01 X52.098787 Y145.298896 Z-0.249992
G01 X52.420125 Y144.142857 Z-0.249992
G01 X52.695546 Y143.841924 Z-0.249992
G01 X53.917963 Y142.506363 Z-0.249992
G01 X55.135244 Y141.956228 Z-0.249992
G01 X55.204276 Y141.949398 Z-0.249992
G01 X56.636666 Y141.808146 Z-0.249992
G01 X57.979536 Y141.675727 Z-0.249992
G01 X58.923005 Y141.500354 Z-0.249992
G01 X59.067221 Y141.445151 Z-0.249992
G01 X60.524277 Y140.887255 Z-0.249992
G01 X61.158431 Y140.462962 Z-0.249992
G01 X61.890600 Y139.804678 Z-0.249992
G01 X62.661321 Y139.111710 Z-0.249992
G01 X63.120129 Y138.721284 Z-0.249992
G01 X63.895648 Y138.425825 Z-0.249992
G01 X64.001425 Y138.920899 Z-0.249992
G01 X64.001425 Y139.345305 Z-0.249992
G01 X64.001425 Y139.792543 Z-0.249992
G01 X63.623331 Y140.232894 Z-0.249992
G01 X63.111775 Y140.427373 Z-0.249992
G01 X62.753353 Y140.563659 Z-0.249992
G01 X62.666993 Y140.673274 Z-0.249992
G01 X62.689007 Y140.866850 Z-0.249992
G01 X62.770456 Y140.922758 Z-0.249992
G01 X63.134325 Y140.922758 Z-0.249992
G01 X63.536859 Y140.922758 Z-0.249992
G01 X64.119704 Y141.281942 Z-0.249992
G01 X64.402716 Y141.684589 Z-0.249992
G01 X64.697808 Y142.104451 Z-0.249992
G01 X64.658974 Y142.483955 Z0.000000
G01 X64.697808 Y142.104451 Z-0.249992
G01 X65.163333 Y141.667119 Z-0.249992
G01 X65.623525 Y141.234811 Z-0.249992
G01 X65.915061 Y140.709991 Z-0.249992
G01 X66.186756 Y139.535213 Z-0.249992
G01 X66.151732 Y138.958858 Z-0.249992
G01 X65.921862 Y138.408666 Z-0.249992
G01 X65.715021 Y137.913648 Z-0.249992
G01 X65.495311 Y137.612743 Z-0.249992
G01 X65.459159 Y137.612743 Z-0.249992
G01 X64.793989 Y137.612743 Z-0.249992
G01 X64.838750 Y136.455604 Z-0.249992
G01 X65.367239 Y136.128988 Z-0.249992
G01 X65.646385 Y135.956465 Z-0.249992
G01 X66.080979 Y136.081941 Z-0.249992
G01 X66.184357 Y136.392104 Z-0.249992
G01 X66.329363 Y136.827065 Z-0.249992
G01 X66.678726 Y137.120858 Z-0.249992
G01 X67.701640 Y137.462431 Z-0.249992
G01 X68.281607 Y137.462177 Z-0.249992
G01 X68.859908 Y137.240266 Z-0.249992
G01 X69.117380 Y137.141460 Z-0.249992
G01 X69.178199 Y137.072287 Z-0.249992
G01 X69.207211 Y136.839736 Z-0.249992
G01 X69.154859 Y136.734355 Z-0.249992
G01 X68.622729 Y136.211002 Z-0.249992
G01 X67.939554 Y135.919410 Z-0.249992
G01 X67.114900 Y135.919410 Z-0.249992
G01 X66.281978 Y135.919410 Z-0.249992
G01 X65.996595 Y135.653387 Z-0.249992
G01 X66.331846 Y135.026967 Z-0.249992
G01 X66.604445 Y134.517612 Z-0.249992
G01 X67.088258 Y134.095690 Z-0.249992
G01 X67.298768 Y134.001089 Z-0.249992
G01 X68.777161 Y133.336822 Z-0.249992
G01 X70.016794 Y132.960931 Z-0.249992
G01 X70.261904 Y132.898080 Z-0.249992
G01 X71.868651 Y132.486092 Z-0.249992
G01 X72.083281 Y132.431058 Z-0.249992
G01 X73.657206 Y132.027481 Z-0.249992
G01 X73.674761 Y132.021808 Z-0.249992
G01 X75.029314 Y131.582727 Z-0.249992
G01 X75.446467 Y131.396206 Z-0.249992
G01 X77.144288 Y130.636972 Z-0.249992
G01 X77.855770 Y130.157279 Z-0.249992
G01 X78.356263 Y129.604264 Z-0.249992
G01 X78.756228 Y129.162304 Z-0.249992
G01 X79.169994 Y128.906385 Z-0.249992
G01 X79.838635 Y129.043827 Z-0.249992
G01 X80.078129 Y129.456436 Z-0.249992
G01 X80.189070 Y130.011229 Z-0.249992
G01 X80.419787 Y131.164812 Z-0.249992
G01 X80.381659 Y132.436308 Z-0.249992
G01 X80.291743 Y132.831870 Z-0.249992
G01 X79.887855 Y134.608572 Z-0.249992
G01 X79.405763 Y135.583960 Z-0.249992
G01 X78.772202 Y136.108245 Z-0.249992
G01 X78.198049 Y136.583394 Z-0.249992
G01 X77.902534 Y136.333035 Z-0.242231
G01 X77.894773 Y135.534967 Z-0.249992
G01 X77.894773 Y134.616813 Z-0.249992
G01 X77.816400 Y134.449258 Z-0.249992
G01 X77.184166 Y133.097187 Z-0.249992
G01 X76.887917 Y133.097187 Z-0.249992
G01 X76.633776 Y133.097187 Z-0.249992
G01 X76.136980 Y134.099471 Z-0.249992
G01 X76.136980 Y134.866636 Z-0.249992
G01 X76.136980 Y135.524157 Z-0.249992
G01 X75.798906 Y135.683359 Z-0.249992
G01 X75.043764 Y135.472934 Z-0.249992
G01 X74.630139 Y135.357675 Z-0.249992
G01 X73.992402 Y135.253393 Z-0.249992
G01 X73.620010 Y135.239677 Z-0.249992
G01 X73.108933 Y135.136610 Z-0.165806
G01 X73.108933 Y135.136610 Z-0.165806
G01 X73.247928 Y135.642747 Z-0.249992
G01 X73.285576 Y135.993606 Z-0.249992
G01 X73.538560 Y136.585341 Z-0.249992
G01 X73.821008 Y136.971619 Z-0.249992
G01 X74.142092 Y137.410757 Z-0.249992
G01 X74.325226 Y137.807730 Z-0.249992
G01 X74.084293 Y138.361422 Z-0.249992
G01 X73.662089 Y138.459410 Z-0.249992
G01 X73.144832 Y138.459410 Z-0.249992
G01 X72.288796 Y138.459410 Z-0.249992
G01 X72.255465 Y138.477528 Z-0.249992
G01 X71.056980 Y139.128587 Z-0.249992
G01 X71.056980 Y139.479417 Z-0.249992
G01 X71.056980 Y139.837275 Z-0.249992
G01 X71.014901 Y139.814754 Z-0.249992
G01 X72.293452 Y140.499425 Z-0.249992
G01 X73.178586 Y140.499425 Z-0.249992
G01 X74.003691 Y140.499425 Z-0.249992
G01 X75.079578 Y140.025630 Z-0.249992
G01 X75.116606 Y139.753229 Z-0.249992
G01 X75.138676 Y139.590867 Z-0.249992
G01 X75.169579 Y139.208964 Z-0.249992
G01 X75.185214 Y138.902245 Z-0.249992
G01 X75.208469 Y138.446089 Z-0.249992
G01 X75.577842 Y138.081796 Z-0.249992
G01 X76.063490 Y138.012821 Z-0.249992
G01 X76.482674 Y137.953301 Z-0.249992
G01 X76.927090 Y137.998682 Z-0.249992
G01 X76.952264 Y138.877776 Z-0.249992
G01 X76.761848 Y139.519041 Z-0.249992
G01 X76.401930 Y140.626566 Z-0.249992
G01 X76.394056 Y140.650781 Z-0.249992
G01 X75.939763 Y142.048712 Z-0.249992
G01 X75.568274 Y142.616825 Z-0.249992
G01 X74.729453 Y143.161147 Z-0.249992
G01 X74.013258 Y143.625883 Z-0.249992
G01 X73.897434 Y143.823466 Z-0.249992
G01 X74.080540 Y144.025001 Z-0.249992
G01 X74.550214 Y144.032875 Z-0.249992
G01 X75.459534 Y143.748226 Z-0.249992
G01 X76.124167 Y143.540172 Z-0.249992
G01 X76.555036 Y143.883044 Z-0.249992
G01 X76.302701 Y144.634319 Z-0.249992
G01 X75.865200 Y145.085846 Z-0.249992
G01 X75.248319 Y145.394710 Z-0.249992
G01 X74.678625 Y145.679981 Z-0.249992
G01 X74.411586 Y145.884281 Z-0.249992
G01 X74.315264 Y146.061460 Z-0.226399
G01 X74.315264 Y146.061460 Z-0.226399
G01 X74.703686 Y146.092928 Z-0.249992
G01 X75.018421 Y146.137745 Z-0.249992
G01 X75.212025 Y146.033436 Z-0.249992
G01 X75.379411 Y145.720677 Z-0.249992
G01 X75.580974 Y145.344052 Z-0.249992
G01 X75.935332 Y145.123382 Z-0.249992
G01 X76.478130 Y145.234888 Z-0.249992
G01 X76.701425 Y145.588654 Z-0.249992
G01 X76.701425 Y146.013624 Z-0.249992
G01 X76.701425 Y146.351387 Z-0.249992
G01 X76.338628 Y146.734617 Z-0.249992
G01 X75.969764 Y146.831080 Z-0.249992
G01 X75.719658 Y146.896471 Z-0.249992
G01 X75.500964 Y147.066284 Z-0.249992
G01 X75.441585 Y147.221027 Z-0.249992
G01 X75.331885 Y147.506918 Z-0.249992
G01 X74.847733 Y147.877391 Z-0.249992
G01 X74.410316 Y148.043705 Z-0.249992
G01 X74.040154 Y148.184449 Z-0.249992
G01 X73.922467 Y148.355842 Z-0.249992
G01 X73.942618 Y148.739270 Z-0.249992
G01 X74.059091 Y148.862883 Z-0.249992
G01 X74.427955 Y148.915630 Z-0.249992
G01 X74.780818 Y148.966063 Z-0.249992
G01 X75.019832 Y148.781942 Z-0.249992
G01 X75.560739 Y147.964598 Z-0.249992
G01 X76.186510 Y147.018984 Z-0.249992
G01 X76.620342 Y146.704476 Z-0.249992
G01 X77.073394 Y147.080508 Z-0.249992
G01 X77.560678 Y147.484905 Z-0.249992
G01 X77.705938 Y149.165058 Z-0.231168
G01 X77.076018 Y149.183854 Z-0.249992
G01 X77.042095 Y149.183854 Z-0.249992
G01 X76.437773 Y149.670913 Z-0.249992
G01 X75.735180 Y150.334615 Z-0.249992
G01 X74.883518 Y151.139118 Z-0.249992
G01 X74.073004 Y151.723657 Z-0.249992
G01 X73.895204 Y151.805219 Z-0.249992
G01 X72.431459 Y152.476767 Z-0.249992
G01 X71.563908 Y152.658066 Z-0.249992
G01 X70.621794 Y152.671698 Z-0.249992
G01 X69.727234 Y152.684623 Z-0.249992
G01 X69.001161 Y152.543766 Z-0.249992
G01 X67.746655 Y151.791334 Z-0.249992
G01 X67.182577 Y151.167622 Z-0.249992
G01 X66.564256 Y150.254549 Z-0.249992
G01 X66.102371 Y149.572474 Z-0.249992
G01 X65.860761 Y148.903212 Z-0.249992
G01 X65.897168 Y147.553852 Z-0.249992
G01 X66.169089 Y146.827694 Z-0.249992
G01 X66.664869 Y146.012438 Z-0.249992
G01 X67.224995 Y145.091378 Z-0.249992
G01 X68.196686 Y144.390846 Z-0.249992
G01 X68.450263 Y144.306857 Z-0.249992
G01 X70.053680 Y143.775630 Z-0.249992
G01 X71.078514 Y143.846891 Z-0.249992
G01 X71.629694 Y144.463349 Z-0.249992
G01 X72.012048 Y144.890944 Z-0.249992
G01 X72.205681 Y145.420026 Z-0.249992
G01 X72.265004 Y146.359995 Z-0.249992
G01 X72.134420 Y146.848945 Z-0.249992
G01 X71.691388 Y147.554218 Z-0.249992
G01 X71.316060 Y147.843270 Z-0.249992
G01 X70.533402 Y147.963074 Z-0.249992
G01 X70.047782 Y147.804183 Z-0.249992
G01 X69.640987 Y147.390755 Z-0.249992
G01 X68.884829 Y146.622180 Z-0.249992
G01 X69.725371 Y145.931215 Z-0.249992
G01 X70.333052 Y145.606546 Z-0.114893
G01 X70.333052 Y145.606546 Z-0.114893
G01 X69.927781 Y145.445736 Z-0.249992
G01 X69.652699 Y145.217447 Z-0.249992
G01 X69.357240 Y145.232150 Z-0.249992
G01 X68.723623 Y145.611768 Z-0.249992
G01 X68.516980 Y145.920011 Z-0.249992
G01 X68.516980 Y146.344078 Z-0.249992
G01 X68.516980 Y146.894157 Z-0.249992
G01 X68.688261 Y147.250632 Z-0.249992
G01 X69.469593 Y147.815274 Z-0.249992
G01 X70.042024 Y147.960844 Z-0.249992
G01 X70.860864 Y147.967194 Z-0.249992
G01 X72.046649 Y147.976423 Z-0.249992
G01 X72.210846 Y147.914362 Z-0.249992
G01 X72.668582 Y147.307105 Z-0.249992
G01 X73.118303 Y146.710430 Z-0.249992
G01 X73.150674 Y146.526676 Z-0.249992
G01 X72.944059 Y145.711590 Z-0.249992
G01 X72.755902 Y144.969204 Z-0.249992
G01 X72.442578 Y144.496284 Z-0.249992
G01 X71.346653 Y143.830127 Z-0.249992
G01 X70.600514 Y143.680521 Z-0.249992
G01 X69.534815 Y143.680521 Z-0.249992
G01 X69.437109 Y143.680521 Z-0.249992
G01 X67.966619 Y143.680521 Z-0.249992
G01 X67.774595 Y143.740860 Z-0.249992
G01 X67.010958 Y144.459285 Z-0.249992
G01 X66.532647 Y144.909260 Z-0.249992
G01 X65.983358 Y145.657318 Z-0.249992
G01 X65.780949 Y146.130379 Z-0.249992
G01 X65.268969 Y147.326973 Z-0.249992
G01 X65.276533 Y147.705490 Z-0.249992
G01 X65.312375 Y149.494778 Z-0.249992
G01 X65.871768 Y150.667807 Z-0.249992
G01 X66.313107 Y151.593355 Z-0.249992
G01 X66.333201 Y151.956518 Z-0.249992
G01 X65.850291 Y152.261939 Z-0.249992
G01 X65.500589 Y152.483145 Z-0.249992
G01 X65.161330 Y152.612657 Z-0.249992
G01 X64.703960 Y152.366728 Z-0.249992
G01 X64.630329 Y152.011072 Z-0.249992
G01 X64.630329 Y151.600975 Z-0.249992
G01 X64.630329 Y151.239279 Z-0.249992
G01 X64.452021 Y150.597392 Z-0.249992
G01 X64.226356 Y150.161020 Z-0.249992
G01 X63.881283 Y149.493706 Z-0.249992
G01 X63.835817 Y149.018811 Z-0.249992
G01 X64.094671 Y148.535138 Z-0.249992
G01 X64.243825 Y148.256444 Z-0.249992
G01 X64.145160 Y147.744464 Z-0.249992
G01 X63.567593 Y146.540900 Z-0.249992
G01 X63.128003 Y145.969654 Z-0.249992
G01 X62.634933 Y145.646566 Z-0.249992
G01 X62.173697 Y145.344362 Z-0.249992
G01 X62.023301 Y145.299630 Z-0.249992
G01 X61.799696 Y145.500205 Z-0.249992
G01 X61.743647 Y145.841045 Z-0.249992
G01 X61.743647 Y146.584136 Z-0.249992
G01 X61.743647 Y147.593306 Z-0.249992
G01 X61.849057 Y147.855942 Z-0.249992
G01 X62.476634 Y148.428966 Z-0.249992
G01 X63.491872 Y149.355953 Z-0.249992
G01 X63.261777 Y149.568918 Z-0.249992
G01 X62.195654 Y150.555652 Z-0.249992
G01 X61.259777 Y151.421848 Z-0.249992
G01 X61.179202 Y151.592931 Z-0.249992
G01 X61.179202 Y152.700512 Z-0.249992
G01 X61.179202 Y153.340310 Z-0.249992
G01 X61.183069 Y153.592532 Z-0.249992
G01 X61.296353 Y153.760850 Z-0.249992
G01 X61.385479 Y153.763869 Z-0.249992
G01 X61.813130 Y153.763869 Z-0.249992
G01 X62.260226 Y153.763869 Z-0.249992
G01 X63.019376 Y153.520763 Z-0.249992
G01 X63.516143 Y153.213734 Z-0.249992
G01 X64.832287 Y152.418318 Z-0.234668
G01 X64.849220 Y153.778912 Z-0.249992
G01 X64.849220 Y153.778912 Z-0.249992
G01 X64.850293 Y154.793049 Z-0.249992
G01 X64.896577 Y154.877631 Z-0.249992
G01 X65.615369 Y156.190670 Z-0.249992
G01 X66.382505 Y156.601247 Z-0.249992
G01 X66.700937 Y156.771653 Z-0.249992
G01 X66.812753 Y156.724888 Z-0.249992
G01 X67.130676 Y155.974685 Z-0.249992
G01 X67.184045 Y155.286656 Z-0.249992
G01 X67.094439 Y154.298483 Z-0.249992
G01 X67.084702 Y154.191182 Z-0.249992
G01 X66.910063 Y152.265298 Z-0.249992
G01 X68.307825 Y152.849328 Z-0.249992
G01 X68.937124 Y153.112246 Z-0.249992
G01 X70.117773 Y153.207496 Z-0.249992
G01 X70.614174 Y153.185822 Z-0.249992
G01 X72.520020 Y153.102538 Z-0.249992
G01 X73.659521 Y152.906563 Z-0.249992
G01 X74.211942 Y152.594764 Z-0.249992
G01 X74.681955 Y152.329475 Z-0.249992
G01 X75.267256 Y152.029106 Z-0.249992
G01 X75.509882 Y151.929481 Z-0.249992
G01 X75.679046 Y151.860026 Z-0.249992
G01 X76.072126 Y151.336363 Z-0.249992
G01 X76.376841 Y150.722784 Z-0.249992
G01 X76.947410 Y149.573857 Z-0.249992
G01 X77.561948 Y149.086600 Z-0.152739
G01 X78.272443 Y150.008338 Z-0.249992
G01 X78.387872 Y151.234086 Z-0.249992
G01 X78.388323 Y151.527625 Z-0.249992
G01 X78.390976 Y153.220704 Z-0.249992
G01 X78.392952 Y154.474336 Z-0.249992
G01 X78.335802 Y155.292893 Z-0.249992
G01 X77.986326 Y156.261028 Z-0.249992
G01 X77.476548 Y156.172467 Z-0.249992
G01 X77.103224 Y155.722661 Z-0.249992
G01 X76.950740 Y155.538991 Z-0.249992
G01 X76.599288 Y155.392743 Z-0.249992
G01 X76.285570 Y155.392743 Z-0.249992
G01 X75.564436 Y155.392743 Z-0.249992
G01 X75.250464 Y155.659500 Z-0.249992
G01 X73.879202 Y156.824513 Z-0.249992
G01 X73.879202 Y157.399569 Z-0.249992
G01 X73.879202 Y157.791773 Z-0.249992
G01 X74.229271 Y157.981765 Z-0.249992
G01 X75.504690 Y158.026102 Z-0.249992
G01 X76.256642 Y157.810456 Z-0.249992
G01 X76.833251 Y157.325260 Z-0.249992
G01 X77.259632 Y156.966499 Z-0.249992
G01 X77.531948 Y156.741116 Z-0.249992
G01 X78.100090 Y156.660937 Z-0.249992
G01 X78.112536 Y157.092342 Z-0.249992
G01 X78.112536 Y157.394009 Z-0.249992
G01 X78.112536 Y158.393866 Z-0.249992
G01 X77.476096 Y159.343854 Z-0.249992
G01 X76.723720 Y159.343854 Z-0.249992
G01 X76.498930 Y159.343854 Z-0.249992
G01 X76.447650 Y159.392679 Z-0.249992
G01 X76.413502 Y159.639595 Z-0.249992
G01 X76.459476 Y159.723754 Z-0.249992
G01 X76.682121 Y159.809182 Z-0.249992
G01 X77.368231 Y160.072467 Z-0.249992
G01 X77.363857 Y160.576686 Z-0.249992
G01 X76.781886 Y161.346164 Z-0.249992
G01 X76.408760 Y161.839517 Z-0.249992
G01 X76.057337 Y161.799611 Z-0.116473
G01 X75.652687 Y161.583796 Z-0.249992
G01 X75.280916 Y161.198732 Z-0.240594
G01 X75.280916 Y161.198732 Z-0.240594
G01 X75.290314 Y161.492751 Z-0.249992
G01 X75.290314 Y161.649892 Z-0.249992
G01 X75.301123 Y161.666092 Z-0.249992
G01 X75.322543 Y161.666092 Z-0.249992
G01 X76.268580 Y161.770486 Z-0.145598
G01 X75.687062 Y162.736815 Z-0.249992
G01 X75.626243 Y162.775366 Z-0.249992
G01 X74.413393 Y163.544535 Z-0.249992
G01 X73.550470 Y164.032299 Z-0.199757
G01 X72.601695 Y164.312856 Z-0.138994
G01 X71.969715 Y164.407768 Z-0.233906
G01 X71.258572 Y164.423854 Z-0.249992
G01 X70.403608 Y164.170306 Z-0.249992
G01 X70.307765 Y164.121030 Z-0.249992
G01 X68.955384 Y163.425945 Z-0.249992
G01 X68.292557 Y162.896044 Z-0.249992
G01 X67.975029 Y162.358467 Z-0.249992
G01 X67.396953 Y161.379890 Z-0.249992
G01 X67.380951 Y161.057959 Z-0.249992
G01 X67.309464 Y159.327316 Z-0.235458
G01 X67.912488 Y158.396942 Z-0.099286
G01 X68.171004 Y158.015660 Z-0.033218
G01 X68.171004 Y158.015660 Z-0.033218
G01 X67.693174 Y158.720397 Z-0.155307
G01 X67.363594 Y159.206525 Z-0.239522
G01 X67.178005 Y159.684920 Z-0.249992
G01 X67.070676 Y160.760610 Z-0.249992
G01 X67.169651 Y161.296634 Z-0.249992
G01 X67.650473 Y162.376727 Z-0.249992
G01 X68.010786 Y162.864294 Z-0.249992
G01 X68.984764 Y163.704131 Z-0.249992
G01 X69.556772 Y164.019797 Z-0.249992
G01 X70.236109 Y164.200109 Z-0.249992
G01 X70.917845 Y164.381041 Z-0.249992
G01 X71.602544 Y164.725352 Z-0.231112
G01 X71.583833 Y165.008337 Z-0.212400
G01 X71.621425 Y165.735426 Z-0.249992
G01 X71.099426 Y166.399410 Z-0.249992
G01 X70.474361 Y166.399410 Z-0.249992
G01 X70.176616 Y166.375054 Z-0.225637
G01 X70.176616 Y166.375054 Z-0.225637
G01 X70.249909 Y166.752385 Z-0.249992
G01 X70.299665 Y167.137365 Z-0.249992
G01 X70.212233 Y167.686597 Z-0.249992
G01 X70.050209 Y167.947060 Z-0.249992
G01 X69.946718 Y168.113458 Z-0.249992
G01 X69.964667 Y168.173515 Z-0.249992
G01 X70.205883 Y168.349876 Z-0.249992
G01 X70.505010 Y168.568626 Z-0.249992
G01 X70.774758 Y169.036071 Z-0.249992
G01 X70.774758 Y169.360006 Z-0.249992
G01 X70.774758 Y169.545285 Z-0.249992
G01 X70.795276 Y169.555953 Z-0.249992
G01 X71.289955 Y169.518248 Z-0.249992
G01 X71.746901 Y169.483421 Z-0.249992
G01 X72.327488 Y169.558690 Z-0.249992
G01 X72.555129 Y169.699406 Z-0.249992
G01 X72.620463 Y169.739792 Z-0.249992
G01 X72.695365 Y169.696499 Z-0.249992
G01 X72.840117 Y169.426017 Z-0.249992
G01 X73.033693 Y169.064321 Z-0.249992
G01 X73.475230 Y168.721647 Z-0.249992
G01 X73.797979 Y168.721647 Z-0.249992
G01 X73.918657 Y168.721647 Z-0.249992
G01 X73.942364 Y168.689982 Z-0.249992
G01 X73.919899 Y168.508457 Z-0.249992
G01 X73.881884 Y168.201229 Z-0.249992
G01 X73.967792 Y167.675195 Z-0.249992
G01 X74.105432 Y167.356030 Z-0.249992
G01 X74.229299 Y167.068813 Z-0.249992
G01 X74.213692 Y167.017166 Z-0.249992
G01 X73.974057 Y166.883054 Z-0.249992
G01 X73.668495 Y166.712056 Z-0.249992
G01 X73.379218 Y166.307659 Z-0.249992
G01 X73.379218 Y166.012173 Z-0.249992
G01 X73.379218 Y165.928212 Z-0.249992
G01 X73.190806 Y165.829631 Z-0.249992
G01 X72.687999 Y165.781146 Z-0.249992
G01 X71.974231 Y165.712340 Z-0.249992
G01 X71.561537 Y165.345592 Z-0.190105
G01 X71.593456 Y164.650309 Z-0.249992
G01 X72.111560 Y164.363233 Z-0.189371
G01 X72.830521 Y164.247832 Z-0.156125
G01 X73.396546 Y164.086937 Z-0.198487
G01 X74.219647 Y163.747537 Z-0.249992
G01 X74.678653 Y163.510160 Z-0.249992
G01 X75.169184 Y163.256499 Z-0.249992
G01 X75.770317 Y163.045114 Z-0.249992
G01 X75.939707 Y163.214532 Z-0.249992
G01 X76.090639 Y163.365436 Z-0.249992
G01 X75.972191 Y164.011697 Z-0.249992
G01 X75.797128 Y164.582096 Z-0.249992
G01 X75.598105 Y165.230643 Z-0.249992
G01 X75.571548 Y165.850290 Z-0.249992
G01 X75.844570 Y167.105022 Z-0.249992
G01 X76.133368 Y167.683831 Z-0.249992
G01 X76.596410 Y168.238455 Z-0.249992
G01 X77.103309 Y168.845656 Z-0.249992
G01 X77.354854 Y169.006776 Z-0.249992
G01 X77.788912 Y168.804677 Z-0.249992
G01 X77.985592 Y168.357298 Z-0.249992
G01 X78.201182 Y167.393961 Z-0.249992
G01 X78.422529 Y166.404857 Z-0.249992
G01 X78.415840 Y165.599903 Z-0.249992
G01 X78.418690 Y165.608426 Z-0.249992
G01 X77.980145 Y164.288077 Z-0.249992
G01 X77.590679 Y163.841319 Z-0.249992
G01 X76.966403 Y163.544930 Z-0.249992
G01 X75.766281 Y162.975095 Z-0.249992
G01 X76.779713 Y161.761172 Z-0.249992
G01 X77.926213 Y160.387822 Z-0.249992
G01 X78.208491 Y161.892434 Z-0.249992
G01 X78.302725 Y162.394789 Z-0.249992
G01 X78.736952 Y163.196865 Z-0.249992
G01 X79.186166 Y163.688665 Z-0.249992
G01 X79.879275 Y164.454137 Z-0.245562
G01 X79.879275 Y164.454137 Z-0.245562
G01 X80.144141 Y164.228557 Z-0.249992
G01 X80.425601 Y163.994961 Z-0.249992
G01 X80.472450 Y163.649437 Z-0.249992
G01 X80.470023 Y163.615372 Z-0.249992
G01 X80.365036 Y162.148014 Z-0.249992
G01 X80.346720 Y161.892264 Z-0.249992
G01 X80.204593 Y159.905674 Z-0.249992
G01 X81.473690 Y160.143757 Z-0.249992
G01 X81.924201 Y160.228282 Z-0.249992
G01 X82.057015 Y160.248094 Z-0.249992
G01 X82.124014 Y160.200060 Z-0.249992
G01 X82.128106 Y160.113813 Z-0.249992
G01 X82.128106 Y159.708090 Z-0.249992
G01 X82.128106 Y158.812712 Z-0.249992
G01 X81.867248 Y158.029122 Z-0.249992
G01 X81.849666 Y158.005048 Z-0.249992
G01 X81.004749 Y156.849433 Z-0.249992
G01 X80.478376 Y156.521632 Z-0.249992
G01 X79.865587 Y156.521632 Z-0.249992
G01 X78.795570 Y156.521632 Z-0.249992
G01 X78.798590 Y155.635793 Z-0.249992
G01 X78.805532 Y153.589682 Z-0.249992
G01 X78.805645 Y153.557932 Z-0.249992
G01 X78.810584 Y152.105249 Z-0.249992
G01 X78.929315 Y150.659425 Z-0.249992
G01 X79.275715 Y150.659425 Z-0.249992
G01 X79.902756 Y150.659425 Z-0.249992
G01 X80.398423 Y151.717871 Z-0.249992
G01 X80.213454 Y152.454923 Z-0.249992
G01 X80.114818 Y152.847861 Z-0.249992
G01 X80.182608 Y153.117806 Z-0.249992
G01 X80.437962 Y153.373189 Z-0.249992
G01 X80.875322 Y153.810521 Z-0.249992
G01 X81.055577 Y153.830643 Z-0.249992
G01 X81.225701 Y153.610030 Z-0.249992
G01 X81.174732 Y153.325776 Z-0.249992
G01 X80.742339 Y152.857513 Z-0.249992
G01 X80.135956 Y151.885850 Z-0.036322
G01 X81.049510 Y151.978927 Z-0.249992
G01 X81.899365 Y152.276107 Z-0.249992
G01 X82.510094 Y152.278308 Z-0.249992
G01 X84.529422 Y152.285589 Z-0.249992
G01 X85.326644 Y151.995973 Z-0.249992
G01 X85.895011 Y151.789499 Z-0.249992
G01 X86.297009 Y151.923498 Z-0.249992
G01 X86.297009 Y152.442618 Z-0.249992
G01 X86.297009 Y152.758396 Z-0.249992
G01 X86.879346 Y152.767540 Z-0.249992
G01 X87.263168 Y152.305091 Z-0.249992
G01 X87.596952 Y151.902896 Z-0.249992
G01 X88.066316 Y151.784617 Z-0.249992
G01 X88.473704 Y152.446851 Z-0.249992
G01 X88.554786 Y153.030712 Z-0.249992
G01 X88.554786 Y153.845234 Z-0.249992
G01 X88.554786 Y154.743152 Z-0.249992
G01 X88.727901 Y155.698108 Z-0.249992
G01 X88.854789 Y156.074225 Z-0.249992
G01 X89.433767 Y157.790814 Z-0.249992
G01 X89.958306 Y158.895572 Z-0.249992
G01 X90.663353 Y160.073483 Z-0.249992
G01 X91.395071 Y161.295929 Z-0.249992
G01 X91.745619 Y162.208579 Z-0.249992
G01 X91.268635 Y162.367583 Z-0.249992
G01 X91.178917 Y162.397470 Z-0.249992
G01 X91.094758 Y163.085782 Z-0.249992
G01 X91.094758 Y163.304900 Z-0.249992
G01 X91.094758 Y164.950368 Z-0.249992
G01 X91.094758 Y165.506346 Z-0.249992
G01 X91.094758 Y167.487010 Z-0.249992
G01 X91.065209 Y167.758056 Z-0.249992
G01 X90.881455 Y169.443346 Z-0.249992
G01 X90.862489 Y169.502867 Z-0.249992
G01 X90.434161 Y170.847401 Z-0.249992
G01 X89.980517 Y172.271354 Z-0.249992
G01 X89.240615 Y173.201332 Z-0.249992
G01 X88.257183 Y173.598052 Z-0.249992
G01 X87.606040 Y173.860745 Z-0.249992
G01 X86.856712 Y173.849879 Z-0.249992
G01 X85.557953 Y173.367335 Z-0.249992
G01 X84.930714 Y172.874717 Z-0.249992
G01 X84.484408 Y172.216377 Z-0.249992
G01 X83.908957 Y171.367565 Z-0.249992
G01 X83.798241 Y170.873507 Z-0.249992
G01 X83.941638 Y169.803433 Z-0.249992
G01 X84.065788 Y168.877011 Z-0.249992
G01 X84.290832 Y168.174672 Z-0.249992
G01 X84.993847 Y167.261966 Z-0.249992
G01 X85.532694 Y167.028314 Z-0.249992
G01 X86.160046 Y167.028314 Z-0.249992
G01 X86.720539 Y167.028314 Z-0.249992
G01 X87.411448 Y167.253979 Z-0.249992
G01 X87.651195 Y167.542861 Z-0.249992
G01 X88.161002 Y168.157146 Z-0.249992
G01 X88.161002 Y169.503939 Z-0.249992
G01 X87.651195 Y170.118224 Z-0.249992
G01 X87.363978 Y170.464285 Z-0.249992
G01 X87.007926 Y170.666723 Z-0.249992
G01 X86.495383 Y170.531284 Z-0.249992
G01 X86.502636 Y170.077330 Z-0.249992
G01 X86.742694 Y169.692915 Z-0.249992
G01 X86.970165 Y169.328707 Z-0.249992
G01 X86.971096 Y169.289761 Z-0.249992
G01 X86.799336 Y169.118000 Z-0.249992
G01 X86.623173 Y168.941809 Z-0.249992
G01 X86.487396 Y168.932552 Z-0.249992
G01 X86.123781 Y169.133889 Z-0.249992
G01 X86.014758 Y169.307287 Z-0.249992
G01 X86.014758 Y169.611889 Z-0.249992
G01 X86.014758 Y170.202044 Z-0.249992
G01 X86.303697 Y170.536139 Z-0.249992
G01 X87.158294 Y170.790082 Z-0.249992
G01 X87.598307 Y170.668473 Z-0.249992
G01 X87.942900 Y170.176531 Z-0.249992
G01 X88.425387 Y169.487683 Z-0.249992
G01 X88.410514 Y168.650809 Z-0.249992
G01 X88.364540 Y168.553866 Z-0.249992
G01 X87.714949 Y167.183818 Z-0.249992
G01 X87.101991 Y166.681632 Z-0.249992
G01 X86.304008 Y166.681632 Z-0.249992
G01 X85.415092 Y166.681632 Z-0.249992
G01 X84.767392 Y166.949771 Z-0.249992
G01 X84.729038 Y166.992556 Z-0.249992
G01 X83.741712 Y168.093985 Z-0.249992
G01 X83.420966 Y168.933907 Z-0.249992
G01 X83.281718 Y170.109588 Z-0.249992
G01 X83.140409 Y171.302682 Z-0.249992
G01 X82.922647 Y171.726891 Z-0.249992
G01 X82.305286 Y171.814972 Z-0.249992
G01 X81.977908 Y171.861708 Z-0.249992
G01 X81.886186 Y172.014136 Z-0.249992
G01 X81.947851 Y172.677076 Z-0.249992
G01 X82.164852 Y173.058528 Z-0.249992
G01 X82.607546 Y173.389038 Z-0.249992
G01 X83.205772 Y173.835655 Z-0.249992
G01 X83.290269 Y173.851770 Z-0.249992
G01 X83.646801 Y173.629125 Z-0.249992
G01 X84.166372 Y173.304626 Z-0.249992
G01 X84.543336 Y173.371399 Z-0.249992
G01 X85.129399 Y173.859898 Z-0.249992
G01 X85.933873 Y174.707101 Z-0.114300
G01 X84.983462 Y174.856679 Z-0.249992
G01 X84.667824 Y174.861279 Z-0.249992
G01 X84.510824 Y174.960621 Z-0.249992
G01 X84.334379 Y175.323869 Z-0.249992
G01 X84.354501 Y175.495658 Z-0.249992
G01 X84.549009 Y175.730043 Z-0.249992
G01 X84.756273 Y175.979754 Z-0.249992
G01 X85.341094 Y176.082087 Z-0.249992
G01 X86.552674 Y176.003940 Z-0.249992
G01 X86.925884 Y175.869687 Z-0.249992
G01 X86.925884 Y175.707804 Z-0.249992
G01 X86.925884 Y175.689601 Z-0.249992
G01 X86.700473 Y175.518885 Z-0.249992
G01 X86.302230 Y175.350172 Z-0.249992
G01 X85.927975 Y175.191592 Z-0.249992
G01 X85.319391 Y174.894383 Z-0.249992
G01 X86.013742 Y174.507175 Z-0.249992
G01 X86.470547 Y174.456036 Z-0.249992
G01 X87.259781 Y174.377832 Z-0.249992
G01 X87.317722 Y174.372103 Z-0.249992
G01 X88.733207 Y174.231867 Z-0.249992
G01 X88.882503 Y174.156062 Z-0.249992
G01 X88.884253 Y174.154086 Z-0.249992
G01 X89.854137 Y173.061181 Z-0.249992
G01 X90.467914 Y172.369511 Z-0.249992
G01 X91.219105 Y171.720569 Z-0.249992
G01 X91.468477 Y171.969969 Z-0.249992
G01 X91.639108 Y172.140600 Z-0.249992
G01 X91.555006 Y172.859138 Z-0.249992
G01 X91.382230 Y173.500827 Z-0.249992
G01 X91.222661 Y174.093352 Z-0.249992
G01 X90.910354 Y174.587495 Z-0.249992
G01 X89.861306 Y175.379467 Z-0.249992
G01 X89.102128 Y175.719827 Z-0.249992
G01 X88.031744 Y176.080168 Z-0.249992
G01 X87.780679 Y176.164694 Z-0.249992
G01 X87.717602 Y176.259521 Z-0.249992
G01 X87.736709 Y176.615008 Z-0.249992
G01 X87.847058 Y176.778612 Z-0.249992
G01 X88.140512 Y176.935669 Z-0.249992
G01 X88.478135 Y177.116375 Z-0.249992
G01 X88.692257 Y177.118295 Z-0.249992
G01 X89.014921 Y176.945603 Z-0.249992
G01 X89.827157 Y176.510924 Z-0.249992
G01 X90.248091 Y176.587237 Z-0.249992
G01 X90.248091 Y177.322934 Z-0.249992
G01 X90.248091 Y178.053833 Z-0.249992
G01 X89.929067 Y178.655926 Z-0.249992
G01 X88.607647 Y181.149670 Z-0.249992
G01 X87.613152 Y183.026532 Z-0.249992
G01 X87.080881 Y183.230805 Z-0.249992
G01 X86.351619 Y183.510628 Z-0.249992
G01 X86.102953 Y183.444814 Z-0.249992
G01 X84.503148 Y183.021368 Z-0.249992
G01 X83.878900 Y182.397148 Z-0.249992
G01 X83.473827 Y181.992047 Z-0.249992
G01 X83.256995 Y181.323998 Z-0.249992
G01 X83.256995 Y180.529938 Z-0.249992
G01 X83.256995 Y179.419281 Z-0.249992
G01 X83.855956 Y178.496668 Z-0.236784
G01 X84.954703 Y177.844593 Z-0.249992
G01 X85.414189 Y177.734301 Z-0.249992
G01 X86.255663 Y177.822749 Z-0.249992
G01 X86.709815 Y178.029844 Z-0.249992
G01 X87.070439 Y178.390439 Z-0.249992
G01 X87.428550 Y178.748551 Z-0.249992
G01 X87.654921 Y179.096193 Z-0.249992
G01 X87.701149 Y179.802849 Z-0.249992
G01 X87.527413 Y180.189521 Z-0.249992
G01 X87.223544 Y180.623382 Z-0.249992
G01 X86.759289 Y181.013582 Z-0.093613
G01 X86.759289 Y181.013582 Z-0.093613
G01 X86.962319 Y180.907918 Z-0.199277
G01 X87.434618 Y180.857203 Z-0.249992
G01 X87.677611 Y180.532506 Z-0.249992
G01 X87.814263 Y179.425800 Z-0.249992
G01 X87.638354 Y178.793142 Z-0.249992
G01 X87.153045 Y178.307833 Z-0.249992
G01 X86.664039 Y177.818827 Z-0.249992
G01 X86.142464 Y177.620057 Z-0.249992
G01 X84.959529 Y177.705119 Z-0.249992
G01 X84.376204 Y177.995103 Z-0.249992
G01 X83.794939 Y178.572953 Z-0.247565
G01 X83.055178 Y179.316128 Z-0.249992
G01 X82.910314 Y179.632415 Z-0.249992
G01 X82.910314 Y180.492882 Z-0.249992
G01 X82.910314 Y181.144900 Z-0.249992
G01 X83.129036 Y181.739966 Z-0.249992
G01 X83.933369 Y182.794546 Z-0.249992
G01 X84.474417 Y183.190955 Z-0.249992
G01 X85.146812 Y183.412866 Z-0.249992
G01 X85.824794 Y183.636612 Z-0.249992
G01 X86.274798 Y183.981262 Z-0.249992
G01 X86.213640 Y184.803319 Z-0.249992
G01 X85.777437 Y185.246266 Z-0.249992
G01 X85.068241 Y185.715574 Z-0.249992
G01 X84.141734 Y186.328702 Z-0.249992
G01 X83.494965 Y186.499136 Z-0.249992
G01 X82.065256 Y186.512598 Z-0.249992
G01 X81.960664 Y186.513585 Z-0.249992
G01 X80.401894 Y186.528261 Z-0.249992
G01 X80.109484 Y186.427366 Z-0.249992
G01 X79.324313 Y185.548611 Z-0.249992
G01 X78.960868 Y185.097902 Z-0.220726
G01 X78.831017 Y184.919368 Z-0.152344
G01 X78.831017 Y184.919368 Z-0.152344
G01 X78.921356 Y185.052634 Z-0.207236
G01 X79.221782 Y185.523352 Z-0.249992
G01 X79.543882 Y186.125219 Z-0.249992
G01 X79.243062 Y186.564470 Z-0.249992
G01 X78.360158 Y186.305277 Z-0.249992
G01 X77.751178 Y185.912650 Z-0.249992
G01 X77.088295 Y185.314480 Z-0.249992
G01 X76.066481 Y184.392460 Z-0.249992
G01 X75.405291 Y183.333392 Z-0.249992
G01 X75.328329 Y182.990775 Z-0.249992
G01 X74.940386 Y181.263800 Z-0.249992
G01 X75.133991 Y180.176483 Z-0.249992
G01 X75.758944 Y179.249072 Z-0.249992
G01 X76.225739 Y178.556414 Z-0.249992
G01 X76.778866 Y178.085555 Z-0.249992
G01 X77.886927 Y177.734865 Z-0.249992
G01 X78.515972 Y177.857717 Z-0.249992
G01 X79.053211 Y178.258811 Z-0.249992
G01 X79.592932 Y178.661768 Z-0.249992
G01 X79.940828 Y179.054593 Z-0.244348
G01 X80.130227 Y179.726677 Z-0.249992
G01 X79.665125 Y179.921213 Z-0.249992
G01 X79.139881 Y179.789359 Z-0.249992
G01 X78.651354 Y179.666761 Z-0.249992
G01 X78.272104 Y179.848653 Z-0.249992
G01 X77.800596 Y180.505695 Z-0.249992
G01 X77.779711 Y180.840157 Z-0.249992
G01 X78.095772 Y181.156217 Z-0.249992
G01 X78.318276 Y181.378721 Z-0.249992
G01 X78.378784 Y181.453538 Z-0.213360
G01 X78.384711 Y181.456812 Z-0.208449
G01 X78.384711 Y181.456812 Z-0.208449
G01 X78.276648 Y181.207779 Z-0.249992
G01 X78.138472 Y180.679375 Z-0.249992
G01 X78.438559 Y180.351827 Z-0.249992
G01 X79.086315 Y180.227988 Z-0.249992
G01 X79.822464 Y180.087272 Z-0.249992
G01 X80.150999 Y180.303906 Z-0.249992
G01 X79.984939 Y180.938934 Z-0.249992
G01 X79.805982 Y181.202981 Z-0.143679
G01 X79.805982 Y181.202981 Z-0.143679
G01 X79.871768 Y181.133047 Z-0.189625
G01 X80.161526 Y180.974466 Z-0.249992
G01 X80.251752 Y179.820036 Z-0.249992
G01 X79.891947 Y178.951384 Z-0.249992
G01 X79.729923 Y178.560168 Z-0.249992
G01 X79.455123 Y178.266516 Z-0.249992
G01 X78.653640 Y177.809767 Z-0.249992
G01 X78.185236 Y177.688609 Z-0.249992
G01 X77.637951 Y177.689371 Z-0.249992
G01 X76.722027 Y177.690698 Z-0.249992
G01 X76.629345 Y177.747424 Z-0.249992
G01 X75.352798 Y178.528954 Z-0.249992
G01 X75.143671 Y179.187802 Z-0.249992
G01 X75.031488 Y179.541313 Z-0.249992
G01 X74.767299 Y179.947008 Z-0.249992
G01 X74.522867 Y179.942577 Z-0.249992
G01 X73.994885 Y179.932981 Z-0.249992
G01 X73.723952 Y179.437738 Z-0.249992
G01 X72.814773 Y177.775759 Z-0.249992
G01 X72.814773 Y177.018952 Z-0.249992
G01 X72.814773 Y176.673625 Z-0.249992
G01 X72.750709 Y176.585628 Z-0.249992
G01 X72.491121 Y176.547669 Z-0.249992
G01 X72.346200 Y176.637021 Z-0.249992
G01 X72.166226 Y176.973289 Z-0.249992
G01 X71.933139 Y177.408814 Z-0.249992
G01 X71.858378 Y177.947774 Z-0.249992
G01 X71.985548 Y179.091141 Z-0.249992
G01 X72.179265 Y179.613365 Z-0.249992
G01 X72.506784 Y180.008899 Z-0.249992
G01 X72.876636 Y180.455544 Z-0.249992
G01 X73.641487 Y181.550510 Z-0.249992
G01 X74.204887 Y182.438917 Z-0.249992
G01 X74.426375 Y182.788111 Z-0.249992
G01 X75.394623 Y184.314848 Z-0.249992
G01 X75.457925 Y184.390202 Z-0.249992
G01 X76.417707 Y185.532355 Z-0.249992
G01 X76.403821 Y185.522872 Z-0.249992
G01 X77.569456 Y186.318203 Z-0.249992
G01 X78.714770 Y187.099704 Z-0.249992
G01 X79.952342 Y187.435464 Z-0.249992
G01 X80.068336 Y187.441250 Z-0.249992
G01 X81.620671 Y187.518663 Z-0.249992
G01 X81.734999 Y187.524364 Z-0.249992
G01 X83.229817 Y187.598956 Z-0.249992
G01 X83.696048 Y187.513978 Z-0.249992
G01 X84.835210 Y186.936721 Z-0.249992
G01 X86.071400 Y186.310301 Z-0.249992
G01 X86.524056 Y186.233198 Z-0.249992
G01 X86.743145 Y186.804161 Z-0.249992
G01 X87.048143 Y187.598956 Z-0.249992
G01 X86.642815 Y188.962145 Z-0.249992
G01 X86.543389 Y189.118920 Z-0.249992
G01 X85.706825 Y190.437998 Z-0.249992
G01 X85.291197 Y191.093431 Z-0.249992
G01 X85.008523 Y191.930164 Z-0.249992
G01 X85.001975 Y191.973090 Z-0.249992
G01 X84.783733 Y193.400795 Z-0.249992
G01 X84.833997 Y193.884694 Z-0.249992
G01 X85.028871 Y194.005118 Z-0.249992
G01 X85.203228 Y194.112870 Z-0.249992
G01 X85.338356 Y193.982314 Z-0.249992
G01 X86.353143 Y193.001790 Z-0.249992
G01 X87.613321 Y191.784198 Z-0.249992
G01 X88.149233 Y190.746495 Z-0.249992
G01 X88.799501 Y189.487304 Z-0.249992
G01 X89.479826 Y190.802912 Z-0.249992
G01 X89.828653 Y191.477451 Z-0.249992
G01 X89.986302 Y192.151539 Z-0.249992
G01 X89.856508 Y193.555961 Z-0.249992
G01 X89.575048 Y194.330605 Z-0.249992
G01 X89.089767 Y195.239981 Z-0.249992
G01 X88.631269 Y196.099178 Z-0.249992
G01 X88.274568 Y197.022581 Z-0.249992
G01 X88.276402 Y197.302546 Z-0.249992
G01 X88.281482 Y198.088055 Z-0.249992
G01 X88.519339 Y198.919425 Z-0.249992
G01 X88.560064 Y198.919425 Z-0.249992
G01 X88.799417 Y198.919425 Z-0.249992
G01 X89.068544 Y198.652669 Z-0.249992
G01 X90.070687 Y197.659246 Z-0.249992
G01 X91.388326 Y196.353122 Z-0.249992
G01 X91.756033 Y195.664951 Z-0.249992
G01 X92.383582 Y194.490540 Z-0.249992
G01 X92.932392 Y195.831547 Z-0.249992
G01 X93.113494 Y196.274043 Z-0.249992
G01 X93.512161 Y196.857679 Z-0.249992
G01 X93.824948 Y197.140776 Z-0.249992
G01 X94.240915 Y197.666895 Z-0.139023
G01 X94.240915 Y197.666895 Z-0.139023
G01 X94.340539 Y197.323995 Z-0.249992
G01 X94.659817 Y196.855986 Z-0.249992
G01 X94.663712 Y196.927783 Z-0.249992
G01 X94.510240 Y194.109738 Z-0.249992
G01 X94.435846 Y192.743415 Z-0.249992
G01 X94.020838 Y191.967981 Z-0.249992
G01 X93.646442 Y191.268437 Z-0.249992
G01 X93.833301 Y190.930109 Z-0.249992
G01 X94.546110 Y191.222040 Z-0.187367
G01 X94.945878 Y191.455099 Z-0.086162
G01 X94.945878 Y191.455099 Z-0.086162
G01 X94.839706 Y191.374807 Z-0.130556
G01 X94.466947 Y191.180835 Z-0.202692
G01 X93.826839 Y190.813975 Z-0.249992
G01 X93.081800 Y190.320904 Z-0.249992
G01 X92.425944 Y189.594013 Z-0.249992
G01 X92.264089 Y189.313822 Z-0.249992
G01 X91.398796 Y187.815872 Z-0.249992
G01 X90.999000 Y186.726014 Z-0.249992
G01 X90.738170 Y185.494961 Z-0.249992
G01 X90.733993 Y185.475205 Z-0.249992
G01 X90.435600 Y184.066832 Z-0.249992
G01 X90.298666 Y183.111763 Z-0.249992
G01 X90.319268 Y182.884038 Z-0.249992
G01 X90.467039 Y181.251100 Z-0.249992
G01 X90.773561 Y180.331056 Z-0.249992
G01 X90.786205 Y180.300011 Z-0.249992
G01 X91.328495 Y178.969898 Z-0.249992
G01 X91.391402 Y178.815607 Z-0.249992
G01 X91.982545 Y177.365606 Z-0.249992
G01 X92.041896 Y177.168558 Z-0.249992
G01 X92.508579 Y175.619102 Z-0.249992
G01 X92.590254 Y175.233107 Z-0.249992
G01 X92.882382 Y173.852560 Z-0.249992
G01 X93.256129 Y172.086301 Z-0.249992
G01 X93.278509 Y171.904408 Z-0.249992
G01 X93.472763 Y170.323964 Z-0.249992
G01 X93.474879 Y170.216719 Z-0.249992
G01 X93.505133 Y168.685805 Z-0.249992
G01 X93.530590 Y167.397432 Z-0.249992
G01 X93.535021 Y166.741604 Z-0.249992
G01 X93.327616 Y165.746348 Z-0.249992
G01 X93.125234 Y165.407483 Z-0.249992
G01 X92.691741 Y164.732267 Z-0.249992
G01 X92.173073 Y163.924406 Z-0.249992
G01 X91.798366 Y162.989968 Z-0.249992
G01 X92.213120 Y162.846514 Z-0.249992
G01 X92.904734 Y162.607303 Z-0.249992
G01 X93.497570 Y163.528391 Z-0.249992
G01 X93.545096 Y163.641167 Z-0.249992
G01 X94.093285 Y164.941450 Z-0.249992
G01 X94.680617 Y166.334527 Z-0.249992
G01 X94.780891 Y166.572384 Z-0.249992
G01 X95.430905 Y168.114192 Z-0.249992
G01 X95.876026 Y169.272630 Z-0.249992
G01 X95.957983 Y169.596593 Z-0.249992
G01 X96.387695 Y171.295006 Z-0.249992
G01 X96.454469 Y172.172181 Z-0.249992
G01 X96.455400 Y173.368634 Z-0.249992
G01 X96.455456 Y173.434702 Z-0.249992
G01 X96.456557 Y174.936801 Z-0.249992
G01 X96.293489 Y175.749743 Z-0.249992
G01 X95.762855 Y176.797859 Z-0.249992
G01 X95.403163 Y177.508354 Z-0.249992
G01 X95.316520 Y177.752758 Z-0.249992
G01 X95.072737 Y177.924999 Z-0.077752
G01 X95.337969 Y177.752758 Z-0.249992
G01 X95.976977 Y176.844737 Z-0.249992
G01 X96.055293 Y176.676447 Z-0.249992
G01 X96.738271 Y175.208553 Z-0.249992
G01 X96.797623 Y175.080961 Z-0.249992
G01 X97.437533 Y173.705635 Z-0.249992
G01 X97.497251 Y173.331013 Z-0.249992
G01 X97.497364 Y173.349697 Z-0.249992
G01 X97.487853 Y171.938614 Z-0.249992
G01 X97.478314 Y170.525555 Z-0.249992
G01 X97.478032 Y170.484492 Z-0.249992
G01 X97.468493 Y169.073409 Z-0.249992
G01 X97.458841 Y167.643643 Z-0.249992
G01 X97.370364 Y167.172191 Z-0.249992
G01 X97.312170 Y166.981860 Z-0.249992
G01 X96.487235 Y164.282913 Z-0.249992
G01 X96.012537 Y162.729787 Z-0.249992
G01 X95.816054 Y162.086941 Z-0.249992
G01 X95.206002 Y160.091122 Z-0.249992
G01 X95.177949 Y159.988647 Z-0.249992
G01 X94.772678 Y158.508420 Z-0.249992
G01 X94.763562 Y158.416980 Z-0.249992
G01 X94.623411 Y157.012840 Z-0.249992
G01 X94.473777 Y155.513929 Z-0.249992
G01 X94.608989 Y154.094239 Z-0.249992
G01 X94.670965 Y153.639240 Z-0.249992
G01 X94.922679 Y151.791051 Z-0.249992
G01 X94.986744 Y151.320672 Z-0.249992
G01 X95.239699 Y149.463395 Z-0.249992
G01 X95.249718 Y149.235416 Z-0.249992
G01 X95.321064 Y147.612413 Z-0.249992
G01 X95.174760 Y146.608661 Z-0.229644
G01 X95.161975 Y146.655990 Z-0.249992
G01 X94.763647 Y147.136614 Z-0.249992
G01 X94.763647 Y147.641990 Z-0.249992
G01 X94.763647 Y148.021804 Z-0.249992
G01 X94.586157 Y148.537594 Z-0.249992
G01 X94.368000 Y148.755751 Z-0.249992
G01 X94.211818 Y148.911933 Z-0.249992
G01 X93.850122 Y149.505446 Z-0.249992
G01 X93.564203 Y150.086373 Z-0.249992
G01 X93.264680 Y150.694928 Z-0.249992
G01 X92.203525 Y152.202334 Z-0.249992
G01 X92.741384 Y150.414089 Z-0.249992
G01 X92.831413 Y150.114792 Z-0.249992
G01 X92.968798 Y149.434383 Z-0.249992
G01 X93.046805 Y148.897907 Z-0.249992
G01 X93.189383 Y147.917523 Z-0.249992
G01 X93.212046 Y147.868332 Z-0.249992
G01 X94.983498 Y144.023477 Z-0.249992
G01 X95.613023 Y142.657070 Z-0.249992
G01 X96.093535 Y142.360088 Z-0.249992
G01 X96.493359 Y142.113002 Z-0.249992
G01 X96.752608 Y143.133151 Z-0.249992
G01 X96.853615 Y144.041088 Z-0.249992
G01 X96.887849 Y144.348908 Z-0.249992
G01 X97.043890 Y145.751355 Z-0.249992
G01 X97.232160 Y147.443700 Z-0.249992
G01 X97.256290 Y147.536354 Z-0.249992
G01 X98.323542 Y151.632950 Z-0.249992
G01 X98.702510 Y153.087608 Z-0.249992
G01 X98.703102 Y153.088907 Z-0.249992
G01 X99.288770 Y154.372736 Z-0.249992
G01 X99.884005 Y155.677618 Z-0.249992
G01 X100.366831 Y156.736036 Z-0.249992
G01 X100.760756 Y157.809976 Z-0.249992
G01 X100.579175 Y157.991530 Z-0.249992
G01 X100.415373 Y158.155332 Z-0.249992
G01 X99.723759 Y158.013515 Z-0.249992
G01 X99.112296 Y157.803316 Z-0.249992
G01 X98.017415 Y157.426888 Z-0.249992
G01 X97.953520 Y157.434480 Z-0.249992
G01 X96.519775 Y157.604434 Z-0.249992
G01 X95.999103 Y158.140967 Z-0.249992
G01 X95.904474 Y158.238503 Z-0.249992
G01 X96.168577 Y158.598110 Z-0.249992
G01 X96.235859 Y158.652918 Z-0.249992
G01 X97.404880 Y159.605390 Z-0.249992
G01 X98.216975 Y160.058695 Z-0.249992
G01 X98.854825 Y160.160690 Z-0.249992
G01 X99.776478 Y160.308066 Z-0.249992
G01 X100.175794 Y160.588511 Z-0.249992
G01 X99.942058 Y161.135627 Z-0.249992
G01 X99.495836 Y162.180103 Z-0.249992
G01 X99.270087 Y162.776975 Z-0.249992
G01 X99.135015 Y163.801724 Z-0.249992
G01 X99.218243 Y164.215659 Z-0.249992
G01 X99.429712 Y164.927819 Z-0.249992
G01 X99.702028 Y165.844730 Z-0.249992
G01 X99.908332 Y166.181647 Z-0.249992
G01 X100.067365 Y166.181647 Z-0.249992
G01 X100.404959 Y166.181647 Z-0.249992
G01 X100.825385 Y165.760685 Z-0.249992
G01 X100.896025 Y165.637382 Z-0.249992
G01 X101.673265 Y164.280175 Z-0.249992
G01 X102.015093 Y163.315906 Z-0.249992
G01 X102.135348 Y162.356464 Z-0.249992
G01 X102.388275 Y160.338518 Z-0.249992
G01 X102.827695 Y160.951194 Z-0.249992
G01 X103.698887 Y162.205531 Z-0.226907
G01 X104.144036 Y162.856618 Z-0.209155
G01 X104.429391 Y163.225511 Z-0.238111
G01 X104.636373 Y164.005234 Z-0.249992
G01 X104.561104 Y164.404296 Z-0.249992
G01 X104.417284 Y165.032805 Z-0.249992
G01 X104.256389 Y165.735821 Z-0.249992
G01 X104.193087 Y166.320162 Z-0.249992
G01 X104.221478 Y166.366136 Z-0.249992
G01 X104.397923 Y166.651575 Z-0.249992
G01 X104.742093 Y166.495817 Z-0.249992
G01 X104.883882 Y165.930921 Z-0.249992
G01 X105.168701 Y164.796162 Z-0.249992
G01 X106.170985 Y165.737768 Z-0.249992
G01 X106.758233 Y166.289456 Z-0.249992
G01 X106.914443 Y166.733081 Z-0.249992
G01 X106.769380 Y167.458392 Z-0.249992
G01 X106.638062 Y168.114926 Z-0.249992
G01 X106.449171 Y168.582117 Z-0.249992
G01 X105.791198 Y168.877688 Z-0.249992
G01 X105.342465 Y168.677084 Z-0.249992
G01 X104.835509 Y168.302293 Z-0.249992
G01 X104.097921 Y167.586437 Z-0.112889
G01 X104.097921 Y167.586437 Z-0.112889
G01 X103.237115 Y168.148849 Z-0.249992
G01 X102.451747 Y168.523358 Z-0.249992
G01 X102.092253 Y169.191265 Z-0.249992
G01 X102.092507 Y169.304775 Z-0.249992
G01 X102.095921 Y170.839781 Z-0.249992
G01 X102.484287 Y171.710578 Z-0.249992
G01 X103.304961 Y172.431120 Z-0.249992
G01 X103.828173 Y172.890521 Z-0.249992
G01 X104.365101 Y173.138510 Z-0.249992
G01 X105.476125 Y173.323196 Z-0.249992
G01 X105.983900 Y173.252640 Z-0.249992
G01 X106.943258 Y172.816833 Z-0.249992
G01 X107.331003 Y172.480537 Z-0.249992
G01 X107.924742 Y171.521263 Z-0.249992
G01 X108.092551 Y170.952896 Z-0.249992
G01 X108.092551 Y170.255666 Z-0.249992
G01 X108.092551 Y169.693310 Z-0.249992
G01 X108.189636 Y169.254878 Z-0.249992
G01 X108.682254 Y168.916635 Z-0.249992
G01 X109.068758 Y169.140606 Z-0.249992
G01 X109.380049 Y169.515708 Z-0.249992
G01 X109.726787 Y169.933481 Z-0.249992
G01 X109.566880 Y170.324331 Z-0.124093
G01 X109.292278 Y171.196793 Z-0.249992
G01 X109.057638 Y171.691246 Z-0.249992
G01 X108.976471 Y172.004315 Z-0.249992
G01 X109.037318 Y172.365108 Z-0.249992
G01 X109.074120 Y172.390536 Z-0.249992
G01 X109.327951 Y172.390536 Z-0.249992
G01 X109.644378 Y172.390536 Z-0.249992
G01 X109.867023 Y171.686222 Z-0.249992
G01 X109.640681 Y170.973075 Z-0.249992
G01 X109.541706 Y170.098101 Z-0.079643
G01 X110.671498 Y170.616064 Z-0.249992
G01 X110.907182 Y170.766263 Z-0.249992
G01 X112.343044 Y171.686589 Z-0.245477
G01 X112.599047 Y171.891454 Z-0.249992
G01 X113.688623 Y172.788131 Z-0.249992
G01 X115.070778 Y173.925599 Z-0.249992
G01 X115.267458 Y174.438199 Z-0.249992
G01 X115.383226 Y174.739867 Z-0.249992
G01 X115.332624 Y175.630193 Z-0.249992
G01 X115.175539 Y176.396906 Z-0.249992
G01 X115.022490 Y177.144146 Z-0.249992
G01 X114.992405 Y177.587828 Z-0.249992
G01 X115.142801 Y178.030945 Z-0.249992
G01 X115.205595 Y178.054962 Z-0.249992
G01 X115.526256 Y177.993889 Z-0.249992
G01 X115.792872 Y177.943117 Z-0.249992
G01 X115.900906 Y177.745703 Z-0.249992
G01 X115.996692 Y176.981163 Z-0.249992
G01 X116.214596 Y175.242363 Z-0.249992
G01 X117.328471 Y176.723635 Z-0.249992
G01 X117.743112 Y177.275013 Z-0.249992
G01 X118.279560 Y178.176600 Z-0.221911
G01 X118.553710 Y178.701477 Z-0.229503
G01 X118.812706 Y179.197369 Z-0.236672
G01 X118.911286 Y179.349600 Z-0.222081
G01 X118.898812 Y179.541003 Z-0.095560
G01 X118.911286 Y179.349572 Z-0.222081
G01 X118.714690 Y179.009720 Z-0.233962
G01 X117.775511 Y177.300215 Z-0.249992
G01 X117.603920 Y177.070373 Z-0.249992
G01 X116.577111 Y175.694991 Z-0.249992
G01 X115.971772 Y174.884139 Z-0.249992
G01 X115.430526 Y174.118667 Z-0.249992
G01 X115.429934 Y173.994377 Z-0.249992
G01 X115.428551 Y173.697818 Z-0.249992
G01 X116.353337 Y173.697535 Z-0.249992
G01 X117.175422 Y173.743030 Z-0.249992
G01 X118.056604 Y173.791911 Z-0.249992
G01 X118.738764 Y173.667366 Z-0.249992
G01 X119.888706 Y173.035978 Z-0.249992
G01 X120.308963 Y172.560406 Z-0.249992
G01 X120.647122 Y171.847795 Z-0.249992
G01 X120.929203 Y171.253378 Z-0.249992
G01 X121.018893 Y170.735613 Z-0.249992
G01 X120.841742 Y169.648917 Z-0.249992
G01 X120.579643 Y169.135244 Z-0.249992
G01 X120.103647 Y168.569558 Z-0.249992
G01 X119.507057 Y167.860531 Z-0.249992
G01 X118.784314 Y167.495505 Z-0.249992
G01 X118.733909 Y167.491807 Z-0.249992
G01 X117.280296 Y167.385212 Z-0.249992
G01 X116.594242 Y167.637886 Z-0.249992
G01 X116.042469 Y168.250449 Z-0.249992
G01 X115.594554 Y168.747725 Z-0.249992
G01 X115.556764 Y168.997604 Z-0.249992
G01 X115.565542 Y169.084246 Z-0.249992
G01 X115.719804 Y170.606243 Z-0.249992
G01 X115.787735 Y171.276464 Z-0.249992
G01 X115.477432 Y171.590182 Z-0.249992
G01 X114.499673 Y171.933054 Z-0.249992
G01 X113.434171 Y172.306716 Z-0.249992
G01 X113.138910 Y172.286424 Z-0.249992
G01 X112.451473 Y171.771623 Z-0.248751
G01 X111.959278 Y171.405722 Z-0.249992
G01 X111.638927 Y171.055202 Z-0.249992
G01 X111.509359 Y170.419327 Z-0.249992
G01 X111.858327 Y170.150764 Z-0.249992
G01 X112.312846 Y170.086333 Z-0.249992
G01 X112.697994 Y170.031751 Z-0.249992
G01 X112.749218 Y169.969013 Z-0.249992
G01 X112.749218 Y169.535999 Z-0.249992
G01 X112.749218 Y169.105215 Z-0.249992
G01 X112.997235 Y168.400507 Z-0.249992
G01 X113.289052 Y167.988208 Z-0.249992
G01 X113.601585 Y167.546615 Z-0.249992
G01 X113.730561 Y167.097430 Z-0.249992
G01 X113.730053 Y166.143632 Z-0.249992
G01 X113.599074 Y165.708078 Z-0.249992
G01 X113.101939 Y164.898919 Z-0.249992
G01 X112.771570 Y164.583846 Z-0.249992
G01 X111.917424 Y164.147502 Z-0.249992
G01 X111.455426 Y164.056260 Z-0.249992
G01 X110.917003 Y164.131190 Z-0.249992
G01 X110.307234 Y164.216054 Z-0.249992
G01 X109.721425 Y164.878909 Z-0.249992
G01 X109.721425 Y165.480269 Z-0.249992
G01 X109.721425 Y166.001589 Z-0.249992
G01 X109.363962 Y166.471856 Z-0.249992
G01 X108.766441 Y166.780833 Z-0.249992
G01 X108.361142 Y166.990440 Z-0.249992
G01 X108.051008 Y167.138917 Z-0.249992
G01 X107.428426 Y166.901653 Z-0.249992
G01 X107.130032 Y166.578875 Z-0.249992
G01 X106.631656 Y166.027243 Z-0.249992
G01 X106.068030 Y165.403363 Z-0.249992
G01 X105.552551 Y164.750131 Z-0.249992
G01 X105.552551 Y164.573855 Z-0.249992
G01 X105.595675 Y164.277409 Z-0.206869
G01 X106.177814 Y164.234511 Z-0.249992
G01 X106.630019 Y164.329479 Z-0.249992
G01 X107.068028 Y164.421484 Z-0.249992
G01 X107.382254 Y164.385500 Z-0.249992
G01 X107.779821 Y164.155687 Z-0.249992
G01 X107.814844 Y164.074491 Z-0.249992
G01 X107.733141 Y163.861527 Z-0.249992
G01 X107.647233 Y163.637668 Z-0.249992
G01 X107.583733 Y163.619662 Z-0.249992
G01 X107.066306 Y163.743304 Z-0.249992
G01 X106.653415 Y163.841997 Z-0.249992
G01 X106.208323 Y164.018386 Z-0.249992
G01 X106.061708 Y164.133222 Z-0.249992
G01 X105.711132 Y164.310711 Z-0.173623
G01 X105.118239 Y164.028122 Z-0.249992
G01 X104.520267 Y163.347035 Z-0.249992
G01 X104.056519 Y162.746467 Z-0.202240
G01 X103.736366 Y162.284215 Z-0.211497
G01 X103.498792 Y161.561331 Z-0.249992
G01 X103.929773 Y161.345092 Z-0.249992
G01 X104.411611 Y161.532742 Z-0.249992
G01 X105.662223 Y162.019829 Z-0.249992
G01 X106.041134 Y162.069556 Z-0.249992
G01 X107.727017 Y162.290819 Z-0.249992
G01 X107.931797 Y162.086038 Z-0.249992
G01 X108.188168 Y161.829668 Z-0.249992
G01 X108.045674 Y161.566890 Z-0.249992
G01 X107.168048 Y159.948487 Z-0.249992
G01 X106.213459 Y159.243101 Z-0.249992
G01 X105.780841 Y158.923428 Z-0.249992
G01 X105.190799 Y158.757001 Z-0.249992
G01 X103.986020 Y158.718506 Z-0.249992
G01 X103.474972 Y158.842148 Z-0.249992
G01 X103.167971 Y159.119996 Z-0.249992
G01 X102.814290 Y159.440064 Z-0.249992
G01 X102.394089 Y159.578353 Z-0.249992
G01 X101.817058 Y159.347890 Z-0.232636
G01 X101.601440 Y158.974256 Z-0.249992
G01 X101.601440 Y158.512625 Z-0.249992
G01 X101.601440 Y158.010439 Z-0.249992
G01 X101.955629 Y157.714839 Z-0.249992
G01 X102.507797 Y157.714839 Z-0.249992
G01 X102.896247 Y157.714839 Z-0.249992
G01 X103.236466 Y157.520304 Z-0.249992
G01 X103.978993 Y156.634182 Z-0.249992
G01 X104.309927 Y155.984648 Z-0.249992
G01 X104.590879 Y155.118028 Z-0.249992
G01 X104.952688 Y154.001952 Z-0.249992
G01 X104.977551 Y153.711630 Z-0.249992
G01 X104.808585 Y153.542664 Z-0.249992
G01 X104.654153 Y153.388232 Z-0.249992
G01 X104.167856 Y153.526069 Z-0.249992
G01 X104.118298 Y153.555589 Z-0.249992
G01 X102.848665 Y154.312453 Z-0.249992
G01 X102.188490 Y154.898008 Z-0.249992
G01 X101.851658 Y155.487400 Z-0.249992
G01 X100.995819 Y156.984900 Z-0.249992
G01 X100.484997 Y155.650327 Z-0.249992
G01 X100.417885 Y155.474983 Z-0.249992
G01 X99.837579 Y153.958970 Z-0.249992
G01 X99.796149 Y153.718883 Z-0.249992
G01 X99.075890 Y149.547272 Z-0.249992
G01 X98.795163 Y147.921305 Z-0.249992
G01 X98.789293 Y147.502148 Z-0.249992
G01 X98.763921 Y145.691693 Z-0.249992
G01 X98.746339 Y144.436679 Z-0.249992
G01 X98.773065 Y144.145962 Z-0.249992
G01 X98.902182 Y142.740777 Z-0.249992
G01 X99.057348 Y141.052383 Z-0.249992
G01 X99.063331 Y141.008921 Z-0.249992
G01 X99.255835 Y139.610989 Z-0.249992
G01 X99.453531 Y138.175184 Z-0.249992
G01 X99.475686 Y138.014345 Z-0.249992
G01 X99.860665 Y135.218511 Z-0.249992
G01 X100.073912 Y133.669703 Z-0.249992
G01 X100.108033 Y133.065212 Z-0.249992
G01 X99.862161 Y132.878691 Z-0.249992
G01 X99.401856 Y132.529469 Z-0.249992
G01 X99.449665 Y131.963755 Z-0.249992
G01 X99.568113 Y131.485191 Z-0.249992
G01 X100.020883 Y129.656108 Z-0.249992
G01 X100.021786 Y129.652552 Z-0.249992
G01 X100.360847 Y128.282759 Z-0.249992
G01 X100.699345 Y126.915279 Z-0.249992
G01 X100.775883 Y126.526631 Z-0.249992
G01 X101.124146 Y124.757944 Z-0.249992
G01 X101.184344 Y124.210884 Z-0.249992
G01 X101.338663 Y122.808240 Z-0.249992
G01 X101.552869 Y120.861386 Z-0.249992
G01 X101.553152 Y120.706983 Z-0.249992
G01 X101.556143 Y119.139408 Z-0.249992
G01 X101.535343 Y118.906998 Z-0.249992
G01 X101.387741 Y117.257747 Z-0.249992
G01 X101.366010 Y117.014923 Z-0.249992
G01 X101.219255 Y115.375494 Z-0.249992
G01 X101.207937 Y115.305503 Z-0.249992
G01 X100.982555 Y113.912511 Z-0.249992
G01 X100.745968 Y112.450261 Z-0.249992
G01 X100.707699 Y112.292104 Z-0.249992
G01 X100.335391 Y110.753061 Z-0.249992
G01 X100.176218 Y110.095004 Z-0.249992
G01 X99.681172 Y108.048526 Z-0.249992
G01 X99.618659 Y107.418549 Z-0.249992
G01 X99.920948 Y106.409605 Z-0.249992
G01 X100.254788 Y105.295363 Z-0.249992
G01 X100.735102 Y104.437549 Z-0.249992
G01 X100.938839 Y104.255459 Z-0.249992
G01 X102.190381 Y103.136815 Z-0.249992
G01 X103.191198 Y102.661496 Z-0.249992
G01 X104.544369 Y102.259640 Z-0.249992
G01 X105.424422 Y101.998302 Z-0.249992
G01 X105.894802 Y101.779298 Z-0.249992
G01 X106.454279 Y101.062481 Z-0.249992
G01 X106.534374 Y100.583071 Z-0.249992
G01 X106.536604 Y99.716987 Z-0.249992
G01 X106.536632 Y99.701154 Z-0.249992
G01 X106.540922 Y98.047445 Z-0.249992
G01 X106.981470 Y98.005535 Z-0.249992
G01 X108.601087 Y97.851413 Z-0.249992
G01 X109.601424 Y97.756220 Z-0.249992
G01 X110.616267 Y97.588298 Z-0.249992
G01 X110.866513 Y97.482916 Z-0.249992
G01 X111.340590 Y97.283215 Z-0.249992
G01 X111.329104 Y97.302632 Z-0.249992
G01 X112.043662 Y96.095709 Z-0.249992
G01 X112.043662 Y95.466636 Z-0.249992
G01 X112.138743 Y95.203717 Z-0.154912
G01 X112.138743 Y95.203717 Z-0.154912
G01 X111.998845 Y95.325299 Z-0.249992
G01 X111.794404 Y95.477812 Z-0.249992
G01 X111.412218 Y95.836855 Z-0.249992
G01 X110.827341 Y96.386313 Z-0.249992
G01 X110.172585 Y96.556747 Z-0.249992
G01 X109.916384 Y96.573427 Z-0.249992
G01 X108.275770 Y96.680219 Z-0.249992
G01 X107.118461 Y96.755573 Z-0.249992
G01 X106.579981 Y96.790738 Z-0.249992
G01 X106.007691 Y97.024023 Z-0.249992
G01 X105.929910 Y97.184551 Z-0.249992
G01 X105.691433 Y97.678073 Z-0.249992
G01 X105.431506 Y98.215960 Z-0.249992
G01 X105.074128 Y99.055881 Z-0.249992
G01 X104.896102 Y99.547202 Z-0.249992
G01 X104.702385 Y100.081759 Z-0.249992
G01 X104.374076 Y100.488639 Z-0.249992
G01 X103.239909 Y101.013713 Z-0.249992
G01 X102.413055 Y101.180535 Z-0.249992
G01 X101.177373 Y101.337394 Z-0.249992
G01 X100.410011 Y101.434817 Z-0.249992
G01 X99.395986 Y101.637171 Z-0.249992
G01 X98.918805 Y101.787285 Z-0.249992
G01 X98.109561 Y102.041849 Z-0.249992
G01 X97.981404 Y102.163769 Z-0.249992
G01 X96.959082 Y103.136420 Z-0.249992
G01 X95.809986 Y104.229692 Z-0.249992
G01 X95.536343 Y105.003150 Z-0.249992
G01 X95.374602 Y105.460266 Z-0.249992
G01 X94.949575 Y105.611847 Z-0.249992
G01 X94.648529 Y105.051185 Z-0.249992
G01 X94.568631 Y104.624436 Z-0.249992
G01 X94.565188 Y104.584869 Z-0.249992
G01 X94.440220 Y103.138395 Z-0.249992
G01 X94.440531 Y103.122986 Z-0.249992
G01 X94.470559 Y101.688535 Z-0.249992
G01 X94.685556 Y100.592327 Z-0.249992
G01 X94.835698 Y99.826913 Z-0.249992
G01 X94.759188 Y99.280417 Z-0.249992
G01 X94.022362 Y98.221350 Z-0.249992
G01 X93.370542 Y97.762118 Z-0.249992
G01 X92.318417 Y97.264984 Z-0.249992
G01 X91.310940 Y96.788988 Z-0.249992
G01 X90.348986 Y96.234252 Z-0.249992
G01 X90.215946 Y96.019001 Z-0.249992
G01 X90.045145 Y95.742621 Z-0.249992
G01 X89.965869 Y95.749084 Z-0.249992
G01 X89.965869 Y95.945764 Z-0.249992
G01 X89.965869 Y96.046659 Z-0.249992
G01 X90.546090 Y96.721452 Z-0.249992
G01 X91.330019 Y97.442135 Z-0.249992
G01 X92.188708 Y98.231567 Z-0.249992
G01 X92.682964 Y98.804929 Z-0.249992
G01 X92.700772 Y100.165974 Z-0.249992
G01 X92.252039 Y100.941182 Z-0.249992
G01 X92.232819 Y100.969461 Z-0.249992
G01 X91.424930 Y102.156911 Z-0.249992
G01 X91.375767 Y102.229188 Z-0.249992
G01 X90.553823 Y103.437297 Z-0.249992
G01 X90.484961 Y103.658982 Z-0.249992
G01 X90.632676 Y104.660956 Z-0.249992
G01 X90.954437 Y106.843409 Z-0.249992
G01 X89.732895 Y105.197150 Z-0.249992
G01 X89.392930 Y104.739019 Z-0.249992
G01 X88.501475 Y103.708907 Z-0.249992
G01 X87.749352 Y102.905929 Z-0.249992
G01 X86.792450 Y101.884256 Z-0.249992
G01 X86.238758 Y100.986931 Z-0.249992
G01 X86.045944 Y100.128777 Z-0.249992
G01 X85.898765 Y99.473740 Z-0.249992
G01 X85.403888 Y98.568794 Z-0.249992
G01 X84.860949 Y97.967802 Z-0.249992
G01 X84.130642 Y97.159489 Z-0.249992
G01 X83.821440 Y96.515176 Z-0.249992
G01 X83.821440 Y95.768613 Z-0.249992
G01 X83.821440 Y95.284377 Z-0.249992
G01 X83.665540 Y94.804232 Z-0.249992
G01 X83.488446 Y94.657251 Z-0.249992
G01 X83.335199 Y94.348697 Z-0.110434
G01 X83.335199 Y94.348697 Z-0.110434
G01 X83.337429 Y94.353467 Z-0.112663
G01 X83.474758 Y95.768839 Z-0.249992
G01 X83.224766 Y95.786591 Z0.000000
G01 X83.474758 Y95.768839 Z-0.249992
G01 X83.474786 Y95.768924 Z-0.249992
G00 Z5.000000

G00 Z5.000000
G00 X85.030423 Y112.171059

G01 Z-0.249992 F100.0(Penetrate)
G01 X84.954336 Y113.699038 Z-0.249992 F400.000000
G01 X84.931250 Y114.162644 Z-0.249992
G01 X84.838738 Y116.020400 Z-0.249992
G01 X84.904157 Y116.928479 Z-0.249992
G01 X85.254875 Y117.957743 Z-0.249992
G01 X85.534388 Y118.778050 Z-0.249992
G01 X85.643382 Y119.381836 Z-0.249992
G01 X85.365252 Y120.136612 Z-0.249992
G01 X84.872802 Y119.516231 Z-0.249992
G01 X84.556996 Y118.760411 Z-0.249992
G01 X84.460786 Y118.530118 Z-0.249992
G01 X83.808796 Y116.969711 Z-0.249992
G01 X83.786529 Y116.825609 Z-0.249992
G01 X83.546047 Y115.269379 Z-0.249992
G01 X83.835382 Y114.021166 Z-0.249992
G01 X83.975533 Y113.416646 Z-0.249992
G01 X84.102364 Y112.173853 Z-0.249992
G01 X84.116814 Y111.253272 Z-0.249992
G01 X84.135525 Y110.060036 Z-0.249992
G01 X84.397258 Y108.914722 Z-0.248779
G01 X84.855022 Y110.033903 Z-0.249992
G01 X84.999012 Y110.386991 Z-0.249992
G01 X85.002229 Y110.528300 Z-0.249992
G01 X85.036773 Y112.043353 Z-0.249992
G01 X85.030423 Y112.171059 Z-0.249992
G00 Z5.000000

G00 Z5.000000
G00 X90.451743 Y111.012141

G01 Z-0.249992 F100.0(Penetrate)
G01 X89.731738 Y112.295970 Z-0.249992 F400.000000
G01 X89.527776 Y110.956600 Z-0.249992
G01 X89.468961 Y110.570351 Z-0.249992
G01 X89.607729 Y109.917091 Z-0.249992
G01 X89.826705 Y109.526693 Z-0.249992
G01 X90.546711 Y108.242864 Z-0.249992
G01 X90.750673 Y109.582234 Z-0.249992
G01 X90.809488 Y109.968512 Z-0.249992
G01 X90.670719 Y110.621743 Z-0.249992
G01 X90.451743 Y111.012141 Z-0.249992
G00 Z5.000000

G00 Z5.000000
G00 X94.881334 Y109.758792

G01 Z-0.249992 F100.0(Penetrate)
G01 X95.021767 Y110.534734 Z-0.249992 F400.000000
G01 X94.939443 Y111.249772 Z-0.249992
G01 X94.400229 Y110.916553 Z-0.249992
G01 X94.148600 Y110.761020 Z-0.249992
G01 X93.981440 Y110.090855 Z-0.249992
G01 X93.981440 Y109.500164 Z-0.249992
G01 X93.981440 Y108.861806 Z-0.249992
G01 X94.072880 Y108.134491 Z-0.249992
G01 X94.623834 Y108.548003 Z-0.249992
G01 X94.749254 Y109.028825 Z-0.249992
G01 X94.881334 Y109.758792 Z-0.249992
G00 Z5.000000

G00 Z5.000000
G00 X89.493655 Y118.691521

G01 Z-0.249992 F100.0(Penetrate)
G01 X90.002022 Y121.497572 Z-0.249992 F400.000000
G01 X88.794224 Y118.985540 Z-0.249992
G01 X88.550525 Y118.478641 Z-0.249992
G01 X88.372894 Y117.300137 Z-0.249992
G01 X88.386751 Y116.333611 Z-0.249992
G01 X88.388783 Y116.192443 Z-0.249992
G01 X88.460383 Y111.196348 Z-0.249992
G01 X88.918938 Y114.687860 Z-0.249992
G01 X89.112740 Y116.163544 Z-0.249992
G01 X89.224528 Y117.014895 Z-0.249992
G01 X89.395893 Y118.151884 Z-0.249992
G01 X89.493655 Y118.691521 Z-0.249992
G00 Z5.000000

G00 Z5.000000
G00 X84.193634 Y121.545550

G01 Z-0.249992 F100.0(Penetrate)
G01 X85.422994 Y123.177020 Z-0.249992 F400.000000
G01 X85.463070 Y123.230190 Z-0.249992
G01 X86.356332 Y124.415637 Z-0.249992
G01 X86.473172 Y124.589203 Z-0.249992
G01 X87.382689 Y125.940371 Z-0.249992
G01 X87.699822 Y126.561993 Z-0.249992
G01 X88.349159 Y127.834759 Z-0.249992
G01 X88.425105 Y128.185928 Z-0.249992
G01 X89.320145 Y132.323560 Z-0.249992
G01 X89.693694 Y134.050478 Z-0.249992
G01 X89.691831 Y134.155295 Z-0.249992
G01 X89.665698 Y135.642070 Z-0.249992
G01 X89.628360 Y137.765397 Z-0.249992
G01 X88.905165 Y135.543123 Z-0.249992
G01 X88.844431 Y135.257627 Z-0.249992
G01 X88.492726 Y133.604792 Z-0.249992
G01 X88.398435 Y133.161760 Z-0.249992
G01 X88.104755 Y131.781552 Z-0.249992
G01 X87.719465 Y129.970927 Z-0.249992
G01 X87.618740 Y129.659297 Z-0.249992
G01 X87.184739 Y128.316597 Z-0.249992
G01 X86.685770 Y126.772954 Z-0.249992
G01 X86.360847 Y126.670959 Z-0.249992
G01 X86.150168 Y126.604863 Z-0.249992
G01 X86.022463 Y127.378575 Z-0.249992
G01 X86.022463 Y127.492057 Z-0.249992
G01 X86.022632 Y128.903168 Z-0.249992
G01 X86.022801 Y130.448278 Z-0.249992
G01 X86.022830 Y130.670471 Z-0.249992
G01 X86.022943 Y132.289665 Z-0.249992
G01 X86.039961 Y132.440372 Z-0.249992
G01 X86.215164 Y133.991578 Z-0.249992
G01 X86.332823 Y134.475533 Z-0.249992
G01 X86.666240 Y135.846709 Z-0.249992
G01 X87.118021 Y137.704635 Z-0.249992
G01 X87.234494 Y138.032351 Z-0.249992
G01 X87.825073 Y139.694217 Z-0.249992
G01 X88.061659 Y140.244155 Z-0.249992
G01 X88.859050 Y142.097762 Z-0.249992
G01 X89.204067 Y142.899725 Z-0.249992
G01 X89.424906 Y143.194929 Z-0.249992
G01 X89.520269 Y143.196623 Z-0.249992
G01 X89.565509 Y143.018173 Z-0.249992
G01 X89.508923 Y142.234527 Z-0.249992
G01 X89.508782 Y142.232636 Z-0.249992
G01 X89.403908 Y140.780095 Z-0.249992
G01 X89.670241 Y139.821188 Z-0.249992
G01 X90.340632 Y139.563943 Z-0.249992
G01 X91.008229 Y139.307770 Z-0.249992
G01 X91.077684 Y140.326084 Z-0.249992
G01 X91.064927 Y140.990040 Z-0.249992
G01 X91.037806 Y142.400897 Z-0.249992
G01 X90.998125 Y144.464788 Z-0.249992
G01 X90.989263 Y144.926730 Z-0.249992
G01 X90.962142 Y146.337587 Z-0.249992
G01 X90.926328 Y148.201128 Z-0.249992
G01 X90.996940 Y149.490940 Z-0.249992
G01 X91.311702 Y150.366055 Z-0.249992
G01 X91.554526 Y151.041300 Z-0.249992
G01 X91.619579 Y152.055860 Z-0.249992
G01 X91.498675 Y153.493557 Z-0.249992
G01 X91.106216 Y154.418484 Z-0.249992
G01 X90.609533 Y153.530951 Z-0.249992
G01 X90.266887 Y152.918698 Z-0.249992
G01 X90.229860 Y152.598066 Z-0.249992
G01 X89.906010 Y149.794498 Z-0.249992
G01 X89.702838 Y148.035548 Z-0.249992
G01 X89.961241 Y147.617436 Z-0.249992
G01 X90.009952 Y147.538612 Z-0.249992
G01 X90.001740 Y147.195881 Z-0.249992
G01 X89.907703 Y146.821203 Z-0.249992
G01 X89.870027 Y146.394567 Z-0.182682
G01 X89.870027 Y146.394567 Z-0.182682
G01 X89.696629 Y146.649075 Z-0.249992
G01 X89.531106 Y147.052992 Z-0.249992
G01 X89.378141 Y147.764305 Z-0.249992
G01 X89.314670 Y148.059509 Z-0.249992
G01 X89.017998 Y149.439068 Z-0.249992
G01 X88.654241 Y151.130764 Z-0.249992
G01 X88.412744 Y151.792858 Z-0.249992
G01 X87.734931 Y151.655161 Z-0.249992
G01 X87.064484 Y151.518961 Z-0.249992
G01 X87.028557 Y151.032720 Z-0.249992
G01 X87.083139 Y150.703762 Z-0.249992
G01 X87.363950 Y149.012263 Z-0.249992
G01 X87.504101 Y148.167911 Z-0.249992
G01 X87.424373 Y147.713251 Z-0.249992
G01 X86.980184 Y146.842623 Z-0.249992
G01 X86.572570 Y146.043624 Z-0.249992
G01 X86.196312 Y145.567910 Z-0.249992
G01 X85.217367 Y145.003579 Z-0.249992
G01 X84.652076 Y144.932572 Z-0.249992
G01 X83.817912 Y145.012723 Z-0.249992
G01 X82.953945 Y145.095132 Z-0.249400
G01 X82.461778 Y145.222470 Z-0.249992
G01 X81.874276 Y145.711702 Z-0.249992
G01 X81.781453 Y146.032617 Z-0.249992
G01 X81.781453 Y146.647862 Z-0.249992
G01 X81.781453 Y147.644219 Z-0.249992
G01 X82.100618 Y148.262624 Z-0.249992
G01 X83.045272 Y148.785159 Z-0.249992
G01 X83.585333 Y148.681047 Z-0.249992
G01 X84.183390 Y148.044438 Z-0.249992
G01 X84.676093 Y147.519985 Z-0.249992
G01 X84.703384 Y147.431790 Z-0.249992
G01 X84.525358 Y147.149568 Z-0.249992
G01 X84.326279 Y146.833931 Z-0.249992
G01 X84.121160 Y146.742039 Z-0.249992
G01 X83.714139 Y146.808390 Z-0.249992
G01 X83.612990 Y146.919218 Z-0.249992
G01 X83.610563 Y147.242419 Z-0.249992
G01 X83.606020 Y147.840279 Z-0.249992
G01 X83.323346 Y148.196076 Z-0.249992
G01 X82.799965 Y148.196076 Z-0.249992
G01 X82.410611 Y148.196076 Z-0.249992
G01 X81.974719 Y147.865989 Z-0.249992
G01 X81.904445 Y147.501104 Z-0.249992
G01 X81.769882 Y146.741193 Z-0.238421
G01 X81.964530 Y146.454003 Z-0.249992
G01 X83.033080 Y145.049920 Z-0.211977
G01 X83.741204 Y145.021274 Z-0.249992
G01 X84.516327 Y145.031519 Z-0.249992
G01 X85.549543 Y145.950716 Z-0.249992
G01 X86.114947 Y147.074920 Z-0.249992
G01 X86.430669 Y147.702667 Z-0.249992
G01 X86.485533 Y148.457330 Z-0.249992
G01 X86.142887 Y149.750810 Z-0.249992
G01 X85.721868 Y150.376751 Z-0.249992
G01 X85.137752 Y150.759473 Z-0.249992
G01 X84.303137 Y151.306335 Z-0.249992
G01 X83.266309 Y151.451961 Z-0.249992
G01 X82.875459 Y151.360408 Z-0.249992
G01 X81.123367 Y150.949973 Z-0.249992
G01 X79.942888 Y150.307268 Z-0.249992
G01 X79.878852 Y150.254126 Z-0.249992
G01 X78.747677 Y149.315398 Z-0.249992
G01 X78.190062 Y148.852666 Z-0.249992
G01 X77.725750 Y147.884108 Z-0.249992
G01 X77.617800 Y147.455751 Z-0.249992
G01 X77.166386 Y145.664656 Z-0.249992
G01 X77.043817 Y144.342925 Z-0.249992
G01 X77.152529 Y143.126067 Z-0.249992
G01 X77.158512 Y143.058983 Z-0.249992
G01 X77.292031 Y141.564644 Z-0.249992
G01 X77.633294 Y140.298708 Z-0.249992
G01 X78.124615 Y139.455682 Z-0.249992
G01 X78.525399 Y139.242407 Z-0.249992
G01 X78.882240 Y139.780464 Z-0.249992
G01 X78.959231 Y140.231539 Z-0.249992
G01 X78.959231 Y140.904555 Z-0.249992
G01 X78.959231 Y141.673836 Z-0.249992
G01 X79.106833 Y142.339175 Z-0.249992
G01 X79.620167 Y143.375975 Z-0.249992
G01 X79.927055 Y143.678517 Z-0.249992
G01 X80.311386 Y143.774981 Z-0.249992
G01 X80.932895 Y143.930965 Z-0.249992
G01 X81.156641 Y143.866110 Z-0.249992
G01 X81.333002 Y143.348543 Z-0.249992
G01 X81.193866 Y142.862048 Z-0.249992
G01 X80.731332 Y142.113595 Z-0.249992
G01 X80.416880 Y141.604805 Z-0.249992
G01 X80.220566 Y141.207379 Z-0.249992
G01 X80.448263 Y140.685494 Z-0.249992
G01 X80.913253 Y140.850509 Z-0.249992
G01 X81.356116 Y141.087519 Z-0.249992
G01 X81.655751 Y141.247878 Z-0.249992
G01 X81.716316 Y141.238649 Z-0.249992
G01 X81.899309 Y141.018149 Z-0.249992
G01 X82.080439 Y140.799935 Z-0.249992
G01 X82.023712 Y140.635682 Z-0.249992
G01 X81.305965 Y139.636248 Z-0.249992
G01 X80.808068 Y138.942941 Z-0.249992
G01 X80.392891 Y138.413295 Z-0.203877
G01 X80.354707 Y138.366700 Z-0.157282
G01 X80.392891 Y138.413295 Z-0.203877
G01 X80.370342 Y138.760767 Z-0.249992
G01 X80.370342 Y139.379511 Z-0.249992
G01 X80.326343 Y141.074961 Z-0.205994
G01 X79.220681 Y139.946664 Z-0.249992
G01 X78.770226 Y139.460621 Z-0.249992
G01 X78.505869 Y139.032885 Z-0.249992
G01 X78.769239 Y137.965521 Z-0.249992
G01 X79.222939 Y137.320135 Z-0.249992
G01 X80.031957 Y136.278255 Z-0.249992
G01 X80.603288 Y135.542502 Z-0.249992
G01 X80.890534 Y135.142226 Z-0.249992
G01 X81.248561 Y134.165455 Z-0.249992
G01 X81.314827 Y133.593645 Z-0.249992
G01 X81.409202 Y132.511774 Z-0.249992
G01 X81.458901 Y131.942080 Z-0.249992
G01 X81.633202 Y129.944031 Z-0.249992
G01 X81.644942 Y129.901275 Z-0.249992
G01 X82.018407 Y128.540484 Z-0.249992
G01 X82.404261 Y127.134509 Z-0.249992
G01 X82.617903 Y126.712192 Z-0.249992
G01 X83.457176 Y125.053177 Z-0.249992
G01 X83.871929 Y124.233293 Z-0.249992
G01 X84.059014 Y123.784955 Z-0.249992
G01 X84.061300 Y123.028627 Z-0.249992
G01 X83.894056 Y122.730488 Z-0.249992
G01 X83.488672 Y122.181961 Z-0.249992
G01 X83.120682 Y121.684008 Z-0.249992
G01 X82.706408 Y121.076186 Z-0.249992
G01 X82.570744 Y120.833729 Z-0.249992
G01 X81.844219 Y119.178806 Z-0.075777
G01 X82.618326 Y119.754850 Z-0.249992
G01 X83.805692 Y121.030692 Z-0.249992
G01 X84.193634 Y121.545550 Z-0.249992
G00 Z5.000000

G00 Z5.000000
G00 X90.234065 Y127.389525

G01 Z-0.249992 F100.0(Penetrate)
G01 X90.387820 Y127.946378 Z-0.249992 F400.000000
G01 X90.479768 Y128.579854 Z-0.249992
G01 X90.329174 Y128.730448 Z-0.249992
G01 X89.910469 Y129.149124 Z-0.249992
G01 X89.696996 Y128.698077 Z-0.249992
G01 X89.019550 Y127.266533 Z-0.249992
G01 X88.801392 Y126.268369 Z-0.249992
G01 X88.713367 Y125.865638 Z-0.249992
G01 X88.649359 Y125.542324 Z-0.249992
G01 X88.982240 Y125.141541 Z-0.249992
G01 X89.282129 Y125.502164 Z-0.249992
G01 X89.487926 Y125.765929 Z-0.249992
G01 X89.742660 Y126.092347 Z-0.249992
G01 X90.079181 Y126.828580 Z-0.249992
G01 X90.234065 Y127.389525 Z-0.249992
G00 Z5.000000

G00 Z5.000000
G00 X94.656318 Y124.526353

G01 Z-0.249992 F100.0(Penetrate)
G01 X94.425432 Y125.103412 Z-0.249992 F400.000000
G01 X94.021487 Y124.699496 Z-0.249992
G01 X94.003933 Y124.273227 Z-0.249992
G01 X93.989483 Y123.922256 Z-0.249992
G01 X94.216898 Y123.353917 Z-0.249992
G01 X94.578735 Y123.715754 Z-0.249992
G01 X94.741521 Y123.878511 Z-0.249992
G01 X94.757749 Y124.272917 Z-0.249992
G01 X94.656318 Y124.526353 Z-0.249992
G00 Z5.000000

G00 Z5.000000
G00 X97.692465 Y126.669407

G01 Z-0.249992 F100.0(Penetrate)
G01 X97.557308 Y127.514606 Z-0.249992 F400.000000
G01 X97.258999 Y128.098552 Z-0.249992
G01 X96.824039 Y128.212288 Z-0.249992
G01 X96.632410 Y128.262410 Z-0.249992
G01 X96.138464 Y128.863120 Z-0.249992
G01 X95.734830 Y129.604744 Z-0.249992
G01 X95.315843 Y130.374533 Z-0.249992
G01 X94.842669 Y131.121632 Z-0.249992
G01 X94.637155 Y131.121632 Z-0.249992
G01 X94.354679 Y131.121632 Z-0.249992
G01 X94.263662 Y130.528542 Z-0.249992
G01 X94.263662 Y130.066826 Z-0.249992
G01 X94.263662 Y129.508760 Z-0.249992
G01 X94.611219 Y128.798096 Z-0.249992
G01 X95.139087 Y128.245731 Z-0.249992
G01 X95.563493 Y127.801626 Z-0.249992
G01 X96.128671 Y126.867104 Z-0.249992
G01 X96.399605 Y126.157653 Z-0.249992
G01 X96.715976 Y125.329275 Z-0.249992
G01 X97.136656 Y124.806797 Z-0.249992
G01 X97.766350 Y125.103723 Z-0.249992
G01 X97.836595 Y125.768102 Z-0.249992
G01 X97.692465 Y126.669407 Z-0.249992
G00 Z5.000000

G00 Z5.000000
G00 X97.011349 Y131.933726

G01 Z-0.249992 F100.0(Penetrate)
G01 X96.767086 Y133.110283 Z-0.249992 F400.000000
G01 X96.320159 Y134.183179 Z-0.249992
G01 X95.993007 Y133.111242 Z-0.249992
G01 X96.057777 Y132.279166 Z-0.249992
G01 X96.282200 Y131.056354 Z-0.249992
G01 X96.493669 Y129.904041 Z-0.249992
G01 X97.043071 Y128.241582 Z-0.249992
G01 X97.247428 Y129.637087 Z-0.249992
G01 X97.303224 Y130.018143 Z-0.249992
G01 X97.193524 Y131.056156 Z-0.249992
G01 X97.011349 Y131.933726 Z-0.249992
G00 Z5.000000

G00 Z5.000000
G00 X101.533424 Y133.067215

G01 Z-0.249992 F100.0(Penetrate)
G01 X101.259528 Y133.341140 Z-0.249992 F400.000000
G01 X101.557667 Y134.008314 Z-0.249992
G01 X101.967934 Y134.008314 Z-0.249992
G01 X102.397758 Y134.008314 Z-0.249992
G01 X102.734985 Y133.516287 Z-0.249992
G01 X102.580497 Y133.113641 Z-0.249992
G01 X102.431681 Y132.725839 Z-0.249992
G01 X101.921593 Y132.679047 Z-0.249992
G01 X101.533424 Y133.067215 Z-0.249992
G00 Z5.000000

G00 Z5.000000
G00 X101.362031 Y136.042007

G01 Z-0.249992 F100.0(Penetrate)
G01 X101.157815 Y136.246223 Z-0.249992 F400.000000
G01 X101.165237 Y136.266091 Z-0.249992
G01 X101.428099 Y136.266091 Z-0.249992
G01 X101.589022 Y136.266091 Z-0.249992
G01 X101.601440 Y136.258302 Z-0.249992
G01 X101.601440 Y136.250513 Z-0.249992
G01 X101.601440 Y136.038846 Z-0.249992
G01 X101.451749 Y135.952289 Z-0.249992
G01 X101.362031 Y136.042007 Z-0.249992
G00 Z5.000000

G00 Z5.000000
G00 X100.972564 Y138.632751

G01 Z-0.249992 F100.0(Penetrate)
G01 X100.972564 Y138.762037 Z-0.249992 F400.000000
G01 X101.016619 Y138.806091 Z-0.249992
G01 X101.145877 Y138.806091 Z-0.249992
G01 X101.275163 Y138.806091 Z-0.249992
G01 X101.319218 Y138.762037 Z-0.249992
G01 X101.319218 Y138.632751 Z-0.249992
G01 X101.319218 Y138.503465 Z-0.249992
G01 X101.275163 Y138.459410 Z-0.249992
G01 X101.145877 Y138.459410 Z-0.249992
G01 X101.016619 Y138.459410 Z-0.249992
G01 X100.972564 Y138.503465 Z-0.249992
G01 X100.972564 Y138.632751 Z-0.249992
G00 Z5.000000

G00 Z5.000000
G00 X100.789233 Y141.227304

G01 Z-0.249992 F100.0(Penetrate)
G01 X100.690201 Y141.485396 Z-0.249992 F400.000000
G01 X100.697510 Y141.572490 Z-0.249992
G01 X100.742609 Y141.649904 Z-0.227161
G01 X100.742609 Y141.649904 Z-0.227161
G01 X100.889139 Y141.471059 Z-0.249992
G01 X101.130552 Y141.313862 Z-0.190444
G01 X101.130552 Y141.313862 Z-0.190444
G01 X100.893683 Y141.161236 Z-0.249992
G01 X100.785874 Y140.865806 Z-0.117348
G01 X100.785874 Y140.865806 Z-0.117348
G01 X100.789233 Y141.227304 Z-0.249992
G00 Z5.000000

G00 Z5.000000
G00 X100.408120 Y143.853862

G01 Z-0.249992 F100.0(Penetrate)
G01 X100.374902 Y143.919281 Z-0.216803 F400.000000
G01 X100.374902 Y143.919281 Z-0.216803
G01 X100.440321 Y143.886092 Z-0.249992
G01 X100.505769 Y143.919281 Z-0.216803
G01 X100.505769 Y143.919281 Z-0.216803
G01 X100.472551 Y143.853862 Z-0.249992
G01 X100.505769 Y143.788443 Z-0.216803
G01 X100.505769 Y143.788443 Z-0.216803
G01 X100.440321 Y143.821632 Z-0.249992
G01 X100.374902 Y143.788443 Z-0.216803
G01 X100.374902 Y143.788443 Z-0.216803
G01 X100.408120 Y143.853862 Z-0.249992
G00 Z5.000000

G00 Z5.000000
G00 X105.205898 Y144.303611

G01 Z-0.249992 F100.0(Penetrate)
G01 X105.205898 Y144.650406 Z-0.249992 F400.000000
G01 X104.834408 Y145.043541 Z-0.249992
G01 X104.454707 Y145.142855 Z-0.249992
G01 X104.193030 Y145.211266 Z-0.249992
G01 X104.077009 Y145.368294 Z-0.249992
G01 X104.077009 Y145.664769 Z-0.249992
G01 X104.077009 Y146.045882 Z-0.249992
G01 X103.896640 Y146.564888 Z-0.249992
G01 X103.675604 Y146.785925 Z-0.249992
G01 X103.452084 Y146.877054 Z-0.156379
G01 X103.452084 Y146.877054 Z-0.156379
G01 X104.010997 Y146.989379 Z-0.249992
G01 X104.467350 Y147.162889 Z-0.249992
G01 X104.923675 Y147.569092 Z-0.249992
G01 X104.923675 Y147.892067 Z-0.249992
G01 X104.923675 Y148.118776 Z-0.249992
G01 X104.848632 Y148.115671 Z-0.249992
G01 X106.280797 Y148.175051 Z-0.249992
G01 X106.498306 Y147.840222 Z-0.249992
G01 X106.648928 Y147.608405 Z-0.249992
G01 X107.082280 Y147.417933 Z-0.249992
G01 X107.414766 Y147.416325 Z-0.249992
G01 X107.624598 Y147.415252 Z-0.249992
G01 X107.673395 Y147.356183 Z-0.249992
G01 X107.677713 Y147.040489 Z-0.249992
G01 X107.682793 Y146.669621 Z-0.249992
G01 X107.802511 Y146.204067 Z-0.249992
G01 X107.962588 Y146.043991 Z-0.249992
G01 X108.227143 Y145.779436 Z-0.249992
G01 X108.158930 Y145.514965 Z-0.249992
G01 X107.892794 Y145.514965 Z-0.249992
G01 X107.546282 Y145.514965 Z-0.249992
G01 X107.153259 Y145.144972 Z-0.249992
G01 X107.054284 Y144.766484 Z-0.249992
G01 X106.970915 Y144.447742 Z-0.249992
G01 X106.965835 Y144.445287 Z-0.249992
G01 X106.536773 Y144.552983 Z-0.249992
G01 X106.074154 Y144.669089 Z-0.249992
G01 X105.552551 Y144.557668 Z-0.249992
G01 X105.552551 Y144.166677 Z-0.249992
G01 X105.552551 Y144.120759 Z-0.249992
G01 X105.529719 Y144.103854 Z-0.249992
G01 X105.379210 Y144.103854 Z-0.249992
G01 X105.254412 Y144.103854 Z-0.249992
G01 X105.205898 Y144.155416 Z-0.249992
G01 X105.205898 Y144.303611 Z-0.249992
G00 Z5.000000

G00 Z5.000000
G00 X106.415389 Y146.199890

G01 Z-0.249992 F100.0(Penetrate)
G01 X106.474797 Y146.496986 Z-0.249992 F400.000000
G01 X106.115641 Y146.803084 Z-0.249992
G01 X105.779288 Y146.867854 Z-0.249992
G01 X105.361797 Y146.948259 Z-0.249992
G01 X104.988107 Y146.668605 Z-0.249992
G01 X104.988107 Y146.252751 Z-0.249992
G01 X104.988107 Y145.512792 Z-0.249992
G01 X106.276959 Y145.507430 Z-0.249992
G01 X106.415389 Y146.199890 Z-0.249992
G00 Z5.000000

G00 Z5.000000
G00 X100.738799 Y149.401052

G01 Z-0.184968 F100.0(Penetrate)
G01 X100.821039 Y149.536463 Z-0.183755 F400.000000
G01 X100.863739 Y149.650085 Z-0.130443
G01 X100.880334 Y149.675542 Z-0.104987
G01 X100.863739 Y149.650085 Z-0.130443
G01 X100.858179 Y149.622653 Z-0.146586
G01 X100.810202 Y149.498306 Z-0.194592
G01 X100.792139 Y149.434750 Z-0.212626
G01 X100.786241 Y149.427525 Z-0.211413
G01 X100.705892 Y149.382708 Z-0.166624
G01 X100.618319 Y149.333884 Z-0.117800
G01 X100.618319 Y149.333884 Z-0.117800
G01 X100.738799 Y149.401052 Z-0.184968
G00 Z5.000000

G00 Z5.000000
G00 X108.028487 Y155.318434

G01 Z-0.249992 F100.0(Penetrate)
G01 X107.665888 Y155.612058 Z-0.249992 F400.000000
G01 X107.464353 Y155.950499 Z-0.249992
G01 X107.316242 Y156.728783 Z-0.249992
G01 X107.380815 Y157.085625 Z-0.249992
G01 X107.613366 Y157.440548 Z-0.249992
G01 X107.828814 Y157.769336 Z-0.249992
G01 X108.059390 Y157.921257 Z-0.249992
G01 X108.766949 Y158.013459 Z-0.249992
G01 X109.183650 Y157.921878 Z-0.249992
G01 X109.731020 Y157.667680 Z-0.249992
G01 X110.311015 Y157.398327 Z-0.249992
G01 X110.479220 Y156.870346 Z-0.249992
G01 X110.219970 Y155.686000 Z-0.249992
G01 X109.807728 Y155.189204 Z-0.249992
G01 X109.114958 Y155.057745 Z-0.249992
G01 X108.731672 Y154.985017 Z-0.249992
G01 X108.316212 Y155.085460 Z-0.249992
G01 X108.028487 Y155.318434 Z-0.249992
G00 Z5.000000

G00 Z5.000000
G00 X111.414786 Y158.640331

G01 Z-0.249992 F100.0(Penetrate)
G01 X111.414786 Y158.936890 Z-0.249992 F400.000000
G01 X111.149526 Y159.307109 Z-0.249992
G01 X110.865892 Y159.415934 Z-0.249992
G01 X110.554319 Y159.535511 Z-0.249992
G01 X110.743944 Y160.577250 Z-0.249992
G01 X111.349367 Y161.182673 Z-0.249992
G01 X111.635795 Y161.469129 Z-0.249992
G01 X111.929673 Y161.545357 Z-0.249992
G01 X112.425848 Y161.451151 Z-0.249992
G01 X112.943246 Y161.352881 Z-0.249992
G01 X113.263511 Y161.137348 Z-0.249992
G01 X113.696948 Y160.529244 Z-0.249992
G01 X113.766375 Y160.204717 Z-0.249992
G01 X113.669036 Y159.481296 Z-0.249992
G01 X113.511839 Y159.171332 Z-0.249992
G01 X112.919341 Y158.651422 Z-0.249992
G01 X112.541474 Y158.497188 Z-0.249992
G01 X112.008215 Y158.497188 Z-0.249992
G01 X111.530836 Y158.497188 Z-0.249992
G01 X111.414786 Y158.551290 Z-0.249992
G01 X111.414786 Y158.640331 Z-0.249992
G00 Z5.000000

G00 Z5.000000
G00 X112.475180 Y153.492795

G01 Z-0.249992 F100.0(Penetrate)
G01 X111.967942 Y153.744029 Z-0.249992 F400.000000
G01 X111.846361 Y154.281267 Z-0.249992
G01 X112.160135 Y155.488642 Z-0.249992
G01 X112.566253 Y155.977846 Z-0.249992
G01 X113.186324 Y156.059098 Z-0.249992
G01 X113.881014 Y156.150143 Z-0.249992
G01 X114.418139 Y155.825898 Z-0.249992
G01 X115.049018 Y154.784244 Z-0.249992
G01 X115.073572 Y154.195839 Z-0.249992
G01 X114.648573 Y153.678695 Z-0.249992
G01 X114.401064 Y153.377535 Z-0.249992
G01 X114.129736 Y153.232304 Z-0.249992
G01 X113.380605 Y153.156358 Z-0.249992
G01 X112.969633 Y153.247911 Z-0.249992
G01 X112.475180 Y153.492795 Z-0.249992
G00 Z5.000000

